(G-CODE GENERATED BY FLATCAM v8.991 - www.flatcam.org - Version Date: 2019/12/27)

(Name: main-Eco1_User.gbr_iso_cnc)
(Type: G-code from Geometry)
(Units: MM)

(Created on Monday, 01 June 2020 at 19:13)

(TOOL DIAMETER: 1.0 mm)
(Feedrate: 120.0 mm/min)
(Feedrate_Z: 60.0 mm/min)
(Feedrate rapids 1500.0 mm/min)

(Z_Cut: -5.0 mm)
(Z_Move: 10.0 mm)
(Z Toolchange: 15.0 mm)
(X,Y Toolchange: 0.0000, 0.0000 mm)
(Z Start: None mm)
(Z End: 15.0 mm)
(Steps per circle: 64)
(Preprocessor Geometry: default)

(X range:   49.6460 ...  247.8651  mm)
(Y range:  104.6930 ...  376.6684  mm)

(Spindle Speed: None RPM)
G21
G90
G94




G01 F120.00
G00 Z10.0000

M03
G00 X51.7414 Y105.8461
G01 F60.00
G01 Z-5.0000
G01 F120.00
G01 X51.7464 Y105.7432
G01 X51.7414 Y105.6403
G01 X51.7262 Y105.5383
G01 X51.7012 Y105.4383
G01 X51.6665 Y105.3413
G01 X51.6224 Y105.2481
G01 X51.5694 Y105.1597
G01 X51.5080 Y105.0769
G01 X51.4388 Y105.0006
G01 X51.3625 Y104.9314
G01 X51.2797 Y104.8700
G01 X51.1913 Y104.8170
G01 X51.0981 Y104.7729
G01 X51.0011 Y104.7382
G01 X50.9011 Y104.7132
G01 X50.7991 Y104.6980
G01 X50.6962 Y104.6930
G01 X50.5933 Y104.6980
G01 X50.4913 Y104.7132
G01 X50.3913 Y104.7382
G01 X50.2943 Y104.7729
G01 X50.2011 Y104.8170
G01 X50.1127 Y104.8700
G01 X50.0299 Y104.9314
G01 X49.9536 Y105.0006
G01 X49.8844 Y105.0769
G01 X49.8230 Y105.1597
G01 X49.7700 Y105.2481
G01 X49.7259 Y105.3413
G01 X49.6912 Y105.4383
G01 X49.6662 Y105.5383
G01 X49.6510 Y105.6403
G01 X49.6460 Y105.7432
G01 X49.6510 Y105.8461
G01 X49.6662 Y105.9481
G01 X49.6912 Y106.0481
G01 X49.7259 Y106.1451
G01 X49.7700 Y106.2383
G01 X49.8230 Y106.3267
G01 X49.8844 Y106.4095
G01 X49.9536 Y106.4858
G01 X50.0299 Y106.5550
G01 X50.1127 Y106.6164
G01 X50.2011 Y106.6694
G01 X50.2943 Y106.7135
G01 X50.3913 Y106.7482
G01 X50.4913 Y106.7732
G01 X50.5933 Y106.7884
G01 X50.6962 Y106.7934
G01 X50.7991 Y106.7884
G01 X50.9011 Y106.7732
G01 X51.0011 Y106.7482
G01 X51.0981 Y106.7135
G01 X51.1913 Y106.6694
G01 X51.2797 Y106.6164
G01 X51.3625 Y106.5550
G01 X51.4388 Y106.4858
G01 X51.5080 Y106.4095
G01 X51.5694 Y106.3267
G01 X51.6224 Y106.2383
G01 X51.6665 Y106.1451
G01 X51.7012 Y106.0481
G01 X51.7262 Y105.9481
G01 X51.7414 Y105.8461
G00 Z10.0000
G00 X94.9214 Y105.8461
G01 F60.00
G01 Z-5.0000
G01 F120.00
G01 X94.9264 Y105.7432
G01 X94.9214 Y105.6403
G01 X94.9062 Y105.5383
G01 X94.8812 Y105.4383
G01 X94.8465 Y105.3413
G01 X94.8024 Y105.2481
G01 X94.7494 Y105.1597
G01 X94.6880 Y105.0769
G01 X94.6188 Y105.0006
G01 X94.5425 Y104.9314
G01 X94.4597 Y104.8700
G01 X94.3713 Y104.8170
G01 X94.2781 Y104.7729
G01 X94.1811 Y104.7382
G01 X94.0811 Y104.7132
G01 X93.9791 Y104.6980
G01 X93.8762 Y104.6930
G01 X93.7733 Y104.6980
G01 X93.6713 Y104.7132
G01 X93.5713 Y104.7382
G01 X93.4743 Y104.7729
G01 X93.3811 Y104.8170
G01 X93.2927 Y104.8700
G01 X93.2099 Y104.9314
G01 X93.1336 Y105.0006
G01 X93.0644 Y105.0769
G01 X93.0030 Y105.1597
G01 X92.9500 Y105.2481
G01 X92.9059 Y105.3413
G01 X92.8712 Y105.4383
G01 X92.8462 Y105.5383
G01 X92.8310 Y105.6403
G01 X92.8260 Y105.7432
G01 X92.8310 Y105.8461
G01 X92.8462 Y105.9481
G01 X92.8712 Y106.0481
G01 X92.9059 Y106.1451
G01 X92.9500 Y106.2383
G01 X93.0030 Y106.3267
G01 X93.0644 Y106.4095
G01 X93.1336 Y106.4858
G01 X93.2099 Y106.5550
G01 X93.2927 Y106.6164
G01 X93.3811 Y106.6694
G01 X93.4743 Y106.7135
G01 X93.5713 Y106.7482
G01 X93.6713 Y106.7732
G01 X93.7733 Y106.7884
G01 X93.8762 Y106.7934
G01 X93.9791 Y106.7884
G01 X94.0811 Y106.7732
G01 X94.1811 Y106.7482
G01 X94.2781 Y106.7135
G01 X94.3713 Y106.6694
G01 X94.4597 Y106.6164
G01 X94.5425 Y106.5550
G01 X94.6188 Y106.4858
G01 X94.6880 Y106.4095
G01 X94.7494 Y106.3267
G01 X94.8024 Y106.2383
G01 X94.8465 Y106.1451
G01 X94.8812 Y106.0481
G01 X94.9062 Y105.9481
G01 X94.9214 Y105.8461
G00 Z10.0000
G00 X94.2864 Y184.5861
G01 F60.00
G01 Z-5.0000
G01 F120.00
G01 X94.2914 Y184.4832
G01 X94.2864 Y184.3803
G01 X94.2712 Y184.2783
G01 X94.2462 Y184.1783
G01 X94.2115 Y184.0813
G01 X94.1674 Y183.9881
G01 X94.1144 Y183.8997
G01 X94.0530 Y183.8169
G01 X93.9838 Y183.7406
G01 X93.9075 Y183.6714
G01 X93.8247 Y183.6100
G01 X93.7363 Y183.5570
G01 X93.6431 Y183.5129
G01 X93.5461 Y183.4782
G01 X93.4461 Y183.4532
G01 X93.3441 Y183.4380
G01 X93.2412 Y183.4330
G01 X93.1383 Y183.4380
G01 X93.0363 Y183.4532
G01 X92.9363 Y183.4782
G01 X92.8393 Y183.5129
G01 X92.7461 Y183.5570
G01 X92.6577 Y183.6100
G01 X92.5749 Y183.6714
G01 X92.4986 Y183.7406
G01 X92.4294 Y183.8169
G01 X92.3680 Y183.8997
G01 X92.3150 Y183.9881
G01 X92.2709 Y184.0813
G01 X92.2362 Y184.1783
G01 X92.2112 Y184.2783
G01 X92.1960 Y184.3803
G01 X92.1910 Y184.4832
G01 X92.1960 Y184.5861
G01 X92.2112 Y184.6881
G01 X92.2362 Y184.7881
G01 X92.2709 Y184.8851
G01 X92.3150 Y184.9783
G01 X92.3680 Y185.0667
G01 X92.4294 Y185.1495
G01 X92.4986 Y185.2258
G01 X92.5749 Y185.2950
G01 X92.6577 Y185.3564
G01 X92.7461 Y185.4094
G01 X92.8393 Y185.4535
G01 X92.9363 Y185.4882
G01 X93.0363 Y185.5132
G01 X93.1383 Y185.5284
G01 X93.2412 Y185.5334
G01 X93.3441 Y185.5284
G01 X93.4461 Y185.5132
G01 X93.5461 Y185.4882
G01 X93.6431 Y185.4535
G01 X93.7363 Y185.4094
G01 X93.8247 Y185.3564
G01 X93.9075 Y185.2950
G01 X93.9838 Y185.2258
G01 X94.0530 Y185.1495
G01 X94.1144 Y185.0667
G01 X94.1674 Y184.9783
G01 X94.2115 Y184.8851
G01 X94.2462 Y184.7881
G01 X94.2712 Y184.6881
G01 X94.2864 Y184.5861
G00 Z10.0000
G00 X54.9164 Y196.0161
G01 F60.00
G01 Z-5.0000
G01 F120.00
G01 X54.9214 Y195.9132
G01 X54.9164 Y195.8103
G01 X54.9012 Y195.7083
G01 X54.8762 Y195.6083
G01 X54.8415 Y195.5113
G01 X54.7974 Y195.4181
G01 X54.7444 Y195.3297
G01 X54.6830 Y195.2469
G01 X54.6138 Y195.1706
G01 X54.5375 Y195.1014
G01 X54.4547 Y195.0400
G01 X54.3663 Y194.9870
G01 X54.2731 Y194.9429
G01 X54.1761 Y194.9082
G01 X54.0761 Y194.8832
G01 X53.9741 Y194.8680
G01 X53.8712 Y194.8630
G01 X53.7683 Y194.8680
G01 X53.6663 Y194.8832
G01 X53.5663 Y194.9082
G01 X53.4693 Y194.9429
G01 X53.3761 Y194.9870
G01 X53.2877 Y195.0400
G01 X53.2049 Y195.1014
G01 X53.1286 Y195.1706
G01 X53.0594 Y195.2469
G01 X52.9980 Y195.3297
G01 X52.9450 Y195.4181
G01 X52.9009 Y195.5113
G01 X52.8662 Y195.6083
G01 X52.8412 Y195.7083
G01 X52.8260 Y195.8103
G01 X52.8210 Y195.9132
G01 X52.8260 Y196.0161
G01 X52.8412 Y196.1181
G01 X52.8662 Y196.2181
G01 X52.9009 Y196.3151
G01 X52.9450 Y196.4083
G01 X52.9980 Y196.4967
G01 X53.0594 Y196.5795
G01 X53.1286 Y196.6558
G01 X53.2049 Y196.7250
G01 X53.2877 Y196.7864
G01 X53.3761 Y196.8394
G01 X53.4693 Y196.8835
G01 X53.5663 Y196.9182
G01 X53.6663 Y196.9432
G01 X53.7683 Y196.9584
G01 X53.8712 Y196.9634
G01 X53.9741 Y196.9584
G01 X54.0761 Y196.9432
G01 X54.1761 Y196.9182
G01 X54.2731 Y196.8835
G01 X54.3663 Y196.8394
G01 X54.4547 Y196.7864
G01 X54.5375 Y196.7250
G01 X54.6138 Y196.6558
G01 X54.6830 Y196.5795
G01 X54.7444 Y196.4967
G01 X54.7974 Y196.4083
G01 X54.8415 Y196.3151
G01 X54.8762 Y196.2181
G01 X54.9012 Y196.1181
G01 X54.9164 Y196.0161
G00 Z10.0000
G00 X67.8196 Y245.5969
G01 F60.00
G01 Z-5.0000
G01 F120.00
G01 X67.8246 Y245.4940
G01 X67.8196 Y245.3911
G01 X67.8044 Y245.2891
G01 X67.7794 Y245.1891
G01 X67.7447 Y245.0921
G01 X67.7006 Y244.9989
G01 X67.6476 Y244.9105
G01 X67.5862 Y244.8277
G01 X67.5170 Y244.7514
G01 X67.4407 Y244.6822
G01 X67.3579 Y244.6208
G01 X67.2695 Y244.5678
G01 X67.1763 Y244.5237
G01 X67.0793 Y244.4890
G01 X66.9793 Y244.4640
G01 X66.8773 Y244.4488
G01 X66.7744 Y244.4438
G01 X66.6715 Y244.4488
G01 X66.5695 Y244.4640
G01 X66.4695 Y244.4890
G01 X66.3725 Y244.5237
G01 X66.2793 Y244.5678
G01 X66.1909 Y244.6208
G01 X66.1081 Y244.6822
G01 X66.0318 Y244.7514
G01 X65.9626 Y244.8277
G01 X65.9012 Y244.9105
G01 X65.8482 Y244.9989
G01 X65.8041 Y245.0921
G01 X65.7694 Y245.1891
G01 X65.7444 Y245.2891
G01 X65.7292 Y245.3911
G01 X65.7242 Y245.4940
G01 X65.7292 Y245.5969
G01 X65.7444 Y245.6989
G01 X65.7694 Y245.7989
G01 X65.8041 Y245.8959
G01 X65.8482 Y245.9891
G01 X65.9012 Y246.0775
G01 X65.9626 Y246.1603
G01 X66.0318 Y246.2366
G01 X66.1081 Y246.3058
G01 X66.1909 Y246.3672
G01 X66.2793 Y246.4202
G01 X66.3725 Y246.4643
G01 X66.4695 Y246.4990
G01 X66.5695 Y246.5240
G01 X66.6715 Y246.5392
G01 X66.7744 Y246.5442
G01 X66.8773 Y246.5392
G01 X66.9793 Y246.5240
G01 X67.0793 Y246.4990
G01 X67.1763 Y246.4643
G01 X67.2695 Y246.4202
G01 X67.3579 Y246.3672
G01 X67.4407 Y246.3058
G01 X67.5170 Y246.2366
G01 X67.5862 Y246.1603
G01 X67.6476 Y246.0775
G01 X67.7006 Y245.9891
G01 X67.7447 Y245.8959
G01 X67.7794 Y245.7989
G01 X67.8044 Y245.6989
G01 X67.8196 Y245.5969
G00 Z10.0000
G00 X94.2864 Y245.5461
G01 F60.00
G01 Z-5.0000
G01 F120.00
G01 X94.2914 Y245.4432
G01 X94.2864 Y245.3403
G01 X94.2712 Y245.2383
G01 X94.2462 Y245.1383
G01 X94.2115 Y245.0413
G01 X94.1674 Y244.9481
G01 X94.1144 Y244.8597
G01 X94.0530 Y244.7769
G01 X93.9838 Y244.7006
G01 X93.9075 Y244.6314
G01 X93.8247 Y244.5700
G01 X93.7363 Y244.5170
G01 X93.6431 Y244.4729
G01 X93.5461 Y244.4382
G01 X93.4461 Y244.4132
G01 X93.3441 Y244.3980
G01 X93.2412 Y244.3930
G01 X93.1383 Y244.3980
G01 X93.0363 Y244.4132
G01 X92.9363 Y244.4382
G01 X92.8393 Y244.4729
G01 X92.7461 Y244.5170
G01 X92.6577 Y244.5700
G01 X92.5749 Y244.6314
G01 X92.4986 Y244.7006
G01 X92.4294 Y244.7769
G01 X92.3680 Y244.8597
G01 X92.3150 Y244.9481
G01 X92.2709 Y245.0413
G01 X92.2362 Y245.1383
G01 X92.2112 Y245.2383
G01 X92.1960 Y245.3403
G01 X92.1910 Y245.4432
G01 X92.1960 Y245.5461
G01 X92.2112 Y245.6481
G01 X92.2362 Y245.7481
G01 X92.2709 Y245.8451
G01 X92.3150 Y245.9383
G01 X92.3680 Y246.0267
G01 X92.4294 Y246.1095
G01 X92.4986 Y246.1858
G01 X92.5749 Y246.2550
G01 X92.6577 Y246.3164
G01 X92.7461 Y246.3694
G01 X92.8393 Y246.4135
G01 X92.9363 Y246.4482
G01 X93.0363 Y246.4732
G01 X93.1383 Y246.4884
G01 X93.2412 Y246.4934
G01 X93.3441 Y246.4884
G01 X93.4461 Y246.4732
G01 X93.5461 Y246.4482
G01 X93.6431 Y246.4135
G01 X93.7363 Y246.3694
G01 X93.8247 Y246.3164
G01 X93.9075 Y246.2550
G01 X93.9838 Y246.1858
G01 X94.0530 Y246.1095
G01 X94.1144 Y246.0267
G01 X94.1674 Y245.9383
G01 X94.2115 Y245.8451
G01 X94.2462 Y245.7481
G01 X94.2712 Y245.6481
G01 X94.2864 Y245.5461
G00 Z10.0000
G00 X92.7461 Y302.2494
G01 F60.00
G01 Z-5.0000
G01 F120.00
G01 X92.8393 Y302.2935
G01 X92.9363 Y302.3282
G01 X93.0363 Y302.3532
G01 X93.1383 Y302.3684
G01 X93.2412 Y302.3734
G01 X93.3441 Y302.3684
G01 X93.4461 Y302.3532
G01 X93.5461 Y302.3282
G01 X93.6431 Y302.2935
G01 X93.7363 Y302.2494
G01 X93.8247 Y302.1964
G01 X93.9075 Y302.1350
G01 X93.9838 Y302.0658
G01 X94.0530 Y301.9895
G01 X94.1144 Y301.9067
G01 X94.1674 Y301.8183
G01 X94.2115 Y301.7251
G01 X94.2462 Y301.6281
G01 X94.2712 Y301.5281
G01 X94.2864 Y301.4261
G01 X94.2914 Y301.3232
G01 X94.2864 Y301.2203
G01 X94.2712 Y301.1183
G01 X94.2462 Y301.0183
G01 X94.2115 Y300.9213
G01 X94.1674 Y300.8281
G01 X94.1144 Y300.7397
G01 X94.0530 Y300.6569
G01 X93.9838 Y300.5806
G01 X93.9075 Y300.5114
G01 X93.8247 Y300.4500
G01 X93.7363 Y300.3970
G01 X93.6431 Y300.3529
G01 X93.5461 Y300.3182
G01 X93.4461 Y300.2932
G01 X93.3441 Y300.2780
G01 X93.2412 Y300.2730
G01 X93.1383 Y300.2780
G01 X93.0363 Y300.2932
G01 X92.9363 Y300.3182
G01 X92.8393 Y300.3529
G01 X92.7461 Y300.3970
G01 X92.6577 Y300.4500
G01 X92.5749 Y300.5114
G01 X92.4986 Y300.5806
G01 X92.4294 Y300.6569
G01 X92.3680 Y300.7397
G01 X92.3150 Y300.8281
G01 X92.2709 Y300.9213
G01 X92.2362 Y301.0183
G01 X92.2112 Y301.1183
G01 X92.1960 Y301.2203
G01 X92.1910 Y301.3232
G01 X92.1960 Y301.4261
G01 X92.2112 Y301.5281
G01 X92.2362 Y301.6281
G01 X92.2709 Y301.7251
G01 X92.3150 Y301.8183
G01 X92.3680 Y301.9067
G01 X92.4294 Y301.9895
G01 X92.4986 Y302.0658
G01 X92.5749 Y302.1350
G01 X92.6577 Y302.1964
G01 X92.7461 Y302.2494
G00 Z10.0000
G00 X103.5411 Y318.3784
G01 F60.00
G01 Z-5.0000
G01 F120.00
G01 X103.6343 Y318.4225
G01 X103.7313 Y318.4572
G01 X103.8313 Y318.4822
G01 X103.9333 Y318.4974
G01 X104.0362 Y318.5024
G01 X104.1391 Y318.4974
G01 X104.2411 Y318.4822
G01 X104.3411 Y318.4572
G01 X104.4381 Y318.4225
G01 X104.5313 Y318.3784
G01 X104.6197 Y318.3254
G01 X104.7025 Y318.2640
G01 X104.7788 Y318.1948
G01 X104.8480 Y318.1185
G01 X104.9094 Y318.0357
G01 X104.9624 Y317.9473
G01 X105.0065 Y317.8541
G01 X105.0412 Y317.7571
G01 X105.0662 Y317.6571
G01 X105.0814 Y317.5551
G01 X105.0864 Y317.4522
G01 X105.0814 Y317.3493
G01 X105.0662 Y317.2473
G01 X105.0412 Y317.1473
G01 X105.0065 Y317.0503
G01 X104.9624 Y316.9571
G01 X104.9094 Y316.8687
G01 X104.8480 Y316.7859
G01 X104.7788 Y316.7096
G01 X104.7025 Y316.6404
G01 X104.6197 Y316.5790
G01 X104.5313 Y316.5260
G01 X104.4381 Y316.4819
G01 X104.3411 Y316.4472
G01 X104.2411 Y316.4222
G01 X104.1391 Y316.4070
G01 X104.0362 Y316.4020
G01 X103.9333 Y316.4070
G01 X103.8313 Y316.4222
G01 X103.7313 Y316.4472
G01 X103.6343 Y316.4819
G01 X103.5411 Y316.5260
G01 X103.4527 Y316.5790
G01 X103.3699 Y316.6404
G01 X103.2936 Y316.7096
G01 X103.2244 Y316.7859
G01 X103.1630 Y316.8687
G01 X103.1100 Y316.9571
G01 X103.0659 Y317.0503
G01 X103.0312 Y317.1473
G01 X103.0062 Y317.2473
G01 X102.9910 Y317.3493
G01 X102.9860 Y317.4522
G01 X102.9910 Y317.5551
G01 X103.0062 Y317.6571
G01 X103.0312 Y317.7571
G01 X103.0659 Y317.8541
G01 X103.1100 Y317.9473
G01 X103.1630 Y318.0357
G01 X103.2244 Y318.1185
G01 X103.2936 Y318.1948
G01 X103.3699 Y318.2640
G01 X103.4527 Y318.3254
G01 X103.5411 Y318.3784
G00 Z10.0000
G00 X103.5411 Y342.8894
G01 F60.00
G01 Z-5.0000
G01 F120.00
G01 X103.6343 Y342.9335
G01 X103.7313 Y342.9682
G01 X103.8313 Y342.9932
G01 X103.9333 Y343.0084
G01 X104.0362 Y343.0134
G01 X104.1391 Y343.0084
G01 X104.2411 Y342.9932
G01 X104.3411 Y342.9682
G01 X104.4381 Y342.9335
G01 X104.5313 Y342.8894
G01 X104.6197 Y342.8364
G01 X104.7025 Y342.7750
G01 X104.7788 Y342.7058
G01 X104.8480 Y342.6295
G01 X104.9094 Y342.5467
G01 X104.9624 Y342.4583
G01 X105.0065 Y342.3651
G01 X105.0412 Y342.2681
G01 X105.0662 Y342.1681
G01 X105.0814 Y342.0661
G01 X105.0864 Y341.9632
G01 X105.0814 Y341.8603
G01 X105.0662 Y341.7583
G01 X105.0412 Y341.6583
G01 X105.0065 Y341.5613
G01 X104.9624 Y341.4681
G01 X104.9094 Y341.3797
G01 X104.8480 Y341.2969
G01 X104.7788 Y341.2206
G01 X104.7025 Y341.1514
G01 X104.6197 Y341.0900
G01 X104.5313 Y341.0370
G01 X104.4381 Y340.9929
G01 X104.3411 Y340.9582
G01 X104.2411 Y340.9332
G01 X104.1391 Y340.9180
G01 X104.0362 Y340.9130
G01 X103.9333 Y340.9180
G01 X103.8313 Y340.9332
G01 X103.7313 Y340.9582
G01 X103.6343 Y340.9929
G01 X103.5411 Y341.0370
G01 X103.4527 Y341.0900
G01 X103.3699 Y341.1514
G01 X103.2936 Y341.2206
G01 X103.2244 Y341.2969
G01 X103.1630 Y341.3797
G01 X103.1100 Y341.4681
G01 X103.0659 Y341.5613
G01 X103.0312 Y341.6583
G01 X103.0062 Y341.7583
G01 X102.9910 Y341.8603
G01 X102.9860 Y341.9632
G01 X102.9910 Y342.0661
G01 X103.0062 Y342.1681
G01 X103.0312 Y342.2681
G01 X103.0659 Y342.3651
G01 X103.1100 Y342.4583
G01 X103.1630 Y342.5467
G01 X103.2244 Y342.6295
G01 X103.2936 Y342.7058
G01 X103.3699 Y342.7750
G01 X103.4527 Y342.8364
G01 X103.5411 Y342.8894
G00 Z10.0000
G00 X123.2029 Y339.5082
G01 F60.00
G01 Z-5.0000
G01 F120.00
G01 X123.2961 Y339.5523
G01 X123.3931 Y339.5870
G01 X123.4931 Y339.6120
G01 X123.5951 Y339.6272
G01 X123.6980 Y339.6322
G01 X123.8009 Y339.6272
G01 X123.9029 Y339.6120
G01 X124.0029 Y339.5870
G01 X124.0999 Y339.5523
G01 X124.1931 Y339.5082
G01 X124.2815 Y339.4552
G01 X124.3643 Y339.3938
G01 X124.4406 Y339.3246
G01 X124.5098 Y339.2483
G01 X124.5712 Y339.1655
G01 X124.6242 Y339.0771
G01 X124.6683 Y338.9839
G01 X124.7030 Y338.8869
G01 X124.7280 Y338.7869
G01 X124.7432 Y338.6849
G01 X124.7482 Y338.5820
G01 X124.7432 Y338.4791
G01 X124.7280 Y338.3771
G01 X124.7030 Y338.2771
G01 X124.6683 Y338.1801
G01 X124.6242 Y338.0869
G01 X124.5712 Y337.9985
G01 X124.5098 Y337.9157
G01 X124.4406 Y337.8394
G01 X124.3643 Y337.7702
G01 X124.2815 Y337.7088
G01 X124.1931 Y337.6558
G01 X124.0999 Y337.6117
G01 X124.0029 Y337.5770
G01 X123.9029 Y337.5520
G01 X123.8009 Y337.5368
G01 X123.6980 Y337.5318
G01 X123.5951 Y337.5368
G01 X123.4931 Y337.5520
G01 X123.3931 Y337.5770
G01 X123.2961 Y337.6117
G01 X123.2029 Y337.6558
G01 X123.1145 Y337.7088
G01 X123.0317 Y337.7702
G01 X122.9554 Y337.8394
G01 X122.8862 Y337.9157
G01 X122.8248 Y337.9985
G01 X122.7718 Y338.0869
G01 X122.7277 Y338.1801
G01 X122.6930 Y338.2771
G01 X122.6680 Y338.3771
G01 X122.6528 Y338.4791
G01 X122.6478 Y338.5820
G01 X122.6528 Y338.6849
G01 X122.6680 Y338.7869
G01 X122.6930 Y338.8869
G01 X122.7277 Y338.9839
G01 X122.7718 Y339.0771
G01 X122.8248 Y339.1655
G01 X122.8862 Y339.2483
G01 X122.9554 Y339.3246
G01 X123.0317 Y339.3938
G01 X123.1145 Y339.4552
G01 X123.2029 Y339.5082
G00 Z10.0000
G00 X123.2029 Y356.7802
G01 F60.00
G01 Z-5.0000
G01 F120.00
G01 X123.2961 Y356.8243
G01 X123.3931 Y356.8590
G01 X123.4931 Y356.8840
G01 X123.5951 Y356.8992
G01 X123.6980 Y356.9042
G01 X123.8009 Y356.8992
G01 X123.9029 Y356.8840
G01 X124.0029 Y356.8590
G01 X124.0999 Y356.8243
G01 X124.1931 Y356.7802
G01 X124.2815 Y356.7272
G01 X124.3643 Y356.6658
G01 X124.4406 Y356.5966
G01 X124.5098 Y356.5203
G01 X124.5712 Y356.4375
G01 X124.6242 Y356.3491
G01 X124.6683 Y356.2559
G01 X124.7030 Y356.1589
G01 X124.7280 Y356.0589
G01 X124.7432 Y355.9569
G01 X124.7482 Y355.8540
G01 X124.7432 Y355.7511
G01 X124.7280 Y355.6491
G01 X124.7030 Y355.5491
G01 X124.6683 Y355.4521
G01 X124.6242 Y355.3589
G01 X124.5712 Y355.2705
G01 X124.5098 Y355.1877
G01 X124.4406 Y355.1114
G01 X124.3643 Y355.0422
G01 X124.2815 Y354.9808
G01 X124.1931 Y354.9278
G01 X124.0999 Y354.8837
G01 X124.0029 Y354.8490
G01 X123.9029 Y354.8240
G01 X123.8009 Y354.8088
G01 X123.6980 Y354.8038
G01 X123.5951 Y354.8088
G01 X123.4931 Y354.8240
G01 X123.3931 Y354.8490
G01 X123.2961 Y354.8837
G01 X123.2029 Y354.9278
G01 X123.1145 Y354.9808
G01 X123.0317 Y355.0422
G01 X122.9554 Y355.1114
G01 X122.8862 Y355.1877
G01 X122.8248 Y355.2705
G01 X122.7718 Y355.3589
G01 X122.7277 Y355.4521
G01 X122.6930 Y355.5491
G01 X122.6680 Y355.6491
G01 X122.6528 Y355.7511
G01 X122.6478 Y355.8540
G01 X122.6528 Y355.9569
G01 X122.6680 Y356.0589
G01 X122.6930 Y356.1589
G01 X122.7277 Y356.2559
G01 X122.7718 Y356.3491
G01 X122.8248 Y356.4375
G01 X122.8862 Y356.5203
G01 X122.9554 Y356.5966
G01 X123.0317 Y356.6658
G01 X123.1145 Y356.7272
G01 X123.2029 Y356.7802
G00 Z10.0000
G00 X93.3811 Y369.5594
G01 F60.00
G01 Z-5.0000
G01 F120.00
G01 X93.4743 Y369.6035
G01 X93.5713 Y369.6382
G01 X93.6713 Y369.6632
G01 X93.7733 Y369.6784
G01 X93.8762 Y369.6834
G01 X93.9791 Y369.6784
G01 X94.0811 Y369.6632
G01 X94.1811 Y369.6382
G01 X94.2781 Y369.6035
G01 X94.3713 Y369.5594
G01 X94.4597 Y369.5064
G01 X94.5425 Y369.4450
G01 X94.6188 Y369.3758
G01 X94.6880 Y369.2995
G01 X94.7494 Y369.2167
G01 X94.8024 Y369.1283
G01 X94.8465 Y369.0351
G01 X94.8812 Y368.9381
G01 X94.9062 Y368.8381
G01 X94.9214 Y368.7361
G01 X94.9264 Y368.6332
G01 X94.9214 Y368.5303
G01 X94.9062 Y368.4283
G01 X94.8812 Y368.3283
G01 X94.8465 Y368.2313
G01 X94.8024 Y368.1381
G01 X94.7494 Y368.0497
G01 X94.6880 Y367.9669
G01 X94.6188 Y367.8906
G01 X94.5425 Y367.8214
G01 X94.4597 Y367.7600
G01 X94.3713 Y367.7070
G01 X94.2781 Y367.6629
G01 X94.1811 Y367.6282
G01 X94.0811 Y367.6032
G01 X93.9791 Y367.5880
G01 X93.8762 Y367.5830
G01 X93.7733 Y367.5880
G01 X93.6713 Y367.6032
G01 X93.5713 Y367.6282
G01 X93.4743 Y367.6629
G01 X93.3811 Y367.7070
G01 X93.2927 Y367.7600
G01 X93.2099 Y367.8214
G01 X93.1336 Y367.8906
G01 X93.0644 Y367.9669
G01 X93.0030 Y368.0497
G01 X92.9500 Y368.1381
G01 X92.9059 Y368.2313
G01 X92.8712 Y368.3283
G01 X92.8462 Y368.4283
G01 X92.8310 Y368.5303
G01 X92.8260 Y368.6332
G01 X92.8310 Y368.7361
G01 X92.8462 Y368.8381
G01 X92.8712 Y368.9381
G01 X92.9059 Y369.0351
G01 X92.9500 Y369.1283
G01 X93.0030 Y369.2167
G01 X93.0644 Y369.2995
G01 X93.1336 Y369.3758
G01 X93.2099 Y369.4450
G01 X93.2927 Y369.5064
G01 X93.3811 Y369.5594
G00 Z10.0000
G00 X53.3761 Y376.5444
G01 F60.00
G01 Z-5.0000
G01 F120.00
G01 X53.4693 Y376.5885
G01 X53.5663 Y376.6232
G01 X53.6663 Y376.6482
G01 X53.7683 Y376.6634
G01 X53.8712 Y376.6684
G01 X53.9741 Y376.6634
G01 X54.0761 Y376.6482
G01 X54.1761 Y376.6232
G01 X54.2731 Y376.5885
G01 X54.3663 Y376.5444
G01 X54.4547 Y376.4914
G01 X54.5375 Y376.4300
G01 X54.6138 Y376.3608
G01 X54.6830 Y376.2845
G01 X54.7444 Y376.2017
G01 X54.7974 Y376.1133
G01 X54.8415 Y376.0201
G01 X54.8762 Y375.9231
G01 X54.9012 Y375.8231
G01 X54.9164 Y375.7211
G01 X54.9214 Y375.6182
G01 X54.9164 Y375.5153
G01 X54.9012 Y375.4133
G01 X54.8762 Y375.3133
G01 X54.8415 Y375.2163
G01 X54.7974 Y375.1231
G01 X54.7444 Y375.0347
G01 X54.6830 Y374.9519
G01 X54.6138 Y374.8756
G01 X54.5375 Y374.8064
G01 X54.4547 Y374.7450
G01 X54.3663 Y374.6920
G01 X54.2731 Y374.6479
G01 X54.1761 Y374.6132
G01 X54.0761 Y374.5882
G01 X53.9741 Y374.5730
G01 X53.8712 Y374.5680
G01 X53.7683 Y374.5730
G01 X53.6663 Y374.5882
G01 X53.5663 Y374.6132
G01 X53.4693 Y374.6479
G01 X53.3761 Y374.6920
G01 X53.2877 Y374.7450
G01 X53.2049 Y374.8064
G01 X53.1286 Y374.8756
G01 X53.0594 Y374.9519
G01 X52.9980 Y375.0347
G01 X52.9450 Y375.1231
G01 X52.9009 Y375.2163
G01 X52.8662 Y375.3133
G01 X52.8412 Y375.4133
G01 X52.8260 Y375.5153
G01 X52.8210 Y375.6182
G01 X52.8260 Y375.7211
G01 X52.8412 Y375.8231
G01 X52.8662 Y375.9231
G01 X52.9009 Y376.0201
G01 X52.9450 Y376.1133
G01 X52.9980 Y376.2017
G01 X53.0594 Y376.2845
G01 X53.1286 Y376.3608
G01 X53.2049 Y376.4300
G01 X53.2877 Y376.4914
G01 X53.3761 Y376.5444
G00 Z10.0000
G00 X66.2793 Y302.3002
G01 F60.00
G01 Z-5.0000
G01 F120.00
G01 X66.3725 Y302.3443
G01 X66.4695 Y302.3790
G01 X66.5695 Y302.4040
G01 X66.6715 Y302.4192
G01 X66.7744 Y302.4242
G01 X66.8773 Y302.4192
G01 X66.9793 Y302.4040
G01 X67.0793 Y302.3790
G01 X67.1763 Y302.3443
G01 X67.2695 Y302.3002
G01 X67.3579 Y302.2472
G01 X67.4407 Y302.1858
G01 X67.5170 Y302.1166
G01 X67.5862 Y302.0403
G01 X67.6476 Y301.9575
G01 X67.7006 Y301.8691
G01 X67.7447 Y301.7759
G01 X67.7794 Y301.6789
G01 X67.8044 Y301.5789
G01 X67.8196 Y301.4769
G01 X67.8246 Y301.3740
G01 X67.8196 Y301.2711
G01 X67.8044 Y301.1691
G01 X67.7794 Y301.0691
G01 X67.7447 Y300.9721
G01 X67.7006 Y300.8789
G01 X67.6476 Y300.7905
G01 X67.5862 Y300.7077
G01 X67.5170 Y300.6314
G01 X67.4407 Y300.5622
G01 X67.3579 Y300.5008
G01 X67.2695 Y300.4478
G01 X67.1763 Y300.4037
G01 X67.0793 Y300.3690
G01 X66.9793 Y300.3440
G01 X66.8773 Y300.3288
G01 X66.7744 Y300.3238
G01 X66.6715 Y300.3288
G01 X66.5695 Y300.3440
G01 X66.4695 Y300.3690
G01 X66.3725 Y300.4037
G01 X66.2793 Y300.4478
G01 X66.1909 Y300.5008
G01 X66.1081 Y300.5622
G01 X66.0318 Y300.6314
G01 X65.9626 Y300.7077
G01 X65.9012 Y300.7905
G01 X65.8482 Y300.8789
G01 X65.8041 Y300.9721
G01 X65.7694 Y301.0691
G01 X65.7444 Y301.1691
G01 X65.7292 Y301.2711
G01 X65.7242 Y301.3740
G01 X65.7292 Y301.4769
G01 X65.7444 Y301.5789
G01 X65.7694 Y301.6789
G01 X65.8041 Y301.7759
G01 X65.8482 Y301.8691
G01 X65.9012 Y301.9575
G01 X65.9626 Y302.0403
G01 X66.0318 Y302.1166
G01 X66.1081 Y302.1858
G01 X66.1909 Y302.2472
G01 X66.2793 Y302.3002
G00 Z10.0000
G00 X235.8651 Y251.9439
G01 F60.00
G01 Z-5.0000
G01 F120.00
G01 X235.8701 Y251.8410
G01 X235.8651 Y251.7381
G01 X235.8499 Y251.6361
G01 X235.8249 Y251.5361
G01 X235.7902 Y251.4391
G01 X235.7461 Y251.3459
G01 X235.6931 Y251.2575
G01 X235.6317 Y251.1747
G01 X235.5625 Y251.0984
G01 X235.4862 Y251.0292
G01 X235.4034 Y250.9678
G01 X235.3150 Y250.9148
G01 X235.2218 Y250.8707
G01 X235.1248 Y250.8360
G01 X235.0248 Y250.8110
G01 X234.9228 Y250.7958
G01 X234.8199 Y250.7908
G01 X234.7170 Y250.7958
G01 X234.6150 Y250.8110
G01 X234.5150 Y250.8360
G01 X234.4180 Y250.8707
G01 X234.3248 Y250.9148
G01 X234.2364 Y250.9678
G01 X234.1536 Y251.0292
G01 X234.0773 Y251.0984
G01 X234.0081 Y251.1747
G01 X233.9467 Y251.2575
G01 X233.8937 Y251.3459
G01 X233.8496 Y251.4391
G01 X233.8149 Y251.5361
G01 X233.7899 Y251.6361
G01 X233.7747 Y251.7381
G01 X233.7697 Y251.8410
G01 X233.7747 Y251.9439
G01 X233.7899 Y252.0459
G01 X233.8149 Y252.1459
G01 X233.8496 Y252.2429
G01 X233.8937 Y252.3361
G01 X233.9467 Y252.4245
G01 X234.0081 Y252.5073
G01 X234.0773 Y252.5836
G01 X234.1536 Y252.6528
G01 X234.2364 Y252.7142
G01 X234.3248 Y252.7672
G01 X234.4180 Y252.8113
G01 X234.5150 Y252.8460
G01 X234.6150 Y252.8710
G01 X234.7170 Y252.8862
G01 X234.8199 Y252.8912
G01 X234.9228 Y252.8862
G01 X235.0248 Y252.8710
G01 X235.1248 Y252.8460
G01 X235.2218 Y252.8113
G01 X235.3150 Y252.7672
G01 X235.4034 Y252.7142
G01 X235.4862 Y252.6528
G01 X235.5625 Y252.5836
G01 X235.6317 Y252.5073
G01 X235.6931 Y252.4245
G01 X235.7461 Y252.3361
G01 X235.7902 Y252.2429
G01 X235.8249 Y252.1459
G01 X235.8499 Y252.0459
G01 X235.8651 Y251.9439
G00 Z10.0000
G00 X245.7464 Y271.1959
G01 F60.00
G01 Z-5.0000
G01 F120.00
G01 X245.7811 Y271.2929
G01 X245.8252 Y271.3861
G01 X245.8782 Y271.4745
G01 X245.9396 Y271.5573
G01 X246.0088 Y271.6336
G01 X246.0851 Y271.7028
G01 X246.1679 Y271.7642
G01 X246.2563 Y271.8172
G01 X246.3495 Y271.8613
G01 X246.4465 Y271.8960
G01 X246.5465 Y271.9210
G01 X246.6485 Y271.9362
G01 X246.7514 Y271.9412
G01 X246.8543 Y271.9362
G01 X246.9563 Y271.9210
G01 X247.0563 Y271.8960
G01 X247.1533 Y271.8613
G01 X247.2465 Y271.8172
G01 X247.3349 Y271.7642
G01 X247.4177 Y271.7028
G01 X247.4940 Y271.6336
G01 X247.5632 Y271.5573
G01 X247.6246 Y271.4745
G01 X247.6776 Y271.3861
G01 X247.7217 Y271.2929
G01 X247.7564 Y271.1959
G01 X247.7814 Y271.0959
G01 X247.7966 Y270.9939
G01 X247.8016 Y270.8910
G01 X247.7966 Y270.7881
G01 X247.7814 Y270.6861
G01 X247.7564 Y270.5861
G01 X247.7217 Y270.4891
G01 X247.6776 Y270.3959
G01 X247.6246 Y270.3075
G01 X247.5632 Y270.2247
G01 X247.4940 Y270.1484
G01 X247.4177 Y270.0792
G01 X247.3349 Y270.0178
G01 X247.2465 Y269.9648
G01 X247.1533 Y269.9207
G01 X247.0563 Y269.8860
G01 X246.9563 Y269.8610
G01 X246.8543 Y269.8458
G01 X246.7514 Y269.8408
G01 X246.6485 Y269.8458
G01 X246.5465 Y269.8610
G01 X246.4465 Y269.8860
G01 X246.3495 Y269.9207
G01 X246.2563 Y269.9648
G01 X246.1679 Y270.0178
G01 X246.0851 Y270.0792
G01 X246.0088 Y270.1484
G01 X245.9396 Y270.2247
G01 X245.8782 Y270.3075
G01 X245.8252 Y270.3959
G01 X245.7811 Y270.4891
G01 X245.7464 Y270.5861
G01 X245.7214 Y270.6861
G01 X245.7062 Y270.7881
G01 X245.7012 Y270.8910
G01 X245.7062 Y270.9939
G01 X245.7214 Y271.0959
G01 X245.7464 Y271.1959
G00 Z10.0000
G00 X247.8601 Y232.8304
G01 F60.00
G01 Z-5.0000
G01 F120.00
G01 X247.8651 Y232.7275
G01 X247.8601 Y232.6246
G01 X247.8449 Y232.5226
G01 X247.8199 Y232.4226
G01 X247.7852 Y232.3256
G01 X247.7411 Y232.2324
G01 X247.6881 Y232.1440
G01 X247.6267 Y232.0612
G01 X247.5575 Y231.9849
G01 X247.4812 Y231.9157
G01 X247.3984 Y231.8543
G01 X247.3100 Y231.8013
G01 X247.2168 Y231.7572
G01 X247.1198 Y231.7225
G01 X247.0198 Y231.6975
G01 X246.9178 Y231.6823
G01 X246.8149 Y231.6773
G01 X246.7120 Y231.6823
G01 X246.6100 Y231.6975
G01 X246.5100 Y231.7225
G01 X246.4130 Y231.7572
G01 X246.3198 Y231.8013
G01 X246.2314 Y231.8543
G01 X246.1486 Y231.9157
G01 X246.0723 Y231.9849
G01 X246.0031 Y232.0612
G01 X245.9417 Y232.1440
G01 X245.8887 Y232.2324
G01 X245.8446 Y232.3256
G01 X245.8099 Y232.4226
G01 X245.7849 Y232.5226
G01 X245.7697 Y232.6246
G01 X245.7647 Y232.7275
G01 X245.7697 Y232.8304
G01 X245.7849 Y232.9324
G01 X245.8099 Y233.0324
G01 X245.8446 Y233.1294
G01 X245.8887 Y233.2226
G01 X245.9417 Y233.3110
G01 X246.0031 Y233.3938
G01 X246.0723 Y233.4701
G01 X246.1486 Y233.5393
G01 X246.2314 Y233.6007
G01 X246.3198 Y233.6537
G01 X246.4130 Y233.6978
G01 X246.5100 Y233.7325
G01 X246.6100 Y233.7575
G01 X246.7120 Y233.7727
G01 X246.8149 Y233.7777
G01 X246.9178 Y233.7727
G01 X247.0198 Y233.7575
G01 X247.1198 Y233.7325
G01 X247.2168 Y233.6978
G01 X247.3100 Y233.6537
G01 X247.3984 Y233.6007
G01 X247.4812 Y233.5393
G01 X247.5575 Y233.4701
G01 X247.6267 Y233.3938
G01 X247.6881 Y233.3110
G01 X247.7411 Y233.2226
G01 X247.7852 Y233.1294
G01 X247.8199 Y233.0324
G01 X247.8449 Y232.9324
G01 X247.8601 Y232.8304
G00 Z10.0000
G00 X235.8016 Y213.8439
G01 F60.00
G01 Z-5.0000
G01 F120.00
G01 X235.8066 Y213.7410
G01 X235.8016 Y213.6381
G01 X235.7864 Y213.5361
G01 X235.7614 Y213.4361
G01 X235.7267 Y213.3391
G01 X235.6826 Y213.2459
G01 X235.6296 Y213.1575
G01 X235.5682 Y213.0747
G01 X235.4990 Y212.9984
G01 X235.4227 Y212.9292
G01 X235.3399 Y212.8678
G01 X235.2515 Y212.8148
G01 X235.1583 Y212.7707
G01 X235.0613 Y212.7360
G01 X234.9613 Y212.7110
G01 X234.8593 Y212.6958
G01 X234.7564 Y212.6908
G01 X234.6535 Y212.6958
G01 X234.5515 Y212.7110
G01 X234.4515 Y212.7360
G01 X234.3545 Y212.7707
G01 X234.2613 Y212.8148
G01 X234.1729 Y212.8678
G01 X234.0901 Y212.9292
G01 X234.0138 Y212.9984
G01 X233.9446 Y213.0747
G01 X233.8832 Y213.1575
G01 X233.8302 Y213.2459
G01 X233.7861 Y213.3391
G01 X233.7514 Y213.4361
G01 X233.7264 Y213.5361
G01 X233.7112 Y213.6381
G01 X233.7062 Y213.7410
G01 X233.7112 Y213.8439
G01 X233.7264 Y213.9459
G01 X233.7514 Y214.0459
G01 X233.7861 Y214.1429
G01 X233.8302 Y214.2361
G01 X233.8832 Y214.3245
G01 X233.9446 Y214.4073
G01 X234.0138 Y214.4836
G01 X234.0901 Y214.5528
G01 X234.1729 Y214.6142
G01 X234.2613 Y214.6672
G01 X234.3545 Y214.7113
G01 X234.4515 Y214.7460
G01 X234.5515 Y214.7710
G01 X234.6535 Y214.7862
G01 X234.7564 Y214.7912
G01 X234.8593 Y214.7862
G01 X234.9613 Y214.7710
G01 X235.0613 Y214.7460
G01 X235.1583 Y214.7113
G01 X235.2515 Y214.6672
G01 X235.3399 Y214.6142
G01 X235.4227 Y214.5528
G01 X235.4990 Y214.4836
G01 X235.5682 Y214.4073
G01 X235.6296 Y214.3245
G01 X235.6826 Y214.2361
G01 X235.7267 Y214.1429
G01 X235.7614 Y214.0459
G01 X235.7864 Y213.9459
G01 X235.8016 Y213.8439
G00 Z10.0000
M05
G00 Z10.0000
G00 Z15.00
G00 X0.0 Y0.0

