(G-CODE GENERATED BY FLATCAM v8.991 - www.flatcam.org - Version Date: 2019/12/27)

(Name: main-Edge_Cuts.gbr_iso_cnc)
(Type: G-code from Geometry)
(Units: MM)

(Created on Monday, 01 June 2020 at 18:52)

(TOOL DIAMETER: 2.0 mm)
(Feedrate: 120.0 mm/min)
(Feedrate_Z: 60.0 mm/min)
(Feedrate rapids 1500.0 mm/min)

(Z_Cut: -5.0 mm)
(Z_Move: 10.0 mm)
(Z Toolchange: 15.0 mm)
(X,Y Toolchange: 0.0000, 0.0000 mm)
(Z Start: None mm)
(Z End: 15.0 mm)
(Steps per circle: 64)
(Preprocessor Geometry: default)

(X range:   -0.0155 ...  324.1624  mm)
(Y range:   -0.8021 ...  397.0537  mm)

(Spindle Speed: None RPM)
G21
G90
G94




G01 F120.00
G00 Z10.0000

M03
G00 X47.0622 Y24.4260
G01 F60.00
G01 Z-5.0000
G01 F120.00
G01 X47.1977 Y24.9316
G01 X47.5678 Y25.3017
G01 X48.0734 Y25.4371
G01 X48.5790 Y25.3017
G01 X48.9491 Y24.9316
G01 X49.0846 Y24.4260
G01 X48.9491 Y23.9204
G01 X48.5790 Y23.5503
G01 X48.0734 Y23.4148
G01 X47.5678 Y23.5503
G01 X47.1977 Y23.9204
G01 X47.0622 Y24.4260
G00 Z10.0000
G00 X121.0622 Y6.9260
G01 F60.00
G01 Z-5.0000
G01 F120.00
G01 X121.1977 Y7.4316
G01 X121.5678 Y7.8017
G01 X122.0734 Y7.9371
G01 X122.5790 Y7.8017
G01 X122.9491 Y7.4316
G01 X123.0846 Y6.9260
G01 X122.9491 Y6.4204
G01 X122.5790 Y6.0503
G01 X122.0734 Y5.9148
G01 X121.5678 Y6.0503
G01 X121.1977 Y6.4204
G01 X121.0622 Y6.9260
G00 Z10.0000
G00 X111.5623 Y85.9260
G01 F60.00
G01 Z-5.0000
G01 F120.00
G01 X111.6308 Y86.1816
G01 X111.8178 Y86.3687
G01 X112.0734 Y86.4371
G01 X112.3290 Y86.3687
G01 X112.5161 Y86.1816
G01 X112.5846 Y85.9260
G01 X112.5161 Y85.6704
G01 X112.3290 Y85.4833
G01 X112.0734 Y85.4148
G01 X111.8178 Y85.4833
G01 X111.6308 Y85.6704
G01 X111.5623 Y85.9260
G00 Z10.0000
G00 X211.5622 Y85.9260
G01 F60.00
G01 Z-5.0000
G01 F120.00
G01 X211.6307 Y86.1816
G01 X211.8178 Y86.3687
G01 X212.0734 Y86.4371
G01 X212.3290 Y86.3687
G01 X212.5160 Y86.1816
G01 X212.5845 Y85.9260
G01 X212.5160 Y85.6704
G01 X212.3290 Y85.4833
G01 X212.0734 Y85.4148
G01 X211.8178 Y85.4833
G01 X211.6307 Y85.6704
G01 X211.5622 Y85.9260
G00 Z10.0000
G00 X201.0622 Y6.9260
G01 F60.00
G01 Z-5.0000
G01 F120.00
G01 X201.1977 Y7.4316
G01 X201.5678 Y7.8017
G01 X202.0734 Y7.9371
G01 X202.5790 Y7.8017
G01 X202.9491 Y7.4316
G01 X203.0846 Y6.9260
G01 X202.9491 Y6.4204
G01 X202.5790 Y6.0503
G01 X202.0734 Y5.9148
G01 X201.5678 Y6.0503
G01 X201.1977 Y6.4204
G01 X201.0622 Y6.9260
G00 Z10.0000
G00 X275.0622 Y24.4260
G01 F60.00
G01 Z-5.0000
G01 F120.00
G01 X275.1977 Y24.9316
G01 X275.5678 Y25.3017
G01 X276.0734 Y25.4371
G01 X276.5790 Y25.3017
G01 X276.9491 Y24.9316
G01 X277.0846 Y24.4260
G01 X276.9491 Y23.9204
G01 X276.5790 Y23.5503
G01 X276.0734 Y23.4148
G01 X275.5678 Y23.5503
G01 X275.1977 Y23.9204
G01 X275.0622 Y24.4260
G00 Z10.0000
G00 X315.8622 Y96.4260
G01 F60.00
G01 Z-5.0000
G01 F120.00
G01 X315.9977 Y96.9316
G01 X316.3678 Y97.3017
G01 X316.8734 Y97.4371
G01 X317.3790 Y97.3017
G01 X317.7491 Y96.9316
G01 X317.8846 Y96.4260
G01 X317.7491 Y95.9204
G01 X317.3790 Y95.5503
G01 X316.8734 Y95.4148
G01 X316.3678 Y95.5503
G01 X315.9977 Y95.9204
G01 X315.8622 Y96.4260
G00 Z10.0000
G00 X297.0622 Y175.4260
G01 F60.00
G01 Z-5.0000
G01 F120.00
G01 X297.1977 Y175.9316
G01 X297.5678 Y176.3017
G01 X298.0734 Y176.4371
G01 X298.5790 Y176.3017
G01 X298.9491 Y175.9316
G01 X299.0846 Y175.4260
G01 X298.9491 Y174.9204
G01 X298.5790 Y174.5503
G01 X298.0734 Y174.4148
G01 X297.5678 Y174.5503
G01 X297.1977 Y174.9204
G01 X297.0622 Y175.4260
G00 Z10.0000
G00 X270.2622 Y248.4260
G01 F60.00
G01 Z-5.0000
G01 F120.00
G01 X270.3977 Y248.9316
G01 X270.7678 Y249.3017
G01 X271.2734 Y249.4371
G01 X271.7790 Y249.3017
G01 X272.1491 Y248.9316
G01 X272.2846 Y248.4260
G01 X272.1491 Y247.9204
G01 X271.7790 Y247.5503
G01 X271.2734 Y247.4148
G01 X270.7678 Y247.5503
G01 X270.3977 Y247.9204
G01 X270.2622 Y248.4260
G00 Z10.0000
G00 X211.5622 Y275.9260
G01 F60.00
G01 Z-5.0000
G01 F120.00
G01 X211.6307 Y276.1816
G01 X211.8178 Y276.3687
G01 X212.0734 Y276.4371
G01 X212.3290 Y276.3687
G01 X212.5160 Y276.1816
G01 X212.5845 Y275.9260
G01 X212.5160 Y275.6704
G01 X212.3290 Y275.4833
G01 X212.0734 Y275.4148
G01 X211.8178 Y275.4834
G01 X211.6307 Y275.6704
G01 X211.5622 Y275.9260
G00 Z10.0000
G00 X201.0622 Y323.2260
G01 F60.00
G01 Z-5.0000
G01 F120.00
G01 X201.1977 Y323.7315
G01 X201.5678 Y324.1016
G01 X202.0734 Y324.2371
G01 X202.5790 Y324.1016
G01 X202.9491 Y323.7315
G01 X203.0846 Y323.2260
G01 X202.9491 Y322.7204
G01 X202.5790 Y322.3503
G01 X202.0734 Y322.2148
G01 X201.5678 Y322.3503
G01 X201.1977 Y322.7204
G01 X201.0622 Y323.2260
G00 Z10.0000
G00 X243.0622 Y342.9260
G01 F60.00
G01 Z-5.0000
G01 F120.00
G01 X243.1977 Y343.4316
G01 X243.5678 Y343.8017
G01 X244.0734 Y343.9371
G01 X244.5790 Y343.8017
G01 X244.9491 Y343.4316
G01 X245.0846 Y342.9260
G01 X244.9491 Y342.4204
G01 X244.5790 Y342.0503
G01 X244.0734 Y341.9148
G01 X243.5678 Y342.0503
G01 X243.1977 Y342.4204
G01 X243.0622 Y342.9260
G00 Z10.0000
G00 X269.0622 Y382.9260
G01 F60.00
G01 Z-5.0000
G01 F120.00
G01 X269.1977 Y383.4316
G01 X269.5678 Y383.8017
G01 X270.0734 Y383.9371
G01 X270.5790 Y383.8017
G01 X270.9491 Y383.4316
G01 X271.0846 Y382.9260
G01 X270.9491 Y382.4204
G01 X270.5790 Y382.0503
G01 X270.0734 Y381.9148
G01 X269.5678 Y382.0503
G01 X269.1977 Y382.4204
G01 X269.0622 Y382.9260
G00 Z10.0000
G00 X292.8122 Y323.4260
G01 F60.00
G01 Z-5.0000
G01 F120.00
G01 X292.9477 Y323.9316
G01 X293.3178 Y324.3017
G01 X293.8234 Y324.4371
G01 X294.3290 Y324.3017
G01 X294.6991 Y323.9316
G01 X294.8346 Y323.4260
G01 X294.6991 Y322.9204
G01 X294.3290 Y322.5503
G01 X293.8234 Y322.4148
G01 X293.3178 Y322.5503
G01 X292.9477 Y322.9204
G01 X292.8122 Y323.4260
G00 Z10.0000
G00 X122.0622 Y365.7760
G01 F60.00
G01 Z-5.0000
G01 F120.00
G01 X122.1977 Y366.2815
G01 X122.5678 Y366.6516
G01 X123.0734 Y366.7871
G01 X123.5790 Y366.6516
G01 X123.9491 Y366.2815
G01 X124.0846 Y365.7760
G01 X123.9491 Y365.2704
G01 X123.5790 Y364.9003
G01 X123.0734 Y364.7648
G01 X122.5678 Y364.9003
G01 X122.1977 Y365.2704
G01 X122.0622 Y365.7760
G00 Z10.0000
G00 X61.0622 Y389.1260
G01 F60.00
G01 Z-5.0000
G01 F120.00
G01 X61.1977 Y389.6316
G01 X61.5678 Y390.0017
G01 X62.0734 Y390.1371
G01 X62.5790 Y390.0017
G01 X62.9491 Y389.6316
G01 X63.0846 Y389.1260
G01 X62.9491 Y388.6204
G01 X62.5790 Y388.2503
G01 X62.0734 Y388.1148
G01 X61.5678 Y388.2503
G01 X61.1977 Y388.6204
G01 X61.0622 Y389.1260
G00 Z10.0000
G00 X29.3122 Y323.4260
G01 F60.00
G01 Z-5.0000
G01 F120.00
G01 X29.4477 Y323.9316
G01 X29.8178 Y324.3017
G01 X30.3234 Y324.4371
G01 X30.8290 Y324.3017
G01 X31.1991 Y323.9316
G01 X31.3346 Y323.4260
G01 X31.1991 Y322.9204
G01 X30.8290 Y322.5503
G01 X30.3234 Y322.4148
G01 X29.8178 Y322.5503
G01 X29.4477 Y322.9204
G01 X29.3122 Y323.4260
G00 Z10.0000
G00 X51.8622 Y248.4260
G01 F60.00
G01 Z-5.0000
G01 F120.00
G01 X51.9977 Y248.9316
G01 X52.3678 Y249.3017
G01 X52.8734 Y249.4371
G01 X53.3790 Y249.3017
G01 X53.7491 Y248.9316
G01 X53.8846 Y248.4260
G01 X53.7491 Y247.9204
G01 X53.3790 Y247.5503
G01 X52.8734 Y247.4148
G01 X52.3678 Y247.5503
G01 X51.9977 Y247.9204
G01 X51.8622 Y248.4260
G00 Z10.0000
G00 X111.5623 Y275.9260
G01 F60.00
G01 Z-5.0000
G01 F120.00
G01 X111.6308 Y276.1816
G01 X111.8178 Y276.3687
G01 X112.0734 Y276.4371
G01 X112.3290 Y276.3687
G01 X112.5161 Y276.1816
G01 X112.5846 Y275.9260
G01 X112.5161 Y275.6704
G01 X112.3290 Y275.4834
G01 X112.0734 Y275.4148
G01 X111.8178 Y275.4833
G01 X111.6308 Y275.6704
G01 X111.5623 Y275.9260
G00 Z10.0000
G00 X25.0622 Y175.4260
G01 F60.00
G01 Z-5.0000
G01 F120.00
G01 X25.1977 Y175.9316
G01 X25.5678 Y176.3017
G01 X26.0734 Y176.4371
G01 X26.5790 Y176.3017
G01 X26.9491 Y175.9316
G01 X27.0846 Y175.4260
G01 X26.9491 Y174.9204
G01 X26.5790 Y174.5503
G01 X26.0734 Y174.4148
G01 X25.5678 Y174.5503
G01 X25.1977 Y174.9204
G01 X25.0622 Y175.4260
G00 Z10.0000
G00 X-0.0153 Y101.6621
G01 F60.00
G01 Z-5.0000
G01 F120.00
G01 X-0.0155 Y101.6356
G01 X0.0725 Y95.3356
G01 X0.0732 Y95.3072
G01 X0.0744 Y95.2836
G01 X0.2535 Y92.3664
G01 X0.5262 Y89.4660
G01 X0.5301 Y89.4301
G01 X0.8941 Y86.5691
G01 X0.8991 Y86.5346
G01 X1.3521 Y83.6956
G01 X1.3583 Y83.6602
G01 X1.9061 Y80.8276
G01 X2.5442 Y78.0084
G01 X3.2679 Y75.2297
G01 X3.2772 Y75.1960
G01 X4.0878 Y72.4467
G01 X4.9878 Y69.7174
G01 X5.9682 Y67.0344
G01 X5.9806 Y67.0019
G01 X7.0436 Y64.3563
G01 X8.1891 Y61.7459
G01 X8.2036 Y61.7143
G01 X9.4295 Y59.1451
G01 X10.7360 Y56.6152
G01 X10.7522 Y56.5850
G01 X12.1360 Y54.0992
G01 X13.5986 Y51.6559
G01 X13.6169 Y51.6263
G01 X15.1555 Y49.2323
G01 X16.7699 Y46.8838
G01 X16.7900 Y46.8555
G01 X18.4793 Y44.5574
G01 X20.2389 Y42.3140
G01 X20.2607 Y42.2871
G01 X22.0827 Y40.1091
G01 X22.1052 Y40.0831
G01 X24.0098 Y37.9461
G01 X25.9906 Y35.8593
G01 X32.0015 Y29.8481
G01 X34.0360 Y27.8367
G01 X34.0609 Y27.8128
G01 X36.1569 Y25.8668
G01 X36.1827 Y25.8436
G01 X38.3447 Y23.9596
G01 X38.3713 Y23.9372
G01 X40.6132 Y22.1053
G01 X42.9157 Y20.3425
G01 X42.9439 Y20.3216
G01 X45.3098 Y18.6275
G01 X47.7528 Y16.9921
G01 X50.2567 Y15.4294
G01 X52.8042 Y13.9506
G01 X52.8445 Y13.9283
G01 X55.0795 Y12.7533
G01 X55.1025 Y12.7416
G01 X55.1305 Y12.7281
G01 X57.4235 Y11.6701
G01 X57.4451 Y11.6605
G01 X60.5983 Y10.3537
G01 X60.6271 Y10.3423
G01 X63.8095 Y9.1275
G01 X67.0273 Y7.9989
G01 X67.0565 Y7.9891
G01 X70.2900 Y6.9561
G01 X70.3218 Y6.9465
G01 X73.4651 Y6.0460
G01 X76.6405 Y5.2490
G01 X76.6763 Y5.2406
G01 X79.8736 Y4.5513
G01 X83.0967 Y3.9666
G01 X83.1300 Y3.9612
G01 X92.3095 Y2.5799
G01 X101.5354 Y1.4453
G01 X110.7865 Y0.5607
G01 X120.0498 Y-0.0745
G01 X120.0763 Y-0.0760
G01 X120.8811 Y-0.1116
G01 X131.2222 Y-0.4147
G01 X141.5683 Y-0.6309
G01 X151.9123 Y-0.7600
G01 X162.2659 Y-0.8021
G01 X172.6137 Y-0.7570
G01 X182.9575 Y-0.6250
G01 X193.3045 Y-0.4048
G01 X203.6501 Y-0.0986
G01 X203.6928 Y-0.0965
G01 X213.7928 Y0.5969
G01 X223.8773 Y1.5867
G01 X233.9162 Y2.8708
G01 X233.9483 Y2.8754
G01 X243.9442 Y4.4549
G01 X243.9830 Y4.4623
G01 X247.3387 Y5.1653
G01 X247.3638 Y5.1709
G01 X247.3938 Y5.1783
G01 X251.4535 Y6.2499
G01 X255.4913 Y7.4667
G01 X259.4876 Y8.8199
G01 X263.4139 Y10.3018
G01 X263.4368 Y10.3108
G01 X266.7187 Y11.7056
G01 X266.7454 Y11.7174
G01 X266.7674 Y11.7277
G01 X269.9574 Y13.2707
G01 X269.9834 Y13.2837
G01 X270.0048 Y13.2951
G01 X273.1148 Y14.9901
G01 X273.1400 Y15.0043
G01 X273.1608 Y15.0166
G01 X276.2035 Y16.8706
G01 X278.5010 Y18.3966
G01 X278.5283 Y18.4154
G01 X280.7513 Y19.9904
G01 X280.7780 Y20.0098
G01 X282.9592 Y21.6558
G01 X285.0934 Y23.3684
G01 X287.1600 Y25.1298
G01 X287.1847 Y25.1515
G01 X289.1905 Y26.9674
G01 X291.1393 Y28.8385
G01 X292.9663 Y30.6651
G01 X292.9935 Y30.6934
G01 X293.0262 Y30.7301
G01 X293.0591 Y30.7708
G01 X293.0939 Y30.8183
G01 X293.1208 Y30.8593
G01 X293.1411 Y30.8930
G01 X322.2951 Y81.3900
G01 X322.3084 Y81.4138
G01 X322.3309 Y81.4574
G01 X322.3536 Y81.5069
G01 X322.3735 Y81.5567
G01 X322.3925 Y81.6124
G01 X322.4074 Y81.6647
G01 X322.4186 Y81.7124
G01 X322.4240 Y81.7393
G01 X322.8846 Y84.2219
G01 X323.3017 Y86.9127
G01 X323.6369 Y89.6219
G01 X323.8897 Y92.3339
G01 X323.8923 Y92.3671
G01 X324.0623 Y95.0761
G01 X324.0640 Y95.1145
G01 X324.1523 Y98.3052
G01 X324.1624 Y101.5055
G01 X324.0962 Y104.6938
G01 X324.0953 Y104.7209
G01 X323.9506 Y107.9064
G01 X323.7288 Y111.0856
G01 X323.7266 Y111.1119
G01 X323.4282 Y114.2874
G01 X323.0513 Y117.4656
G01 X322.5978 Y120.6287
G01 X322.0379 Y124.3722
G01 X321.3817 Y128.0931
G01 X321.3763 Y128.1217
G01 X320.6210 Y131.8262
G01 X319.7661 Y135.5189
G01 X318.8172 Y139.1781
G01 X318.8096 Y139.2061
G01 X317.7641 Y142.8402
G01 X316.6202 Y146.4572
G01 X315.3827 Y150.0394
G01 X313.1180 Y156.4394
G01 X310.7222 Y162.7992
G01 X308.1990 Y169.1089
G01 X305.5473 Y175.3655
G01 X302.7702 Y181.5687
G01 X299.8667 Y187.7168
G01 X296.8388 Y193.8068
G01 X293.7016 Y199.8078
G01 X289.8875 Y207.8870
G01 X286.3193 Y216.1033
G01 X284.8202 Y219.5040
G01 X283.4760 Y222.9343
G01 X282.2769 Y226.4136
G01 X281.2250 Y229.9373
G01 X280.3202 Y233.5012
G01 X279.5637 Y237.1002
G01 X278.9592 Y240.7300
G01 X278.5084 Y244.3584
G01 X278.4177 Y247.3527
G01 X278.4620 Y250.3702
G01 X278.6420 Y253.3802
G01 X278.9559 Y256.3779
G01 X279.4036 Y259.3588
G01 X279.9850 Y262.3181
G01 X280.7004 Y265.2526
G01 X281.5430 Y268.1485
G01 X284.0810 Y275.1877
G01 X286.9042 Y282.1603
G01 X290.3955 Y290.5719
G01 X293.7134 Y299.0856
G01 X295.6382 Y304.4709
G01 X297.3649 Y309.9106
G01 X297.3747 Y309.9433
G01 X298.1633 Y312.7249
G01 X298.8797 Y315.5384
G01 X299.5192 Y318.3668
G01 X300.0820 Y321.2084
G01 X300.5680 Y324.0619
G01 X300.9775 Y326.9283
G01 X301.3099 Y329.8009
G01 X301.5645 Y332.6805
G01 X301.7422 Y335.5660
G01 X301.8418 Y338.4395
G01 X301.8424 Y338.4691
G01 X301.8644 Y341.3317
G01 X301.8642 Y341.3613
G01 X301.8088 Y344.2410
G01 X301.6766 Y347.1311
G01 X301.4665 Y350.0087
G01 X301.4640 Y350.0381
G01 X301.1763 Y352.9119
G01 X300.8117 Y355.7780
G01 X300.8058 Y355.8182
G01 X300.4528 Y357.9581
G01 X300.4479 Y357.9852
G01 X300.4434 Y358.0077
G01 X299.9934 Y360.1260
G01 X299.9873 Y360.1530
G01 X299.9817 Y360.1755
G01 X299.4347 Y362.2691
G01 X299.4274 Y362.2958
G01 X299.4207 Y362.3179
G01 X298.7777 Y364.3835
G01 X298.7692 Y364.4097
G01 X298.7617 Y364.4313
G01 X298.0247 Y366.4657
G01 X298.0149 Y366.4916
G01 X298.0063 Y366.5130
G01 X297.1753 Y368.5131
G01 X297.1643 Y368.5386
G01 X297.1546 Y368.5597
G01 X296.2306 Y370.5221
G01 X296.2187 Y370.5466
G01 X296.2083 Y370.5669
G01 X295.1943 Y372.4885
G01 X295.1820 Y372.5110
G01 X295.1666 Y372.5378
G01 X294.2596 Y374.0614
G01 X294.2446 Y374.0858
G01 X294.2263 Y374.1139
G01 X293.3629 Y375.3940
G01 X292.2459 Y377.1325
G01 X292.2232 Y377.1663
G01 X292.1944 Y377.2059
G01 X290.7904 Y379.0429
G01 X290.7646 Y379.0752
G01 X290.7423 Y379.1015
G01 X289.1183 Y380.9473
G01 X289.0924 Y380.9756
G01 X289.0702 Y380.9986
G01 X287.2962 Y382.7725
G01 X287.2734 Y382.7946
G01 X287.2451 Y382.8204
G01 X285.3991 Y384.4449
G01 X285.3728 Y384.4673
G01 X285.3404 Y384.4931
G01 X283.5034 Y385.8972
G01 X283.4704 Y385.9213
G01 X283.4297 Y385.9489
G01 X281.6817 Y387.0712
G01 X281.6354 Y387.0992
G01 X281.5844 Y387.1269
G01 X281.4775 Y387.1804
G01 X281.4578 Y387.1941
G01 X281.4168 Y387.2211
G01 X281.3662 Y387.2512
G01 X279.6106 Y388.2170
G01 X279.5620 Y388.2421
G01 X279.5040 Y388.2684
G01 X277.6930 Y389.0240
G01 X277.6428 Y389.0434
G01 X277.5832 Y389.0631
G01 X275.7302 Y389.6146
G01 X275.6702 Y389.6306
G01 X275.6184 Y389.6416
G01 X273.7369 Y389.9931
G01 X273.6879 Y390.0009
G01 X273.6299 Y390.0074
G01 X271.7388 Y390.1617
G01 X271.6779 Y390.1649
G01 X271.6264 Y390.1651
G01 X269.7464 Y390.1257
G01 X269.6857 Y390.1226
G01 X269.6346 Y390.1176
G01 X267.7786 Y389.8884
G01 X267.7184 Y389.8792
G01 X267.6680 Y389.8690
G01 X265.8506 Y389.4531
G01 X265.8026 Y389.4407
G01 X265.7467 Y389.4236
G01 X264.2738 Y388.9223
G01 X263.0735 Y388.4674
G01 X263.0603 Y388.4623
G01 X263.0151 Y388.4432
G01 X262.9640 Y388.4189
G01 X262.9515 Y388.4124
G01 X261.0209 Y387.3973
G01 X260.9796 Y387.3744
G01 X260.9314 Y387.3448
G01 X258.9084 Y386.0239
G01 X258.8686 Y385.9966
G01 X258.8364 Y385.9726
G01 X256.8096 Y384.4035
G01 X256.7807 Y384.3803
G01 X256.7469 Y384.3512
G01 X254.8049 Y382.6027
G01 X254.7778 Y382.5773
G01 X254.7463 Y382.5458
G01 X252.9740 Y380.6941
G01 X252.9468 Y380.6645
G01 X252.9155 Y380.6279
G01 X251.3903 Y378.7540
G01 X251.3614 Y378.7167
G01 X251.3287 Y378.6705
G01 X250.1173 Y376.8564
G01 X250.1095 Y376.8445
G01 X250.0800 Y376.7963
G01 X250.0563 Y376.7533
G01 X250.0120 Y376.6657
G01 X249.0993 Y375.2893
G01 X249.0809 Y375.2606
G01 X249.0600 Y375.2254
G01 X248.1735 Y373.6674
G01 X248.1571 Y373.6375
G01 X248.1386 Y373.6009
G01 X247.3609 Y371.9870
G01 X247.3439 Y371.9498
G01 X247.3306 Y371.9183
G01 X246.6644 Y370.2541
G01 X246.6536 Y370.2259
G01 X246.6416 Y370.1916
G01 X244.9460 Y365.0802
G01 X244.9373 Y365.0527
G01 X244.9305 Y365.0296
G01 X243.4836 Y359.8457
G01 X242.3819 Y355.9481
G01 X241.0795 Y352.1511
G01 X239.5728 Y348.4350
G01 X237.8656 Y344.8078
G01 X235.9620 Y341.2776
G01 X233.8660 Y337.8522
G01 X231.5818 Y334.5396
G01 X229.9098 Y332.3779
G01 X228.6944 Y331.4899
G01 X226.8486 Y330.3357
G01 X224.9207 Y329.3153
G01 X222.9177 Y328.4335
G01 X220.8424 Y327.6937
G01 X219.2082 Y327.2262
G01 X217.5114 Y326.8662
G01 X215.7004 Y326.6408
G01 X213.7268 Y326.5773
G01 X211.6698 Y326.7457
G01 X209.4210 Y327.2150
G01 X207.0138 Y327.9949
G01 X204.4989 Y329.0902
G01 X201.9249 Y330.5044
G01 X199.3393 Y332.2401
G01 X198.1088 Y333.2336
G01 X197.9695 Y333.4024
G01 X196.8570 Y334.8848
G01 X195.8278 Y336.3982
G01 X195.7963 Y336.4420
G01 X195.7654 Y336.4812
G01 X195.7272 Y336.5249
G01 X195.6926 Y336.5609
G01 X195.6502 Y336.6006
G01 X195.6123 Y336.6330
G01 X195.5662 Y336.6684
G01 X195.5253 Y336.6969
G01 X195.4760 Y336.7276
G01 X195.4332 Y336.7517
G01 X195.3885 Y336.7739
G01 X195.3354 Y336.7974
G01 X195.2888 Y336.8152
G01 X195.2328 Y336.8337
G01 X195.1767 Y336.8487
G01 X195.1280 Y336.8594
G01 X195.0707 Y336.8689
G01 X195.0211 Y336.8748
G01 X194.9722 Y336.8782
G01 X194.9133 Y336.8796
G01 X194.8553 Y336.8777
G01 X194.8055 Y336.8738
G01 X194.7479 Y336.8663
G01 X194.6996 Y336.8577
G01 X194.6509 Y336.8466
G01 X194.5950 Y336.8311
G01 X194.5476 Y336.8152
G01 X194.4927 Y336.7940
G01 X194.4398 Y336.7701
G01 X194.3953 Y336.7474
G01 X194.3450 Y336.7184
G01 X194.3037 Y336.6920
G01 X194.2630 Y336.6631
G01 X194.2172 Y336.6273
G01 X194.1795 Y336.5946
G01 X194.1375 Y336.5545
G01 X194.0972 Y336.5116
G01 X194.0653 Y336.4743
G01 X194.0347 Y336.4348
G01 X194.0013 Y336.3873
G01 X193.9747 Y336.3451
G01 X193.9461 Y336.2945
G01 X193.9239 Y336.2499
G01 X193.9000 Y336.1960
G01 X193.8795 Y336.1417
G01 X193.8641 Y336.0942
G01 X193.8512 Y336.0469
G01 X193.8383 Y335.9894
G01 X193.8289 Y335.9321
G01 X193.8230 Y335.8825
G01 X193.8196 Y335.8336
G01 X193.8182 Y335.7796
G01 X193.8182 Y268.4260
G01 X193.8198 Y268.3671
G01 X193.8295 Y268.2694
G01 X193.8309 Y268.2597
G01 X193.8500 Y268.1635
G01 X193.8524 Y268.1540
G01 X193.8809 Y268.0600
G01 X193.8842 Y268.0508
G01 X193.9218 Y267.9601
G01 X193.9260 Y267.9513
G01 X193.9722 Y267.8647
G01 X193.9773 Y267.8563
G01 X194.0318 Y267.7747
G01 X194.0377 Y267.7668
G01 X194.0999 Y267.6910
G01 X194.1065 Y267.6837
G01 X194.1759 Y267.6143
G01 X194.1832 Y267.6077
G01 X194.2590 Y267.5454
G01 X194.2669 Y267.5396
G01 X194.3485 Y267.4851
G01 X194.3569 Y267.4800
G01 X194.4435 Y267.4338
G01 X194.4524 Y267.4296
G01 X194.5430 Y267.3920
G01 X194.5523 Y267.3887
G01 X194.6462 Y267.3602
G01 X194.6557 Y267.3578
G01 X194.7520 Y267.3387
G01 X194.7617 Y267.3372
G01 X194.8593 Y267.3276
G01 X194.8691 Y267.3271
G01 X194.9182 Y267.3259
G01 X216.5194 Y267.3259
G01 X216.9430 Y267.2842
G01 X217.2983 Y267.1764
G01 X217.6260 Y267.0013
G01 X217.9131 Y266.7657
G01 X218.1487 Y266.4786
G01 X218.3238 Y266.1510
G01 X218.4317 Y265.7956
G01 X218.4734 Y265.3720
G01 X218.4734 Y96.4800
G01 X218.4317 Y96.0566
G01 X218.3237 Y95.7008
G01 X218.1488 Y95.3733
G01 X217.9134 Y95.0869
G01 X217.6256 Y94.8507
G01 X217.2983 Y94.6753
G01 X216.9434 Y94.5681
G01 X216.5190 Y94.5260
G01 X107.6278 Y94.5260
G01 X107.2034 Y94.5681
G01 X106.8485 Y94.6753
G01 X106.5212 Y94.8507
G01 X106.2334 Y95.0869
G01 X105.9980 Y95.3733
G01 X105.8231 Y95.7008
G01 X105.7151 Y96.0566
G01 X105.6734 Y96.4800
G01 X105.6734 Y265.3720
G01 X105.7151 Y265.7956
G01 X105.8230 Y266.1510
G01 X105.9981 Y266.4786
G01 X106.2337 Y266.7657
G01 X106.5208 Y267.0013
G01 X106.8485 Y267.1764
G01 X107.2038 Y267.2842
G01 X107.6274 Y267.3259
G01 X129.2286 Y267.3259
G01 X129.2777 Y267.3271
G01 X129.2875 Y267.3276
G01 X129.3851 Y267.3372
G01 X129.3948 Y267.3387
G01 X129.4911 Y267.3578
G01 X129.5006 Y267.3602
G01 X129.5945 Y267.3887
G01 X129.6038 Y267.3920
G01 X129.6944 Y267.4296
G01 X129.7033 Y267.4338
G01 X129.7899 Y267.4800
G01 X129.7983 Y267.4851
G01 X129.8799 Y267.5396
G01 X129.8878 Y267.5454
G01 X129.9636 Y267.6077
G01 X129.9709 Y267.6143
G01 X130.0403 Y267.6837
G01 X130.0469 Y267.6910
G01 X130.1091 Y267.7668
G01 X130.1150 Y267.7747
G01 X130.1695 Y267.8563
G01 X130.1746 Y267.8647
G01 X130.2208 Y267.9513
G01 X130.2250 Y267.9601
G01 X130.2626 Y268.0508
G01 X130.2659 Y268.0600
G01 X130.2944 Y268.1540
G01 X130.2968 Y268.1635
G01 X130.3159 Y268.2597
G01 X130.3173 Y268.2694
G01 X130.3270 Y268.3671
G01 X130.3286 Y268.4260
G01 X130.3286 Y368.7879
G01 X130.3275 Y368.8363
G01 X130.3243 Y368.8852
G01 X130.3186 Y368.9358
G01 X130.3095 Y368.9922
G01 X130.2988 Y369.0419
G01 X130.2843 Y369.0971
G01 X130.2688 Y369.1456
G01 X130.2489 Y369.1991
G01 X130.2287 Y369.2458
G01 X130.2037 Y369.2972
G01 X130.1790 Y369.3416
G01 X130.1481 Y369.3917
G01 X130.1154 Y369.4386
G01 X130.0856 Y369.4776
G01 X130.0527 Y369.5164
G01 X130.0138 Y369.5583
G01 X129.9774 Y369.5937
G01 X129.9345 Y369.6315
G01 X129.8948 Y369.6632
G01 X129.8485 Y369.6967
G01 X129.8058 Y369.7243
G01 X129.7564 Y369.7530
G01 X129.7112 Y369.7763
G01 X129.6593 Y369.8001
G01 X129.6120 Y369.8189
G01 X129.5663 Y369.8348
G01 X128.6679 Y370.1246
G01 X127.5818 Y370.5526
G01 X125.4454 Y371.6171
G01 X123.3993 Y372.9033
G01 X121.3924 Y374.3894
G01 X119.3908 Y376.0427
G01 X117.3595 Y377.8296
G01 X113.0812 Y381.6447
G01 X110.7716 Y383.5903
G01 X110.7378 Y383.6176
G01 X108.2843 Y385.5239
G01 X108.2590 Y385.5430
G01 X108.2376 Y385.5583
G01 X105.5909 Y387.3995
G01 X105.5644 Y387.4173
G01 X105.5319 Y387.4378
G01 X102.6551 Y389.1775
G01 X102.6237 Y389.1957
G01 X102.5853 Y389.2163
G01 X99.4417 Y390.8180
G01 X99.4156 Y390.8309
G01 X99.3838 Y390.8454
G01 X97.7006 Y391.5830
G01 X97.6594 Y391.6001
G01 X95.8953 Y392.2892
G01 X95.8712 Y392.2983
G01 X93.3733 Y393.1531
G01 X93.3389 Y393.1643
G01 X90.8202 Y393.9342
G01 X88.2595 Y394.6261
G01 X85.6747 Y395.2341
G01 X83.0741 Y395.7564
G01 X80.4567 Y396.1932
G01 X77.8247 Y396.5441
G01 X75.1926 Y396.8075
G01 X73.3144 Y396.9675
G01 X73.2696 Y396.9704
G01 X71.4008 Y397.0528
G01 X71.3642 Y397.0537
G01 X71.3337 Y397.0537
G01 X67.6072 Y396.9906
G01 X67.5666 Y396.9891
G01 X67.5181 Y396.9854
G01 X63.8215 Y396.6218
G01 X63.7733 Y396.6160
G01 X63.7333 Y396.6096
G01 X60.0845 Y395.9494
G01 X60.0370 Y395.9396
G01 X59.9976 Y395.9300
G01 X56.4166 Y394.9775
G01 X56.3700 Y394.9639
G01 X56.3316 Y394.9511
G01 X52.8346 Y393.7103
G01 X52.7965 Y393.6959
G01 X52.7514 Y393.6769
G01 X49.3584 Y392.1518
G01 X49.3308 Y392.1389
G01 X49.2981 Y392.1225
G01 X47.6451 Y391.2547
G01 X47.6052 Y391.2326
G01 X45.9862 Y390.2951
G01 X45.9513 Y390.2740
G01 X45.9227 Y390.2555
G01 X44.3307 Y389.1829
G01 X44.3069 Y389.1663
G01 X44.2787 Y389.1456
G01 X42.7547 Y387.9845
G01 X42.7322 Y387.9668
G01 X42.7058 Y387.9449
G01 X41.2508 Y386.6986
G01 X41.2290 Y386.6794
G01 X41.2035 Y386.6557
G01 X39.8235 Y385.3273
G01 X33.8085 Y379.3126
G01 X33.7714 Y379.2735
G01 X33.7418 Y379.2396
G01 X32.0078 Y377.1617
G01 X31.9889 Y377.1384
G01 X31.9671 Y377.1098
G01 X30.3661 Y374.9388
G01 X30.3486 Y374.9143
G01 X30.3284 Y374.8844
G01 X28.8644 Y372.6267
G01 X28.8486 Y372.6014
G01 X28.8304 Y372.5706
G01 X27.5054 Y370.2326
G01 X27.4909 Y370.2061
G01 X27.4744 Y370.1739
G01 X26.2934 Y367.7620
G01 X26.2782 Y367.7295
G01 X26.2662 Y367.7020
G01 X25.2312 Y365.2225
G01 X25.2180 Y365.1891
G01 X25.2077 Y365.1610
G01 X24.3217 Y362.6204
G01 X24.3103 Y362.5858
G01 X24.3017 Y362.5568
G01 X23.5697 Y359.9613
G01 X23.5613 Y359.9297
G01 X23.5550 Y359.9032
G01 X22.6860 Y356.0252
G01 X22.6811 Y356.0020
G01 X22.6758 Y355.9741
G01 X21.9928 Y352.0663
G01 X21.9882 Y352.0380
G01 X21.9850 Y352.0143
G01 X21.4900 Y348.0833
G01 X21.4868 Y348.0551
G01 X21.4847 Y348.0315
G01 X21.1767 Y344.0840
G01 X21.1749 Y344.0555
G01 X21.1739 Y344.0317
G01 X21.0539 Y340.0742
G01 X21.0534 Y340.0456
G01 X21.0535 Y340.0217
G01 X21.1225 Y336.0608
G01 X21.1232 Y336.0371
G01 X21.1247 Y336.0087
G01 X21.3817 Y332.0511
G01 X21.3835 Y332.0272
G01 X21.3863 Y331.9986
G01 X21.8333 Y328.0502
G01 X21.8386 Y328.0105
G01 X21.8467 Y327.9632
G01 X22.7247 Y323.4662
G01 X22.7321 Y323.4316
G01 X23.7541 Y318.9647
G01 X23.7625 Y318.9304
G01 X24.9325 Y314.4794
G01 X26.2474 Y310.0544
G01 X27.7513 Y305.4307
G01 X29.3683 Y300.8564
G01 X29.3779 Y300.8301
G01 X31.1059 Y296.3116
G01 X31.1162 Y296.2859
G01 X32.9611 Y291.8038
G01 X36.0226 Y284.6315
G01 X38.9207 Y277.3781
G01 X38.9305 Y277.3555
G01 X40.6913 Y273.4247
G01 X42.1829 Y269.4370
G01 X43.4167 Y265.3728
G01 X44.3897 Y261.2443
G01 X45.1011 Y257.0636
G01 X45.5478 Y252.8431
G01 X45.7269 Y248.5953
G01 X45.6368 Y244.3529
G01 X45.1875 Y240.7296
G01 X44.5821 Y237.0998
G01 X43.8265 Y233.5007
G01 X42.9218 Y229.9371
G01 X41.8689 Y226.4134
G01 X40.6699 Y222.9342
G01 X39.3246 Y219.5039
G01 X37.8255 Y216.1029
G01 X34.2582 Y207.8869
G01 X30.4451 Y199.8078
G01 X27.3080 Y193.8069
G01 X24.2791 Y187.7169
G01 X21.3756 Y181.5688
G01 X18.5975 Y175.3654
G01 X15.9468 Y169.1089
G01 X13.4226 Y162.7993
G01 X11.0267 Y156.4393
G01 X8.7631 Y150.0393
G01 X7.5256 Y146.4572
G01 X6.3817 Y142.8402
G01 X5.3362 Y139.2061
G01 X5.3286 Y139.1781
G01 X4.3803 Y135.5213
G01 X3.5258 Y131.8261
G01 X2.7705 Y128.1217
G01 X2.7651 Y128.0933
G01 X2.1079 Y124.3722
G01 X1.5479 Y120.6209
G01 X0.7267 Y114.3641
G01 X0.7233 Y114.3354
G01 X0.7211 Y114.3115
G01 X0.2031 Y108.0355
G01 X0.2011 Y108.0066
G01 X0.2000 Y107.9825
G01 X-0.0150 Y101.6885
G01 X-0.0153 Y101.6621
G00 Z10.0000
G00 X6.2622 Y96.4260
G01 F60.00
G01 Z-5.0000
G01 F120.00
G01 X6.3977 Y96.9316
G01 X6.7678 Y97.3017
G01 X7.2734 Y97.4371
G01 X7.7790 Y97.3017
G01 X8.1491 Y96.9316
G01 X8.2846 Y96.4260
G01 X8.1491 Y95.9204
G01 X7.7790 Y95.5503
G01 X7.2734 Y95.4148
G01 X6.7678 Y95.5503
G01 X6.3977 Y95.9204
G01 X6.2622 Y96.4260
G00 Z10.0000
M05
G00 Z10.0000
G00 Z15.00
G00 X0.0 Y0.0

