(G-CODE GENERATED BY FLATCAM v8.991 - www.flatcam.org - Version Date: 2019/12/27)

(Name: main-Eco2_User.gbr_iso_cnc)
(Type: G-code from Geometry)
(Units: MM)

(Created on Monday, 01 June 2020 at 18:54)

(TOOL DIAMETER: 1.0 mm)
(Feedrate: 120.0 mm/min)
(Feedrate_Z: 60.0 mm/min)
(Feedrate rapids 1500.0 mm/min)

(Z_Cut: -5.0 mm)
(Z_Move: 10.0 mm)
(Z Toolchange: 15.0 mm)
(X,Y Toolchange: 0.0000, 0.0000 mm)
(Z Start: None mm)
(Z End: 15.0 mm)
(Steps per circle: 64)
(Preprocessor Geometry: default)

(X range:   49.6982 ...  294.3948  mm)
(Y range:   45.5772 ...  372.2212  mm)

(Spindle Speed: None RPM)
G21
G90
G94




G01 F120.00
G00 Z10.0000

M03
G00 X130.3922 Y71.6812
G01 F60.00
G01 Z-5.0000
G01 F120.00
G01 X130.4077 Y71.3652
G01 X130.3922 Y71.0492
G01 X130.3458 Y70.7362
G01 X130.2689 Y70.4292
G01 X130.1623 Y70.1313
G01 X130.0270 Y69.8453
G01 X129.8643 Y69.5739
G01 X129.6759 Y69.3197
G01 X129.4634 Y69.0853
G01 X129.2289 Y68.8728
G01 X128.9748 Y68.6843
G01 X128.7034 Y68.5216
G01 X128.4173 Y68.3864
G01 X128.1194 Y68.2798
G01 X127.8125 Y68.2029
G01 X127.4995 Y68.1565
G01 X127.1835 Y68.1409
G01 X126.8674 Y68.1565
G01 X126.5544 Y68.2029
G01 X126.2475 Y68.2798
G01 X125.9496 Y68.3864
G01 X125.6636 Y68.5216
G01 X125.3922 Y68.6843
G01 X125.1380 Y68.8728
G01 X124.9036 Y69.0853
G01 X124.6911 Y69.3197
G01 X124.5026 Y69.5739
G01 X124.3399 Y69.8453
G01 X124.2046 Y70.1313
G01 X124.0980 Y70.4292
G01 X124.0211 Y70.7362
G01 X123.9747 Y71.0492
G01 X123.9592 Y71.3652
G01 X123.9747 Y71.6812
G01 X124.0211 Y71.9942
G01 X124.0980 Y72.3011
G01 X124.2046 Y72.5991
G01 X124.3399 Y72.8851
G01 X124.5026 Y73.1565
G01 X124.6911 Y73.4106
G01 X124.9036 Y73.6451
G01 X125.1380 Y73.8576
G01 X125.3922 Y74.0461
G01 X125.6636 Y74.2087
G01 X125.9496 Y74.3440
G01 X126.2475 Y74.4506
G01 X126.5544 Y74.5275
G01 X126.8674 Y74.5739
G01 X127.1835 Y74.5895
G01 X127.4995 Y74.5739
G01 X127.8125 Y74.5275
G01 X128.1194 Y74.4506
G01 X128.4173 Y74.3440
G01 X128.7034 Y74.2087
G01 X128.9748 Y74.0461
G01 X129.2289 Y73.8576
G01 X129.4634 Y73.6451
G01 X129.6759 Y73.4106
G01 X129.8643 Y73.1565
G01 X130.0270 Y72.8851
G01 X130.1623 Y72.5991
G01 X130.2689 Y72.3011
G01 X130.3458 Y71.9942
G01 X130.3922 Y71.6812
G00 Z10.0000
G00 X144.3622 Y71.6812
G01 F60.00
G01 Z-5.0000
G01 F120.00
G01 X144.3777 Y71.3652
G01 X144.3622 Y71.0492
G01 X144.3158 Y70.7362
G01 X144.2389 Y70.4292
G01 X144.1323 Y70.1313
G01 X143.9970 Y69.8453
G01 X143.8343 Y69.5739
G01 X143.6459 Y69.3197
G01 X143.4334 Y69.0853
G01 X143.1989 Y68.8728
G01 X142.9448 Y68.6843
G01 X142.6734 Y68.5216
G01 X142.3873 Y68.3864
G01 X142.0894 Y68.2798
G01 X141.7825 Y68.2029
G01 X141.4695 Y68.1565
G01 X141.1535 Y68.1409
G01 X140.8374 Y68.1565
G01 X140.5244 Y68.2029
G01 X140.2175 Y68.2798
G01 X139.9196 Y68.3864
G01 X139.6336 Y68.5216
G01 X139.3622 Y68.6843
G01 X139.1080 Y68.8728
G01 X138.8736 Y69.0853
G01 X138.6611 Y69.3197
G01 X138.4726 Y69.5739
G01 X138.3099 Y69.8453
G01 X138.1746 Y70.1313
G01 X138.0680 Y70.4292
G01 X137.9911 Y70.7362
G01 X137.9447 Y71.0492
G01 X137.9292 Y71.3652
G01 X137.9447 Y71.6812
G01 X137.9911 Y71.9942
G01 X138.0680 Y72.3011
G01 X138.1746 Y72.5991
G01 X138.3099 Y72.8851
G01 X138.4726 Y73.1565
G01 X138.6611 Y73.4106
G01 X138.8736 Y73.6451
G01 X139.1080 Y73.8576
G01 X139.3622 Y74.0461
G01 X139.6336 Y74.2087
G01 X139.9196 Y74.3440
G01 X140.2175 Y74.4506
G01 X140.5244 Y74.5275
G01 X140.8374 Y74.5739
G01 X141.1535 Y74.5895
G01 X141.4695 Y74.5739
G01 X141.7825 Y74.5275
G01 X142.0894 Y74.4506
G01 X142.3873 Y74.3440
G01 X142.6734 Y74.2087
G01 X142.9448 Y74.0461
G01 X143.1989 Y73.8576
G01 X143.4334 Y73.6451
G01 X143.6459 Y73.4106
G01 X143.8343 Y73.1565
G01 X143.9970 Y72.8851
G01 X144.1323 Y72.5991
G01 X144.2389 Y72.3011
G01 X144.3158 Y71.9942
G01 X144.3622 Y71.6812
G00 Z10.0000
G00 X158.3322 Y71.6812
G01 F60.00
G01 Z-5.0000
G01 F120.00
G01 X158.3477 Y71.3652
G01 X158.3322 Y71.0492
G01 X158.2858 Y70.7362
G01 X158.2089 Y70.4292
G01 X158.1023 Y70.1313
G01 X157.9670 Y69.8453
G01 X157.8043 Y69.5739
G01 X157.6159 Y69.3197
G01 X157.4034 Y69.0853
G01 X157.1689 Y68.8728
G01 X156.9148 Y68.6843
G01 X156.6434 Y68.5216
G01 X156.3573 Y68.3864
G01 X156.0594 Y68.2798
G01 X155.7525 Y68.2029
G01 X155.4395 Y68.1565
G01 X155.1235 Y68.1409
G01 X154.8074 Y68.1565
G01 X154.4944 Y68.2029
G01 X154.1875 Y68.2798
G01 X153.8896 Y68.3864
G01 X153.6036 Y68.5216
G01 X153.3322 Y68.6843
G01 X153.0780 Y68.8728
G01 X152.8436 Y69.0853
G01 X152.6311 Y69.3197
G01 X152.4426 Y69.5739
G01 X152.2799 Y69.8453
G01 X152.1446 Y70.1313
G01 X152.0380 Y70.4292
G01 X151.9611 Y70.7362
G01 X151.9147 Y71.0492
G01 X151.8992 Y71.3652
G01 X151.9147 Y71.6812
G01 X151.9611 Y71.9942
G01 X152.0380 Y72.3011
G01 X152.1446 Y72.5991
G01 X152.2799 Y72.8851
G01 X152.4426 Y73.1565
G01 X152.6311 Y73.4106
G01 X152.8436 Y73.6451
G01 X153.0780 Y73.8576
G01 X153.3322 Y74.0461
G01 X153.6036 Y74.2087
G01 X153.8896 Y74.3440
G01 X154.1875 Y74.4506
G01 X154.4944 Y74.5275
G01 X154.8074 Y74.5739
G01 X155.1235 Y74.5895
G01 X155.4395 Y74.5739
G01 X155.7525 Y74.5275
G01 X156.0594 Y74.4506
G01 X156.3573 Y74.3440
G01 X156.6434 Y74.2087
G01 X156.9148 Y74.0461
G01 X157.1689 Y73.8576
G01 X157.4034 Y73.6451
G01 X157.6159 Y73.4106
G01 X157.8043 Y73.1565
G01 X157.9670 Y72.8851
G01 X158.1023 Y72.5991
G01 X158.2089 Y72.3011
G01 X158.2858 Y71.9942
G01 X158.3322 Y71.6812
G00 Z10.0000
G00 X172.3022 Y71.6812
G01 F60.00
G01 Z-5.0000
G01 F120.00
G01 X172.3177 Y71.3652
G01 X172.3022 Y71.0492
G01 X172.2558 Y70.7362
G01 X172.1789 Y70.4292
G01 X172.0723 Y70.1313
G01 X171.9370 Y69.8453
G01 X171.7743 Y69.5739
G01 X171.5859 Y69.3197
G01 X171.3734 Y69.0853
G01 X171.1389 Y68.8728
G01 X170.8848 Y68.6843
G01 X170.6134 Y68.5216
G01 X170.3273 Y68.3864
G01 X170.0294 Y68.2798
G01 X169.7225 Y68.2029
G01 X169.4095 Y68.1565
G01 X169.0935 Y68.1409
G01 X168.7774 Y68.1565
G01 X168.4644 Y68.2029
G01 X168.1575 Y68.2798
G01 X167.8596 Y68.3864
G01 X167.5736 Y68.5216
G01 X167.3022 Y68.6843
G01 X167.0480 Y68.8728
G01 X166.8136 Y69.0853
G01 X166.6011 Y69.3197
G01 X166.4126 Y69.5739
G01 X166.2499 Y69.8453
G01 X166.1146 Y70.1313
G01 X166.0080 Y70.4292
G01 X165.9311 Y70.7362
G01 X165.8847 Y71.0492
G01 X165.8692 Y71.3652
G01 X165.8847 Y71.6812
G01 X165.9311 Y71.9942
G01 X166.0080 Y72.3011
G01 X166.1146 Y72.5991
G01 X166.2499 Y72.8851
G01 X166.4126 Y73.1565
G01 X166.6011 Y73.4106
G01 X166.8136 Y73.6451
G01 X167.0480 Y73.8576
G01 X167.3022 Y74.0461
G01 X167.5736 Y74.2087
G01 X167.8596 Y74.3440
G01 X168.1575 Y74.4506
G01 X168.4644 Y74.5275
G01 X168.7774 Y74.5739
G01 X169.0935 Y74.5895
G01 X169.4095 Y74.5739
G01 X169.7225 Y74.5275
G01 X170.0294 Y74.4506
G01 X170.3273 Y74.3440
G01 X170.6134 Y74.2087
G01 X170.8848 Y74.0461
G01 X171.1389 Y73.8576
G01 X171.3734 Y73.6451
G01 X171.5859 Y73.4106
G01 X171.7743 Y73.1565
G01 X171.9370 Y72.8851
G01 X172.0723 Y72.5991
G01 X172.1789 Y72.3011
G01 X172.2558 Y71.9942
G01 X172.3022 Y71.6812
G00 Z10.0000
G00 X186.2722 Y71.6812
G01 F60.00
G01 Z-5.0000
G01 F120.00
G01 X186.2877 Y71.3652
G01 X186.2722 Y71.0492
G01 X186.2258 Y70.7362
G01 X186.1489 Y70.4292
G01 X186.0423 Y70.1313
G01 X185.9070 Y69.8453
G01 X185.7443 Y69.5739
G01 X185.5559 Y69.3197
G01 X185.3434 Y69.0853
G01 X185.1089 Y68.8728
G01 X184.8548 Y68.6843
G01 X184.5834 Y68.5216
G01 X184.2973 Y68.3864
G01 X183.9994 Y68.2798
G01 X183.6925 Y68.2029
G01 X183.3795 Y68.1565
G01 X183.0635 Y68.1409
G01 X182.7474 Y68.1565
G01 X182.4344 Y68.2029
G01 X182.1275 Y68.2798
G01 X181.8296 Y68.3864
G01 X181.5436 Y68.5216
G01 X181.2722 Y68.6843
G01 X181.0180 Y68.8728
G01 X180.7836 Y69.0853
G01 X180.5711 Y69.3197
G01 X180.3826 Y69.5739
G01 X180.2199 Y69.8453
G01 X180.0846 Y70.1313
G01 X179.9780 Y70.4292
G01 X179.9011 Y70.7362
G01 X179.8547 Y71.0492
G01 X179.8392 Y71.3652
G01 X179.8547 Y71.6812
G01 X179.9011 Y71.9942
G01 X179.9780 Y72.3011
G01 X180.0846 Y72.5991
G01 X180.2199 Y72.8851
G01 X180.3826 Y73.1565
G01 X180.5711 Y73.4106
G01 X180.7836 Y73.6451
G01 X181.0180 Y73.8576
G01 X181.2722 Y74.0461
G01 X181.5436 Y74.2087
G01 X181.8296 Y74.3440
G01 X182.1275 Y74.4506
G01 X182.4344 Y74.5275
G01 X182.7474 Y74.5739
G01 X183.0635 Y74.5895
G01 X183.3795 Y74.5739
G01 X183.6925 Y74.5275
G01 X183.9994 Y74.4506
G01 X184.2973 Y74.3440
G01 X184.5834 Y74.2087
G01 X184.8548 Y74.0461
G01 X185.1089 Y73.8576
G01 X185.3434 Y73.6451
G01 X185.5559 Y73.4106
G01 X185.7443 Y73.1565
G01 X185.9070 Y72.8851
G01 X186.0423 Y72.5991
G01 X186.1489 Y72.3011
G01 X186.2258 Y71.9942
G01 X186.2722 Y71.6812
G00 Z10.0000
G00 X200.2422 Y71.6812
G01 F60.00
G01 Z-5.0000
G01 F120.00
G01 X200.2577 Y71.3652
G01 X200.2422 Y71.0492
G01 X200.1958 Y70.7362
G01 X200.1189 Y70.4292
G01 X200.0123 Y70.1313
G01 X199.8770 Y69.8453
G01 X199.7143 Y69.5739
G01 X199.5259 Y69.3197
G01 X199.3134 Y69.0853
G01 X199.0789 Y68.8728
G01 X198.8248 Y68.6843
G01 X198.5534 Y68.5216
G01 X198.2673 Y68.3864
G01 X197.9694 Y68.2798
G01 X197.6625 Y68.2029
G01 X197.3495 Y68.1565
G01 X197.0335 Y68.1409
G01 X196.7174 Y68.1565
G01 X196.4044 Y68.2029
G01 X196.0975 Y68.2798
G01 X195.7996 Y68.3864
G01 X195.5136 Y68.5216
G01 X195.2422 Y68.6843
G01 X194.9880 Y68.8728
G01 X194.7536 Y69.0853
G01 X194.5411 Y69.3197
G01 X194.3526 Y69.5739
G01 X194.1899 Y69.8453
G01 X194.0546 Y70.1313
G01 X193.9480 Y70.4292
G01 X193.8711 Y70.7362
G01 X193.8247 Y71.0492
G01 X193.8092 Y71.3652
G01 X193.8247 Y71.6812
G01 X193.8711 Y71.9942
G01 X193.9480 Y72.3011
G01 X194.0546 Y72.5991
G01 X194.1899 Y72.8851
G01 X194.3526 Y73.1565
G01 X194.5411 Y73.4106
G01 X194.7536 Y73.6451
G01 X194.9880 Y73.8576
G01 X195.2422 Y74.0461
G01 X195.5136 Y74.2087
G01 X195.7996 Y74.3440
G01 X196.0975 Y74.4506
G01 X196.4044 Y74.5275
G01 X196.7174 Y74.5739
G01 X197.0335 Y74.5895
G01 X197.3495 Y74.5739
G01 X197.6625 Y74.5275
G01 X197.9694 Y74.4506
G01 X198.2673 Y74.3440
G01 X198.5534 Y74.2087
G01 X198.8248 Y74.0461
G01 X199.0789 Y73.8576
G01 X199.3134 Y73.6451
G01 X199.5259 Y73.4106
G01 X199.7143 Y73.1565
G01 X199.8770 Y72.8851
G01 X200.0123 Y72.5991
G01 X200.1189 Y72.3011
G01 X200.1958 Y71.9942
G01 X200.2422 Y71.6812
G00 Z10.0000
G00 X243.0207 Y71.6786
G01 F60.00
G01 Z-5.0000
G01 F120.00
G01 X243.0357 Y71.3740
G01 X243.0207 Y71.0694
G01 X242.9760 Y70.7678
G01 X242.9019 Y70.4720
G01 X242.7991 Y70.1849
G01 X242.6688 Y69.9092
G01 X242.5120 Y69.6477
G01 X242.3304 Y69.4028
G01 X242.1256 Y69.1768
G01 X241.8996 Y68.9720
G01 X241.6547 Y68.7904
G01 X241.3932 Y68.6336
G01 X241.1175 Y68.5033
G01 X240.8304 Y68.4005
G01 X240.5346 Y68.3264
G01 X240.2330 Y68.2817
G01 X239.9284 Y68.2667
G01 X239.6238 Y68.2817
G01 X239.3222 Y68.3264
G01 X239.0264 Y68.4005
G01 X238.7393 Y68.5033
G01 X238.4636 Y68.6336
G01 X238.2021 Y68.7904
G01 X237.9572 Y68.9720
G01 X237.7312 Y69.1768
G01 X237.5264 Y69.4028
G01 X237.3448 Y69.6477
G01 X237.1880 Y69.9092
G01 X237.0577 Y70.1849
G01 X236.9549 Y70.4720
G01 X236.8808 Y70.7678
G01 X236.8361 Y71.0694
G01 X236.8211 Y71.3740
G01 X236.8361 Y71.6786
G01 X236.8808 Y71.9802
G01 X236.9549 Y72.2760
G01 X237.0577 Y72.5631
G01 X237.1880 Y72.8388
G01 X237.3448 Y73.1003
G01 X237.5264 Y73.3452
G01 X237.7312 Y73.5712
G01 X237.9572 Y73.7760
G01 X238.2021 Y73.9576
G01 X238.4636 Y74.1144
G01 X238.7393 Y74.2447
G01 X239.0264 Y74.3475
G01 X239.3222 Y74.4216
G01 X239.6238 Y74.4663
G01 X239.9284 Y74.4813
G01 X240.2330 Y74.4663
G01 X240.5346 Y74.4216
G01 X240.8304 Y74.3475
G01 X241.1175 Y74.2447
G01 X241.3932 Y74.1144
G01 X241.6547 Y73.9576
G01 X241.8996 Y73.7760
G01 X242.1256 Y73.5712
G01 X242.3304 Y73.3452
G01 X242.5120 Y73.1003
G01 X242.6688 Y72.8388
G01 X242.7991 Y72.5631
G01 X242.9019 Y72.2760
G01 X242.9760 Y71.9802
G01 X243.0207 Y71.6786
G00 Z10.0000
G00 X259.9177 Y72.5631
G01 F60.00
G01 Z-5.0000
G01 F120.00
G01 X260.0480 Y72.8388
G01 X260.2048 Y73.1003
G01 X260.3864 Y73.3452
G01 X260.5912 Y73.5712
G01 X260.8172 Y73.7760
G01 X261.0621 Y73.9576
G01 X261.3236 Y74.1144
G01 X261.5993 Y74.2447
G01 X261.8864 Y74.3475
G01 X262.1822 Y74.4216
G01 X262.4838 Y74.4663
G01 X262.7884 Y74.4813
G01 X263.0930 Y74.4663
G01 X263.3946 Y74.4216
G01 X263.6904 Y74.3475
G01 X263.9775 Y74.2447
G01 X264.2532 Y74.1144
G01 X264.5147 Y73.9576
G01 X264.7596 Y73.7760
G01 X264.9856 Y73.5712
G01 X265.1904 Y73.3452
G01 X265.3720 Y73.1003
G01 X265.5288 Y72.8388
G01 X265.6591 Y72.5631
G01 X265.7619 Y72.2760
G01 X265.8360 Y71.9802
G01 X265.8807 Y71.6786
G01 X265.8957 Y71.3740
G01 X265.8807 Y71.0694
G01 X265.8360 Y70.7678
G01 X265.7619 Y70.4720
G01 X265.6591 Y70.1849
G01 X265.5288 Y69.9092
G01 X265.3720 Y69.6477
G01 X265.1904 Y69.4028
G01 X264.9856 Y69.1768
G01 X264.7596 Y68.9720
G01 X264.5147 Y68.7904
G01 X264.2532 Y68.6336
G01 X263.9775 Y68.5033
G01 X263.6904 Y68.4005
G01 X263.3946 Y68.3264
G01 X263.0930 Y68.2817
G01 X262.7884 Y68.2667
G01 X262.4838 Y68.2817
G01 X262.1822 Y68.3264
G01 X261.8864 Y68.4005
G01 X261.5993 Y68.5033
G01 X261.3236 Y68.6336
G01 X261.0621 Y68.7904
G01 X260.8172 Y68.9720
G01 X260.5912 Y69.1768
G01 X260.3864 Y69.4028
G01 X260.2048 Y69.6477
G01 X260.0480 Y69.9092
G01 X259.9177 Y70.1849
G01 X259.8149 Y70.4720
G01 X259.7408 Y70.7678
G01 X259.6961 Y71.0694
G01 X259.6811 Y71.3740
G01 X259.6961 Y71.6786
G01 X259.7408 Y71.9802
G01 X259.8149 Y72.2760
G01 X259.9177 Y72.5631
G00 Z10.0000
G00 X260.5972 Y55.4519
G01 F60.00
G01 Z-5.0000
G01 F120.00
G01 X260.6979 Y55.6648
G01 X260.8189 Y55.8667
G01 X260.9592 Y56.0559
G01 X261.1173 Y56.2303
G01 X261.2917 Y56.3884
G01 X261.4809 Y56.5287
G01 X261.6828 Y56.6497
G01 X261.8957 Y56.7504
G01 X262.1173 Y56.8297
G01 X262.3457 Y56.8869
G01 X262.5786 Y56.9215
G01 X262.8138 Y56.9330
G01 X263.0490 Y56.9215
G01 X263.2819 Y56.8869
G01 X263.5103 Y56.8297
G01 X263.7319 Y56.7504
G01 X263.9448 Y56.6497
G01 X264.1467 Y56.5287
G01 X264.3359 Y56.3884
G01 X264.5103 Y56.2303
G01 X264.6684 Y56.0559
G01 X264.8087 Y55.8667
G01 X264.9297 Y55.6648
G01 X265.0304 Y55.4519
G01 X265.1097 Y55.2303
G01 X265.1669 Y55.0019
G01 X265.2015 Y54.7690
G01 X265.2130 Y54.5338
G01 X265.2015 Y54.2986
G01 X265.1669 Y54.0657
G01 X265.1097 Y53.8373
G01 X265.0304 Y53.6157
G01 X264.9297 Y53.4028
G01 X264.8087 Y53.2009
G01 X264.6684 Y53.0117
G01 X264.5103 Y52.8373
G01 X264.3359 Y52.6792
G01 X264.1467 Y52.5389
G01 X263.9448 Y52.4179
G01 X263.7319 Y52.3172
G01 X263.5103 Y52.2379
G01 X263.2819 Y52.1807
G01 X263.0490 Y52.1461
G01 X262.8138 Y52.1346
G01 X262.5786 Y52.1461
G01 X262.3457 Y52.1807
G01 X262.1173 Y52.2379
G01 X261.8957 Y52.3172
G01 X261.6828 Y52.4179
G01 X261.4809 Y52.5389
G01 X261.2917 Y52.6792
G01 X261.1173 Y52.8373
G01 X260.9592 Y53.0117
G01 X260.8189 Y53.2009
G01 X260.6979 Y53.4028
G01 X260.5972 Y53.6157
G01 X260.5179 Y53.8373
G01 X260.4607 Y54.0657
G01 X260.4261 Y54.2986
G01 X260.4146 Y54.5338
G01 X260.4261 Y54.7690
G01 X260.4607 Y55.0019
G01 X260.5179 Y55.2303
G01 X260.5972 Y55.4519
G00 Z10.0000
G00 X243.0625 Y49.0351
G01 F60.00
G01 Z-5.0000
G01 F120.00
G01 X243.0776 Y48.7264
G01 X243.0625 Y48.4177
G01 X243.0171 Y48.1120
G01 X242.9420 Y47.8122
G01 X242.8379 Y47.5212
G01 X242.7058 Y47.2419
G01 X242.5469 Y46.9768
G01 X242.3628 Y46.7286
G01 X242.1552 Y46.4996
G01 X241.9262 Y46.2920
G01 X241.6780 Y46.1079
G01 X241.4129 Y45.9490
G01 X241.1336 Y45.8169
G01 X240.8426 Y45.7128
G01 X240.5428 Y45.6377
G01 X240.2371 Y45.5923
G01 X239.9284 Y45.5772
G01 X239.6197 Y45.5923
G01 X239.3140 Y45.6377
G01 X239.0142 Y45.7128
G01 X238.7232 Y45.8169
G01 X238.4439 Y45.9490
G01 X238.1788 Y46.1079
G01 X237.9306 Y46.2920
G01 X237.7016 Y46.4996
G01 X237.4940 Y46.7286
G01 X237.3099 Y46.9768
G01 X237.1510 Y47.2419
G01 X237.0189 Y47.5212
G01 X236.9148 Y47.8122
G01 X236.8397 Y48.1120
G01 X236.7943 Y48.4177
G01 X236.7792 Y48.7264
G01 X236.7943 Y49.0351
G01 X236.8397 Y49.3408
G01 X236.9148 Y49.6406
G01 X237.0189 Y49.9316
G01 X237.1510 Y50.2109
G01 X237.3099 Y50.4760
G01 X237.4940 Y50.7242
G01 X237.7016 Y50.9532
G01 X237.9306 Y51.1608
G01 X238.1788 Y51.3449
G01 X238.4439 Y51.5038
G01 X238.7232 Y51.6359
G01 X239.0142 Y51.7400
G01 X239.3140 Y51.8151
G01 X239.6197 Y51.8605
G01 X239.9284 Y51.8756
G01 X240.2371 Y51.8605
G01 X240.5428 Y51.8151
G01 X240.8426 Y51.7400
G01 X241.1336 Y51.6359
G01 X241.4129 Y51.5038
G01 X241.6780 Y51.3449
G01 X241.9262 Y51.1608
G01 X242.1552 Y50.9532
G01 X242.3628 Y50.7242
G01 X242.5469 Y50.4760
G01 X242.7058 Y50.2109
G01 X242.8379 Y49.9316
G01 X242.9420 Y49.6406
G01 X243.0171 Y49.3408
G01 X243.0625 Y49.0351
G00 Z10.0000
G00 X282.7777 Y72.5631
G01 F60.00
G01 Z-5.0000
G01 F120.00
G01 X282.9080 Y72.8388
G01 X283.0648 Y73.1003
G01 X283.2464 Y73.3452
G01 X283.4512 Y73.5712
G01 X283.6772 Y73.7760
G01 X283.9221 Y73.9576
G01 X284.1836 Y74.1144
G01 X284.4593 Y74.2447
G01 X284.7464 Y74.3475
G01 X285.0422 Y74.4216
G01 X285.3438 Y74.4663
G01 X285.6484 Y74.4813
G01 X285.9530 Y74.4663
G01 X286.2546 Y74.4216
G01 X286.5504 Y74.3475
G01 X286.8375 Y74.2447
G01 X287.1132 Y74.1144
G01 X287.3747 Y73.9576
G01 X287.6196 Y73.7760
G01 X287.8456 Y73.5712
G01 X288.0504 Y73.3452
G01 X288.2320 Y73.1003
G01 X288.3888 Y72.8388
G01 X288.5191 Y72.5631
G01 X288.6219 Y72.2760
G01 X288.6960 Y71.9802
G01 X288.7407 Y71.6786
G01 X288.7557 Y71.3740
G01 X288.7407 Y71.0694
G01 X288.6960 Y70.7678
G01 X288.6219 Y70.4720
G01 X288.5191 Y70.1849
G01 X288.3888 Y69.9092
G01 X288.2320 Y69.6477
G01 X288.0504 Y69.4028
G01 X287.8456 Y69.1768
G01 X287.6196 Y68.9720
G01 X287.3747 Y68.7904
G01 X287.1132 Y68.6336
G01 X286.8375 Y68.5033
G01 X286.5504 Y68.4005
G01 X286.2546 Y68.3264
G01 X285.9530 Y68.2817
G01 X285.6484 Y68.2667
G01 X285.3438 Y68.2817
G01 X285.0422 Y68.3264
G01 X284.7464 Y68.4005
G01 X284.4593 Y68.5033
G01 X284.1836 Y68.6336
G01 X283.9221 Y68.7904
G01 X283.6772 Y68.9720
G01 X283.4512 Y69.1768
G01 X283.2464 Y69.4028
G01 X283.0648 Y69.6477
G01 X282.9080 Y69.9092
G01 X282.7777 Y70.1849
G01 X282.6749 Y70.4720
G01 X282.6008 Y70.7678
G01 X282.5561 Y71.0694
G01 X282.5411 Y71.3740
G01 X282.5561 Y71.6786
G01 X282.6008 Y71.9802
G01 X282.6749 Y72.2760
G01 X282.7777 Y72.5631
G00 Z10.0000
G00 X289.7790 Y94.9489
G01 F60.00
G01 Z-5.0000
G01 F120.00
G01 X289.8797 Y95.1618
G01 X290.0007 Y95.3637
G01 X290.1410 Y95.5529
G01 X290.2991 Y95.7273
G01 X290.4735 Y95.8854
G01 X290.6627 Y96.0257
G01 X290.8646 Y96.1467
G01 X291.0775 Y96.2474
G01 X291.2991 Y96.3267
G01 X291.5275 Y96.3839
G01 X291.7604 Y96.4185
G01 X291.9956 Y96.4300
G01 X292.2308 Y96.4185
G01 X292.4637 Y96.3839
G01 X292.6921 Y96.3267
G01 X292.9137 Y96.2474
G01 X293.1266 Y96.1467
G01 X293.3285 Y96.0257
G01 X293.5177 Y95.8854
G01 X293.6921 Y95.7273
G01 X293.8502 Y95.5529
G01 X293.9905 Y95.3637
G01 X294.1115 Y95.1618
G01 X294.2122 Y94.9489
G01 X294.2915 Y94.7273
G01 X294.3487 Y94.4989
G01 X294.3833 Y94.2660
G01 X294.3948 Y94.0308
G01 X294.3833 Y93.7956
G01 X294.3487 Y93.5627
G01 X294.2915 Y93.3343
G01 X294.2122 Y93.1127
G01 X294.1115 Y92.8998
G01 X293.9905 Y92.6979
G01 X293.8502 Y92.5087
G01 X293.6921 Y92.3343
G01 X293.5177 Y92.1762
G01 X293.3285 Y92.0359
G01 X293.1266 Y91.9149
G01 X292.9137 Y91.8142
G01 X292.6921 Y91.7349
G01 X292.4637 Y91.6777
G01 X292.2308 Y91.6431
G01 X291.9956 Y91.6316
G01 X291.7604 Y91.6431
G01 X291.5275 Y91.6777
G01 X291.2991 Y91.7349
G01 X291.0775 Y91.8142
G01 X290.8646 Y91.9149
G01 X290.6627 Y92.0359
G01 X290.4735 Y92.1762
G01 X290.2991 Y92.3343
G01 X290.1410 Y92.5087
G01 X290.0007 Y92.6979
G01 X289.8797 Y92.8998
G01 X289.7790 Y93.1127
G01 X289.6997 Y93.3343
G01 X289.6425 Y93.5627
G01 X289.6079 Y93.7956
G01 X289.5964 Y94.0308
G01 X289.6079 Y94.2660
G01 X289.6425 Y94.4989
G01 X289.6997 Y94.7273
G01 X289.7790 Y94.9489
G00 Z10.0000
G00 X272.6177 Y95.4231
G01 F60.00
G01 Z-5.0000
G01 F120.00
G01 X272.7480 Y95.6988
G01 X272.9048 Y95.9603
G01 X273.0864 Y96.2052
G01 X273.2912 Y96.4312
G01 X273.5172 Y96.6360
G01 X273.7621 Y96.8176
G01 X274.0236 Y96.9744
G01 X274.2993 Y97.1047
G01 X274.5864 Y97.2075
G01 X274.8822 Y97.2816
G01 X275.1838 Y97.3263
G01 X275.4884 Y97.3413
G01 X275.7930 Y97.3263
G01 X276.0946 Y97.2816
G01 X276.3904 Y97.2075
G01 X276.6775 Y97.1047
G01 X276.9532 Y96.9744
G01 X277.2147 Y96.8176
G01 X277.4596 Y96.6360
G01 X277.6856 Y96.4312
G01 X277.8904 Y96.2052
G01 X278.0720 Y95.9603
G01 X278.2288 Y95.6988
G01 X278.3591 Y95.4231
G01 X278.4619 Y95.1360
G01 X278.5360 Y94.8402
G01 X278.5807 Y94.5386
G01 X278.5957 Y94.2340
G01 X278.5807 Y93.9294
G01 X278.5360 Y93.6278
G01 X278.4619 Y93.3320
G01 X278.3591 Y93.0449
G01 X278.2288 Y92.7692
G01 X278.0720 Y92.5077
G01 X277.8904 Y92.2628
G01 X277.6856 Y92.0368
G01 X277.4596 Y91.8320
G01 X277.2147 Y91.6504
G01 X276.9532 Y91.4936
G01 X276.6775 Y91.3633
G01 X276.3904 Y91.2605
G01 X276.0946 Y91.1864
G01 X275.7930 Y91.1417
G01 X275.4884 Y91.1267
G01 X275.1838 Y91.1417
G01 X274.8822 Y91.1864
G01 X274.5864 Y91.2605
G01 X274.2993 Y91.3633
G01 X274.0236 Y91.4936
G01 X273.7621 Y91.6504
G01 X273.5172 Y91.8320
G01 X273.2912 Y92.0368
G01 X273.0864 Y92.2628
G01 X272.9048 Y92.5077
G01 X272.7480 Y92.7692
G01 X272.6177 Y93.0449
G01 X272.5149 Y93.3320
G01 X272.4408 Y93.6278
G01 X272.3961 Y93.9294
G01 X272.3811 Y94.2340
G01 X272.3961 Y94.5386
G01 X272.4408 Y94.8402
G01 X272.5149 Y95.1360
G01 X272.6177 Y95.4231
G00 Z10.0000
G00 X255.7207 Y94.5386
G01 F60.00
G01 Z-5.0000
G01 F120.00
G01 X255.7357 Y94.2340
G01 X255.7207 Y93.9294
G01 X255.6760 Y93.6278
G01 X255.6019 Y93.3320
G01 X255.4991 Y93.0449
G01 X255.3688 Y92.7692
G01 X255.2120 Y92.5077
G01 X255.0304 Y92.2628
G01 X254.8256 Y92.0368
G01 X254.5996 Y91.8320
G01 X254.3547 Y91.6504
G01 X254.0932 Y91.4936
G01 X253.8175 Y91.3633
G01 X253.5304 Y91.2605
G01 X253.2346 Y91.1864
G01 X252.9330 Y91.1417
G01 X252.6284 Y91.1267
G01 X252.3238 Y91.1417
G01 X252.0222 Y91.1864
G01 X251.7264 Y91.2605
G01 X251.4393 Y91.3633
G01 X251.1636 Y91.4936
G01 X250.9021 Y91.6504
G01 X250.6572 Y91.8320
G01 X250.4312 Y92.0368
G01 X250.2264 Y92.2628
G01 X250.0448 Y92.5077
G01 X249.8880 Y92.7692
G01 X249.7577 Y93.0449
G01 X249.6549 Y93.3320
G01 X249.5808 Y93.6278
G01 X249.5361 Y93.9294
G01 X249.5211 Y94.2340
G01 X249.5361 Y94.5386
G01 X249.5808 Y94.8402
G01 X249.6549 Y95.1360
G01 X249.7577 Y95.4231
G01 X249.8880 Y95.6988
G01 X250.0448 Y95.9603
G01 X250.2264 Y96.2052
G01 X250.4312 Y96.4312
G01 X250.6572 Y96.6360
G01 X250.9021 Y96.8176
G01 X251.1636 Y96.9744
G01 X251.4393 Y97.1047
G01 X251.7264 Y97.2075
G01 X252.0222 Y97.2816
G01 X252.3238 Y97.3263
G01 X252.6284 Y97.3413
G01 X252.9330 Y97.3263
G01 X253.2346 Y97.2816
G01 X253.5304 Y97.2075
G01 X253.8175 Y97.1047
G01 X254.0932 Y96.9744
G01 X254.3547 Y96.8176
G01 X254.5996 Y96.6360
G01 X254.8256 Y96.4312
G01 X255.0304 Y96.2052
G01 X255.2120 Y95.9603
G01 X255.3688 Y95.6988
G01 X255.4991 Y95.4231
G01 X255.6019 Y95.1360
G01 X255.6760 Y94.8402
G01 X255.7207 Y94.5386
G00 Z10.0000
G00 X259.9177 Y118.2831
G01 F60.00
G01 Z-5.0000
G01 F120.00
G01 X260.0480 Y118.5588
G01 X260.2048 Y118.8203
G01 X260.3864 Y119.0652
G01 X260.5912 Y119.2912
G01 X260.8172 Y119.4960
G01 X261.0621 Y119.6776
G01 X261.3236 Y119.8344
G01 X261.5993 Y119.9647
G01 X261.8864 Y120.0675
G01 X262.1822 Y120.1416
G01 X262.4838 Y120.1863
G01 X262.7884 Y120.2013
G01 X263.0930 Y120.1863
G01 X263.3946 Y120.1416
G01 X263.6904 Y120.0675
G01 X263.9775 Y119.9647
G01 X264.2532 Y119.8344
G01 X264.5147 Y119.6776
G01 X264.7596 Y119.4960
G01 X264.9856 Y119.2912
G01 X265.1904 Y119.0652
G01 X265.3720 Y118.8203
G01 X265.5288 Y118.5588
G01 X265.6591 Y118.2831
G01 X265.7619 Y117.9960
G01 X265.8360 Y117.7002
G01 X265.8807 Y117.3986
G01 X265.8957 Y117.0940
G01 X265.8807 Y116.7894
G01 X265.8360 Y116.4878
G01 X265.7619 Y116.1920
G01 X265.6591 Y115.9049
G01 X265.5288 Y115.6292
G01 X265.3720 Y115.3677
G01 X265.1904 Y115.1228
G01 X264.9856 Y114.8968
G01 X264.7596 Y114.6920
G01 X264.5147 Y114.5104
G01 X264.2532 Y114.3536
G01 X263.9775 Y114.2233
G01 X263.6904 Y114.1205
G01 X263.3946 Y114.0464
G01 X263.0930 Y114.0017
G01 X262.7884 Y113.9867
G01 X262.4838 Y114.0017
G01 X262.1822 Y114.0464
G01 X261.8864 Y114.1205
G01 X261.5993 Y114.2233
G01 X261.3236 Y114.3536
G01 X261.0621 Y114.5104
G01 X260.8172 Y114.6920
G01 X260.5912 Y114.8968
G01 X260.3864 Y115.1228
G01 X260.2048 Y115.3677
G01 X260.0480 Y115.6292
G01 X259.9177 Y115.9049
G01 X259.8149 Y116.1920
G01 X259.7408 Y116.4878
G01 X259.6961 Y116.7894
G01 X259.6811 Y117.0940
G01 X259.6961 Y117.3986
G01 X259.7408 Y117.7002
G01 X259.8149 Y117.9960
G01 X259.9177 Y118.2831
G00 Z10.0000
G00 X282.7777 Y118.2831
G01 F60.00
G01 Z-5.0000
G01 F120.00
G01 X282.9080 Y118.5588
G01 X283.0648 Y118.8203
G01 X283.2464 Y119.0652
G01 X283.4512 Y119.2912
G01 X283.6772 Y119.4960
G01 X283.9221 Y119.6776
G01 X284.1836 Y119.8344
G01 X284.4593 Y119.9647
G01 X284.7464 Y120.0675
G01 X285.0422 Y120.1416
G01 X285.3438 Y120.1863
G01 X285.6484 Y120.2013
G01 X285.9530 Y120.1863
G01 X286.2546 Y120.1416
G01 X286.5504 Y120.0675
G01 X286.8375 Y119.9647
G01 X287.1132 Y119.8344
G01 X287.3747 Y119.6776
G01 X287.6196 Y119.4960
G01 X287.8456 Y119.2912
G01 X288.0504 Y119.0652
G01 X288.2320 Y118.8203
G01 X288.3888 Y118.5588
G01 X288.5191 Y118.2831
G01 X288.6219 Y117.9960
G01 X288.6960 Y117.7002
G01 X288.7407 Y117.3986
G01 X288.7557 Y117.0940
G01 X288.7407 Y116.7894
G01 X288.6960 Y116.4878
G01 X288.6219 Y116.1920
G01 X288.5191 Y115.9049
G01 X288.3888 Y115.6292
G01 X288.2320 Y115.3677
G01 X288.0504 Y115.1228
G01 X287.8456 Y114.8968
G01 X287.6196 Y114.6920
G01 X287.3747 Y114.5104
G01 X287.1132 Y114.3536
G01 X286.8375 Y114.2233
G01 X286.5504 Y114.1205
G01 X286.2546 Y114.0464
G01 X285.9530 Y114.0017
G01 X285.6484 Y113.9867
G01 X285.3438 Y114.0017
G01 X285.0422 Y114.0464
G01 X284.7464 Y114.1205
G01 X284.4593 Y114.2233
G01 X284.1836 Y114.3536
G01 X283.9221 Y114.5104
G01 X283.6772 Y114.6920
G01 X283.4512 Y114.8968
G01 X283.2464 Y115.1228
G01 X283.0648 Y115.3677
G01 X282.9080 Y115.6292
G01 X282.7777 Y115.9049
G01 X282.6749 Y116.1920
G01 X282.6008 Y116.4878
G01 X282.5561 Y116.7894
G01 X282.5411 Y117.0940
G01 X282.5561 Y117.3986
G01 X282.6008 Y117.7002
G01 X282.6749 Y117.9960
G01 X282.7777 Y118.2831
G00 Z10.0000
G00 X247.6636 Y223.9403
G01 F60.00
G01 Z-5.0000
G01 F120.00
G01 X247.6967 Y223.2660
G01 X247.6636 Y222.5917
G01 X247.5645 Y221.9239
G01 X247.4005 Y221.2690
G01 X247.1730 Y220.6334
G01 X246.8844 Y220.0231
G01 X246.5373 Y219.4441
G01 X246.1352 Y218.9018
G01 X245.6818 Y218.4016
G01 X245.1816 Y217.9482
G01 X244.6393 Y217.5461
G01 X244.0603 Y217.1990
G01 X243.4500 Y216.9104
G01 X242.8144 Y216.6829
G01 X242.1595 Y216.5189
G01 X241.4917 Y216.4198
G01 X240.8174 Y216.3867
G01 X240.1431 Y216.4198
G01 X239.4753 Y216.5189
G01 X238.8204 Y216.6829
G01 X238.1848 Y216.9104
G01 X237.5745 Y217.1990
G01 X236.9955 Y217.5461
G01 X236.4532 Y217.9482
G01 X235.9530 Y218.4016
G01 X235.4996 Y218.9018
G01 X235.0975 Y219.4441
G01 X234.7504 Y220.0231
G01 X234.4618 Y220.6334
G01 X234.2343 Y221.2690
G01 X234.0703 Y221.9239
G01 X233.9712 Y222.5917
G01 X233.9381 Y223.2660
G01 X233.9712 Y223.9403
G01 X234.0703 Y224.6081
G01 X234.2343 Y225.2630
G01 X234.4618 Y225.8986
G01 X234.7504 Y226.5089
G01 X235.0975 Y227.0879
G01 X235.4996 Y227.6302
G01 X235.9530 Y228.1304
G01 X236.4532 Y228.5838
G01 X236.9955 Y228.9859
G01 X237.5745 Y229.3330
G01 X238.1848 Y229.6216
G01 X238.8204 Y229.8491
G01 X239.4753 Y230.0131
G01 X240.1431 Y230.1122
G01 X240.8174 Y230.1453
G01 X241.4917 Y230.1122
G01 X242.1595 Y230.0131
G01 X242.8144 Y229.8491
G01 X243.4500 Y229.6216
G01 X244.0603 Y229.3330
G01 X244.6393 Y228.9859
G01 X245.1816 Y228.5838
G01 X245.6818 Y228.1304
G01 X246.1352 Y227.6302
G01 X246.5373 Y227.0879
G01 X246.8844 Y226.5089
G01 X247.1730 Y225.8986
G01 X247.4005 Y225.2630
G01 X247.5645 Y224.6081
G01 X247.6636 Y223.9403
G00 Z10.0000
G00 X247.6506 Y242.9397
G01 F60.00
G01 Z-5.0000
G01 F120.00
G01 X247.6838 Y242.2654
G01 X247.6506 Y241.5911
G01 X247.5516 Y240.9233
G01 X247.3876 Y240.2685
G01 X247.1601 Y239.6328
G01 X246.8715 Y239.0225
G01 X246.5244 Y238.4435
G01 X246.1222 Y237.9012
G01 X245.6689 Y237.4010
G01 X245.1687 Y236.9477
G01 X244.6264 Y236.5455
G01 X244.0474 Y236.1984
G01 X243.4371 Y235.9098
G01 X242.8014 Y235.6823
G01 X242.1466 Y235.5183
G01 X241.4788 Y235.4193
G01 X240.8045 Y235.3861
G01 X240.1302 Y235.4193
G01 X239.4624 Y235.5183
G01 X238.8075 Y235.6823
G01 X238.1719 Y235.9098
G01 X237.5616 Y236.1984
G01 X236.9825 Y236.5455
G01 X236.4403 Y236.9477
G01 X235.9401 Y237.4010
G01 X235.4867 Y237.9012
G01 X235.0845 Y238.4435
G01 X234.7375 Y239.0225
G01 X234.4488 Y239.6328
G01 X234.2214 Y240.2685
G01 X234.0574 Y240.9233
G01 X233.9583 Y241.5911
G01 X233.9252 Y242.2654
G01 X233.9583 Y242.9397
G01 X234.0574 Y243.6075
G01 X234.2214 Y244.2624
G01 X234.4488 Y244.8980
G01 X234.7375 Y245.5083
G01 X235.0845 Y246.0874
G01 X235.4867 Y246.6296
G01 X235.9401 Y247.1298
G01 X236.4403 Y247.5832
G01 X236.9825 Y247.9854
G01 X237.5616 Y248.3324
G01 X238.1719 Y248.6211
G01 X238.8075 Y248.8485
G01 X239.4624 Y249.0125
G01 X240.1302 Y249.1116
G01 X240.8045 Y249.1447
G01 X241.4788 Y249.1116
G01 X242.1466 Y249.0125
G01 X242.8014 Y248.8485
G01 X243.4371 Y248.6211
G01 X244.0474 Y248.3324
G01 X244.6264 Y247.9854
G01 X245.1687 Y247.5832
G01 X245.6689 Y247.1298
G01 X246.1222 Y246.6296
G01 X246.5244 Y246.0874
G01 X246.8715 Y245.5083
G01 X247.1601 Y244.8980
G01 X247.3876 Y244.2624
G01 X247.5516 Y243.6075
G01 X247.6506 Y242.9397
G00 Z10.0000
G00 X234.2214 Y263.3630
G01 F60.00
G01 Z-5.0000
G01 F120.00
G01 X234.4488 Y263.9986
G01 X234.7375 Y264.6089
G01 X235.0845 Y265.1879
G01 X235.4867 Y265.7302
G01 X235.9401 Y266.2304
G01 X236.4403 Y266.6838
G01 X236.9825 Y267.0859
G01 X237.5616 Y267.4330
G01 X238.1719 Y267.7216
G01 X238.8075 Y267.9491
G01 X239.4624 Y268.1131
G01 X240.1302 Y268.2122
G01 X240.8045 Y268.2453
G01 X241.4788 Y268.2122
G01 X242.1466 Y268.1131
G01 X242.8014 Y267.9491
G01 X243.4371 Y267.7216
G01 X244.0474 Y267.4330
G01 X244.6264 Y267.0859
G01 X245.1687 Y266.6838
G01 X245.6689 Y266.2304
G01 X246.1222 Y265.7302
G01 X246.5244 Y265.1879
G01 X246.8715 Y264.6089
G01 X247.1601 Y263.9986
G01 X247.3876 Y263.3630
G01 X247.5516 Y262.7081
G01 X247.6506 Y262.0403
G01 X247.6838 Y261.3660
G01 X247.6506 Y260.6917
G01 X247.5516 Y260.0239
G01 X247.3876 Y259.3690
G01 X247.1601 Y258.7334
G01 X246.8715 Y258.1231
G01 X246.5244 Y257.5441
G01 X246.1222 Y257.0018
G01 X245.6689 Y256.5016
G01 X245.1687 Y256.0482
G01 X244.6264 Y255.6461
G01 X244.0474 Y255.2990
G01 X243.4371 Y255.0104
G01 X242.8014 Y254.7829
G01 X242.1466 Y254.6189
G01 X241.4788 Y254.5198
G01 X240.8045 Y254.4867
G01 X240.1302 Y254.5198
G01 X239.4624 Y254.6189
G01 X238.8075 Y254.7829
G01 X238.1719 Y255.0104
G01 X237.5616 Y255.2990
G01 X236.9825 Y255.6461
G01 X236.4403 Y256.0482
G01 X235.9401 Y256.5016
G01 X235.4867 Y257.0018
G01 X235.0845 Y257.5441
G01 X234.7375 Y258.1231
G01 X234.4488 Y258.7334
G01 X234.2214 Y259.3690
G01 X234.0574 Y260.0239
G01 X233.9583 Y260.6917
G01 X233.9252 Y261.3660
G01 X233.9583 Y262.0403
G01 X234.0574 Y262.7081
G01 X234.2214 Y263.3630
G00 Z10.0000
G00 X235.7335 Y289.5235
G01 F60.00
G01 Z-5.0000
G01 F120.00
G01 X235.8128 Y289.7451
G01 X235.9135 Y289.9580
G01 X236.0345 Y290.1599
G01 X236.1748 Y290.3491
G01 X236.3329 Y290.5235
G01 X236.5073 Y290.6816
G01 X236.6965 Y290.8219
G01 X236.8984 Y290.9429
G01 X237.1113 Y291.0436
G01 X237.3329 Y291.1229
G01 X237.5613 Y291.1801
G01 X237.7942 Y291.2147
G01 X238.0294 Y291.2262
G01 X238.2646 Y291.2147
G01 X238.4975 Y291.1801
G01 X238.7259 Y291.1229
G01 X238.9475 Y291.0436
G01 X239.1604 Y290.9429
G01 X239.3623 Y290.8219
G01 X239.5515 Y290.6816
G01 X239.7259 Y290.5235
G01 X239.8840 Y290.3491
G01 X240.0243 Y290.1599
G01 X240.1453 Y289.9580
G01 X240.2460 Y289.7451
G01 X240.3253 Y289.5235
G01 X240.3825 Y289.2951
G01 X240.4171 Y289.0622
G01 X240.4286 Y288.8270
G01 X240.4171 Y288.5918
G01 X240.3825 Y288.3589
G01 X240.3253 Y288.1305
G01 X240.2460 Y287.9089
G01 X240.1453 Y287.6960
G01 X240.0243 Y287.4941
G01 X239.8840 Y287.3049
G01 X239.7259 Y287.1305
G01 X239.5515 Y286.9724
G01 X239.3623 Y286.8321
G01 X239.1604 Y286.7111
G01 X238.9475 Y286.6104
G01 X238.7259 Y286.5311
G01 X238.4975 Y286.4739
G01 X238.2646 Y286.4393
G01 X238.0294 Y286.4278
G01 X237.7942 Y286.4393
G01 X237.5613 Y286.4739
G01 X237.3329 Y286.5311
G01 X237.1113 Y286.6104
G01 X236.8984 Y286.7111
G01 X236.6965 Y286.8321
G01 X236.5073 Y286.9724
G01 X236.3329 Y287.1305
G01 X236.1748 Y287.3049
G01 X236.0345 Y287.4941
G01 X235.9135 Y287.6960
G01 X235.8128 Y287.9089
G01 X235.7335 Y288.1305
G01 X235.6763 Y288.3589
G01 X235.6417 Y288.5918
G01 X235.6302 Y288.8270
G01 X235.6417 Y289.0622
G01 X235.6763 Y289.2951
G01 X235.7335 Y289.5235
G00 Z10.0000
G00 X235.7335 Y302.5235
G01 F60.00
G01 Z-5.0000
G01 F120.00
G01 X235.8128 Y302.7451
G01 X235.9135 Y302.9580
G01 X236.0345 Y303.1599
G01 X236.1748 Y303.3491
G01 X236.3329 Y303.5235
G01 X236.5073 Y303.6816
G01 X236.6965 Y303.8219
G01 X236.8984 Y303.9429
G01 X237.1113 Y304.0436
G01 X237.3329 Y304.1229
G01 X237.5613 Y304.1801
G01 X237.7942 Y304.2147
G01 X238.0294 Y304.2262
G01 X238.2646 Y304.2147
G01 X238.4975 Y304.1801
G01 X238.7259 Y304.1229
G01 X238.9475 Y304.0436
G01 X239.1604 Y303.9429
G01 X239.3623 Y303.8219
G01 X239.5515 Y303.6816
G01 X239.7259 Y303.5235
G01 X239.8840 Y303.3491
G01 X240.0243 Y303.1599
G01 X240.1453 Y302.9580
G01 X240.2460 Y302.7451
G01 X240.3253 Y302.5235
G01 X240.3825 Y302.2951
G01 X240.4171 Y302.0622
G01 X240.4286 Y301.8270
G01 X240.4171 Y301.5918
G01 X240.3825 Y301.3589
G01 X240.3253 Y301.1305
G01 X240.2460 Y300.9089
G01 X240.1453 Y300.6960
G01 X240.0243 Y300.4941
G01 X239.8840 Y300.3049
G01 X239.7259 Y300.1305
G01 X239.5515 Y299.9724
G01 X239.3623 Y299.8321
G01 X239.1604 Y299.7111
G01 X238.9475 Y299.6104
G01 X238.7259 Y299.5311
G01 X238.4975 Y299.4739
G01 X238.2646 Y299.4393
G01 X238.0294 Y299.4278
G01 X237.7942 Y299.4393
G01 X237.5613 Y299.4739
G01 X237.3329 Y299.5311
G01 X237.1113 Y299.6104
G01 X236.8984 Y299.7111
G01 X236.6965 Y299.8321
G01 X236.5073 Y299.9724
G01 X236.3329 Y300.1305
G01 X236.1748 Y300.3049
G01 X236.0345 Y300.4941
G01 X235.9135 Y300.6960
G01 X235.8128 Y300.9089
G01 X235.7335 Y301.1305
G01 X235.6763 Y301.3589
G01 X235.6417 Y301.5918
G01 X235.6302 Y301.8270
G01 X235.6417 Y302.0622
G01 X235.6763 Y302.2951
G01 X235.7335 Y302.5235
G00 Z10.0000
G00 X235.7335 Y315.5235
G01 F60.00
G01 Z-5.0000
G01 F120.00
G01 X235.8128 Y315.7451
G01 X235.9135 Y315.9580
G01 X236.0345 Y316.1599
G01 X236.1748 Y316.3491
G01 X236.3329 Y316.5235
G01 X236.5073 Y316.6816
G01 X236.6965 Y316.8219
G01 X236.8984 Y316.9429
G01 X237.1113 Y317.0436
G01 X237.3329 Y317.1229
G01 X237.5613 Y317.1801
G01 X237.7942 Y317.2147
G01 X238.0294 Y317.2262
G01 X238.2646 Y317.2147
G01 X238.4975 Y317.1801
G01 X238.7259 Y317.1229
G01 X238.9475 Y317.0436
G01 X239.1604 Y316.9429
G01 X239.3623 Y316.8219
G01 X239.5515 Y316.6816
G01 X239.7259 Y316.5235
G01 X239.8840 Y316.3491
G01 X240.0243 Y316.1599
G01 X240.1453 Y315.9580
G01 X240.2460 Y315.7451
G01 X240.3253 Y315.5235
G01 X240.3825 Y315.2951
G01 X240.4171 Y315.0622
G01 X240.4286 Y314.8270
G01 X240.4171 Y314.5918
G01 X240.3825 Y314.3589
G01 X240.3253 Y314.1305
G01 X240.2460 Y313.9089
G01 X240.1453 Y313.6960
G01 X240.0243 Y313.4941
G01 X239.8840 Y313.3049
G01 X239.7259 Y313.1305
G01 X239.5515 Y312.9724
G01 X239.3623 Y312.8321
G01 X239.1604 Y312.7111
G01 X238.9475 Y312.6104
G01 X238.7259 Y312.5311
G01 X238.4975 Y312.4739
G01 X238.2646 Y312.4393
G01 X238.0294 Y312.4278
G01 X237.7942 Y312.4393
G01 X237.5613 Y312.4739
G01 X237.3329 Y312.5311
G01 X237.1113 Y312.6104
G01 X236.8984 Y312.7111
G01 X236.6965 Y312.8321
G01 X236.5073 Y312.9724
G01 X236.3329 Y313.1305
G01 X236.1748 Y313.3049
G01 X236.0345 Y313.4941
G01 X235.9135 Y313.6960
G01 X235.8128 Y313.9089
G01 X235.7335 Y314.1305
G01 X235.6763 Y314.3589
G01 X235.6417 Y314.5918
G01 X235.6302 Y314.8270
G01 X235.6417 Y315.0622
G01 X235.6763 Y315.2951
G01 X235.7335 Y315.5235
G00 Z10.0000
G00 X257.5457 Y299.0833
G01 F60.00
G01 Z-5.0000
G01 F120.00
G01 X257.6569 Y299.3184
G01 X257.7907 Y299.5415
G01 X257.9456 Y299.7504
G01 X258.1203 Y299.9431
G01 X258.3130 Y300.1178
G01 X258.5219 Y300.2727
G01 X258.7450 Y300.4065
G01 X258.9801 Y300.5177
G01 X259.2250 Y300.6053
G01 X259.4773 Y300.6685
G01 X259.7346 Y300.7067
G01 X259.9944 Y300.7194
G01 X260.2542 Y300.7067
G01 X260.5115 Y300.6685
G01 X260.7638 Y300.6053
G01 X261.0087 Y300.5177
G01 X261.2438 Y300.4065
G01 X261.4669 Y300.2727
G01 X261.6758 Y300.1178
G01 X261.8685 Y299.9431
G01 X262.0432 Y299.7504
G01 X262.1981 Y299.5415
G01 X262.3319 Y299.3184
G01 X262.4431 Y299.0833
G01 X262.5307 Y298.8384
G01 X262.5939 Y298.5861
G01 X262.6321 Y298.3288
G01 X262.6448 Y298.0690
G01 X262.6321 Y297.8092
G01 X262.5939 Y297.5519
G01 X262.5307 Y297.2996
G01 X262.4431 Y297.0547
G01 X262.3319 Y296.8196
G01 X262.1981 Y296.5965
G01 X262.0432 Y296.3876
G01 X261.8685 Y296.1949
G01 X261.6758 Y296.0202
G01 X261.4669 Y295.8653
G01 X261.2438 Y295.7315
G01 X261.0087 Y295.6203
G01 X260.7638 Y295.5327
G01 X260.5115 Y295.4695
G01 X260.2542 Y295.4313
G01 X259.9944 Y295.4186
G01 X259.7346 Y295.4313
G01 X259.4773 Y295.4695
G01 X259.2250 Y295.5327
G01 X258.9801 Y295.6203
G01 X258.7450 Y295.7315
G01 X258.5219 Y295.8653
G01 X258.3130 Y296.0202
G01 X258.1203 Y296.1949
G01 X257.9456 Y296.3876
G01 X257.7907 Y296.5965
G01 X257.6569 Y296.8196
G01 X257.5457 Y297.0547
G01 X257.4581 Y297.2996
G01 X257.3949 Y297.5519
G01 X257.3567 Y297.8092
G01 X257.3440 Y298.0690
G01 X257.3567 Y298.3288
G01 X257.3949 Y298.5861
G01 X257.4581 Y298.8384
G01 X257.5457 Y299.0833
G00 Z10.0000
G00 X264.5307 Y330.1983
G01 F60.00
G01 Z-5.0000
G01 F120.00
G01 X264.6419 Y330.4334
G01 X264.7757 Y330.6565
G01 X264.9306 Y330.8654
G01 X265.1053 Y331.0581
G01 X265.2980 Y331.2328
G01 X265.5069 Y331.3877
G01 X265.7300 Y331.5215
G01 X265.9651 Y331.6327
G01 X266.2100 Y331.7203
G01 X266.4623 Y331.7835
G01 X266.7196 Y331.8217
G01 X266.9794 Y331.8344
G01 X267.2392 Y331.8217
G01 X267.4965 Y331.7835
G01 X267.7488 Y331.7203
G01 X267.9937 Y331.6327
G01 X268.2288 Y331.5215
G01 X268.4519 Y331.3877
G01 X268.6608 Y331.2328
G01 X268.8535 Y331.0581
G01 X269.0282 Y330.8654
G01 X269.1831 Y330.6565
G01 X269.3169 Y330.4334
G01 X269.4281 Y330.1983
G01 X269.5157 Y329.9534
G01 X269.5789 Y329.7011
G01 X269.6171 Y329.4438
G01 X269.6298 Y329.1840
G01 X269.6171 Y328.9242
G01 X269.5789 Y328.6669
G01 X269.5157 Y328.4146
G01 X269.4281 Y328.1697
G01 X269.3169 Y327.9346
G01 X269.1831 Y327.7115
G01 X269.0282 Y327.5026
G01 X268.8535 Y327.3099
G01 X268.6608 Y327.1352
G01 X268.4519 Y326.9803
G01 X268.2288 Y326.8465
G01 X267.9937 Y326.7353
G01 X267.7488 Y326.6477
G01 X267.4965 Y326.5845
G01 X267.2392 Y326.5463
G01 X266.9794 Y326.5336
G01 X266.7196 Y326.5463
G01 X266.4623 Y326.5845
G01 X266.2100 Y326.6477
G01 X265.9651 Y326.7353
G01 X265.7300 Y326.8465
G01 X265.5069 Y326.9803
G01 X265.2980 Y327.1352
G01 X265.1053 Y327.3099
G01 X264.9306 Y327.5026
G01 X264.7757 Y327.7115
G01 X264.6419 Y327.9346
G01 X264.5307 Y328.1697
G01 X264.4431 Y328.4146
G01 X264.3799 Y328.6669
G01 X264.3417 Y328.9242
G01 X264.3290 Y329.1840
G01 X264.3417 Y329.4438
G01 X264.3799 Y329.7011
G01 X264.4431 Y329.9534
G01 X264.5307 Y330.1983
G00 Z10.0000
G00 X269.6107 Y361.4149
G01 F60.00
G01 Z-5.0000
G01 F120.00
G01 X269.7219 Y361.6500
G01 X269.8557 Y361.8731
G01 X270.0106 Y362.0820
G01 X270.1853 Y362.2747
G01 X270.3780 Y362.4494
G01 X270.5869 Y362.6043
G01 X270.8100 Y362.7381
G01 X271.0451 Y362.8493
G01 X271.2900 Y362.9369
G01 X271.5423 Y363.0001
G01 X271.7996 Y363.0383
G01 X272.0594 Y363.0510
G01 X272.3192 Y363.0383
G01 X272.5765 Y363.0001
G01 X272.8288 Y362.9369
G01 X273.0737 Y362.8493
G01 X273.3088 Y362.7381
G01 X273.5319 Y362.6043
G01 X273.7408 Y362.4494
G01 X273.9335 Y362.2747
G01 X274.1082 Y362.0820
G01 X274.2631 Y361.8731
G01 X274.3969 Y361.6500
G01 X274.5081 Y361.4149
G01 X274.5957 Y361.1700
G01 X274.6589 Y360.9177
G01 X274.6971 Y360.6604
G01 X274.7098 Y360.4006
G01 X274.6971 Y360.1408
G01 X274.6589 Y359.8835
G01 X274.5957 Y359.6312
G01 X274.5081 Y359.3863
G01 X274.3969 Y359.1512
G01 X274.2631 Y358.9281
G01 X274.1082 Y358.7192
G01 X273.9335 Y358.5265
G01 X273.7408 Y358.3518
G01 X273.5319 Y358.1969
G01 X273.3088 Y358.0631
G01 X273.0737 Y357.9519
G01 X272.8288 Y357.8643
G01 X272.5765 Y357.8011
G01 X272.3192 Y357.7629
G01 X272.0594 Y357.7502
G01 X271.7996 Y357.7629
G01 X271.5423 Y357.8011
G01 X271.2900 Y357.8643
G01 X271.0451 Y357.9519
G01 X270.8100 Y358.0631
G01 X270.5869 Y358.1969
G01 X270.3780 Y358.3518
G01 X270.1853 Y358.5265
G01 X270.0106 Y358.7192
G01 X269.8557 Y358.9281
G01 X269.7219 Y359.1512
G01 X269.6107 Y359.3863
G01 X269.5231 Y359.6312
G01 X269.4599 Y359.8835
G01 X269.4217 Y360.1408
G01 X269.4090 Y360.4006
G01 X269.4217 Y360.6604
G01 X269.4599 Y360.9177
G01 X269.5231 Y361.1700
G01 X269.6107 Y361.4149
G00 Z10.0000
G00 X113.1020 Y353.2850
G01 F60.00
G01 Z-5.0000
G01 F120.00
G01 X113.7123 Y353.5736
G01 X114.3480 Y353.8011
G01 X115.0028 Y353.9651
G01 X115.6706 Y354.0642
G01 X116.3449 Y354.0973
G01 X117.0192 Y354.0642
G01 X117.6870 Y353.9651
G01 X118.3419 Y353.8011
G01 X118.9775 Y353.5736
G01 X119.5878 Y353.2850
G01 X120.1669 Y352.9379
G01 X120.7091 Y352.5358
G01 X121.2093 Y352.0824
G01 X121.6627 Y351.5822
G01 X122.0649 Y351.0399
G01 X122.4119 Y350.4609
G01 X122.7006 Y349.8506
G01 X122.9280 Y349.2150
G01 X123.0920 Y348.5601
G01 X123.1911 Y347.8923
G01 X123.2242 Y347.2180
G01 X123.1911 Y346.5437
G01 X123.0920 Y345.8759
G01 X122.9280 Y345.2210
G01 X122.7006 Y344.5854
G01 X122.4119 Y343.9751
G01 X122.0649 Y343.3961
G01 X121.6627 Y342.8538
G01 X121.2093 Y342.3536
G01 X120.7091 Y341.9002
G01 X120.1669 Y341.4981
G01 X119.5878 Y341.1510
G01 X118.9775 Y340.8624
G01 X118.3419 Y340.6349
G01 X117.6870 Y340.4709
G01 X117.0192 Y340.3718
G01 X116.3449 Y340.3387
G01 X115.6706 Y340.3718
G01 X115.0028 Y340.4709
G01 X114.3480 Y340.6349
G01 X113.7123 Y340.8624
G01 X113.1020 Y341.1510
G01 X112.5230 Y341.4981
G01 X111.9807 Y341.9002
G01 X111.4805 Y342.3536
G01 X111.0272 Y342.8538
G01 X110.6250 Y343.3961
G01 X110.2779 Y343.9751
G01 X109.9893 Y344.5854
G01 X109.7618 Y345.2210
G01 X109.5978 Y345.8759
G01 X109.4988 Y346.5437
G01 X109.4656 Y347.2180
G01 X109.4988 Y347.8923
G01 X109.5978 Y348.5601
G01 X109.7618 Y349.2150
G01 X109.9893 Y349.8506
G01 X110.2779 Y350.4609
G01 X110.6250 Y351.0399
G01 X111.0272 Y351.5822
G01 X111.4805 Y352.0824
G01 X111.9807 Y352.5358
G01 X112.5230 Y352.9379
G01 X113.1020 Y353.2850
G00 Z10.0000
G00 X91.5108 Y355.1118
G01 F60.00
G01 Z-5.0000
G01 F120.00
G01 X91.7938 Y355.2457
G01 X92.0886 Y355.3512
G01 X92.3924 Y355.4272
G01 X92.7021 Y355.4732
G01 X93.0148 Y355.4886
G01 X93.3275 Y355.4732
G01 X93.6372 Y355.4272
G01 X93.9410 Y355.3512
G01 X94.2358 Y355.2457
G01 X94.5188 Y355.1118
G01 X94.7874 Y354.9508
G01 X95.0389 Y354.7643
G01 X95.2709 Y354.5541
G01 X95.4811 Y354.3221
G01 X95.6676 Y354.0706
G01 X95.8286 Y353.8020
G01 X95.9625 Y353.5190
G01 X96.0680 Y353.2242
G01 X96.1440 Y352.9204
G01 X96.1900 Y352.6107
G01 X96.2054 Y352.2980
G01 X96.1900 Y351.9853
G01 X96.1440 Y351.6756
G01 X96.0680 Y351.3718
G01 X95.9625 Y351.0770
G01 X95.8286 Y350.7940
G01 X95.6676 Y350.5254
G01 X95.4811 Y350.2739
G01 X95.2709 Y350.0419
G01 X95.0389 Y349.8317
G01 X94.7874 Y349.6452
G01 X94.5188 Y349.4842
G01 X94.2358 Y349.3503
G01 X93.9410 Y349.2448
G01 X93.6372 Y349.1688
G01 X93.3275 Y349.1228
G01 X93.0148 Y349.1074
G01 X92.7021 Y349.1228
G01 X92.3924 Y349.1688
G01 X92.0886 Y349.2448
G01 X91.7938 Y349.3503
G01 X91.5108 Y349.4842
G01 X91.2422 Y349.6452
G01 X90.9907 Y349.8317
G01 X90.7587 Y350.0419
G01 X90.5485 Y350.2739
G01 X90.3620 Y350.5254
G01 X90.2010 Y350.7940
G01 X90.0671 Y351.0770
G01 X89.9616 Y351.3718
G01 X89.8856 Y351.6756
G01 X89.8396 Y351.9853
G01 X89.8242 Y352.2980
G01 X89.8396 Y352.6107
G01 X89.8856 Y352.9204
G01 X89.9616 Y353.2242
G01 X90.0671 Y353.5190
G01 X90.2010 Y353.8020
G01 X90.3620 Y354.0706
G01 X90.5485 Y354.3221
G01 X90.7587 Y354.5541
G01 X90.9907 Y354.7643
G01 X91.2422 Y354.9508
G01 X91.5108 Y355.1118
G00 Z10.0000
G00 X113.8884 Y331.0501
G01 F60.00
G01 Z-5.0000
G01 F120.00
G01 X114.3674 Y331.2766
G01 X114.8663 Y331.4551
G01 X115.3803 Y331.5839
G01 X115.9044 Y331.6616
G01 X116.4336 Y331.6876
G01 X116.9628 Y331.6616
G01 X117.4869 Y331.5839
G01 X118.0009 Y331.4551
G01 X118.4998 Y331.2766
G01 X118.9788 Y331.0501
G01 X119.4332 Y330.7777
G01 X119.8588 Y330.4621
G01 X120.2514 Y330.1062
G01 X120.6073 Y329.7136
G01 X120.9229 Y329.2880
G01 X121.1953 Y328.8336
G01 X121.4218 Y328.3546
G01 X121.6003 Y327.8557
G01 X121.7291 Y327.3417
G01 X121.8068 Y326.8176
G01 X121.8328 Y326.2884
G01 X121.8068 Y325.7592
G01 X121.7291 Y325.2351
G01 X121.6003 Y324.7211
G01 X121.4218 Y324.2222
G01 X121.1953 Y323.7432
G01 X120.9229 Y323.2888
G01 X120.6073 Y322.8632
G01 X120.2514 Y322.4706
G01 X119.8588 Y322.1147
G01 X119.4332 Y321.7991
G01 X118.9788 Y321.5267
G01 X118.4998 Y321.3002
G01 X118.0009 Y321.1217
G01 X117.4869 Y320.9929
G01 X116.9628 Y320.9152
G01 X116.4336 Y320.8892
G01 X115.9044 Y320.9152
G01 X115.3803 Y320.9929
G01 X114.8663 Y321.1217
G01 X114.3674 Y321.3002
G01 X113.8884 Y321.5267
G01 X113.4340 Y321.7991
G01 X113.0084 Y322.1147
G01 X112.6158 Y322.4706
G01 X112.2599 Y322.8632
G01 X111.9443 Y323.2888
G01 X111.6719 Y323.7432
G01 X111.4454 Y324.2222
G01 X111.2669 Y324.7211
G01 X111.1381 Y325.2351
G01 X111.0604 Y325.7592
G01 X111.0344 Y326.2884
G01 X111.0604 Y326.8176
G01 X111.1381 Y327.3417
G01 X111.2669 Y327.8557
G01 X111.4454 Y328.3546
G01 X111.6719 Y328.8336
G01 X111.9443 Y329.2880
G01 X112.2599 Y329.7136
G01 X112.6158 Y330.1062
G01 X113.0084 Y330.4621
G01 X113.4340 Y330.7777
G01 X113.8884 Y331.0501
G00 Z10.0000
G00 X69.4193 Y322.8962
G01 F60.00
G01 Z-5.0000
G01 F120.00
G01 X69.4216 Y322.8867
G01 X69.4359 Y322.8397
G01 X69.4392 Y322.8305
G01 X69.4580 Y322.7851
G01 X69.4622 Y322.7763
G01 X69.4853 Y322.7330
G01 X69.4903 Y322.7246
G01 X69.5176 Y322.6838
G01 X69.5235 Y322.6759
G01 X69.5546 Y322.6379
G01 X69.5612 Y322.6307
G01 X69.5959 Y322.5960
G01 X69.6031 Y322.5894
G01 X69.6411 Y322.5583
G01 X69.6490 Y322.5524
G01 X69.6898 Y322.5251
G01 X69.6982 Y322.5201
G01 X69.7415 Y322.4970
G01 X69.7503 Y322.4928
G01 X69.7957 Y322.4740
G01 X69.8049 Y322.4707
G01 X69.8519 Y322.4564
G01 X69.8614 Y322.4541
G01 X69.9095 Y322.4445
G01 X69.9192 Y322.4430
G01 X69.9681 Y322.4382
G01 X70.0024 Y322.4372
G01 X89.9922 Y322.4372
G01 X90.0265 Y322.4382
G01 X90.0754 Y322.4430
G01 X90.0851 Y322.4445
G01 X90.1332 Y322.4541
G01 X90.1427 Y322.4564
G01 X90.1897 Y322.4707
G01 X90.1989 Y322.4740
G01 X90.2443 Y322.4928
G01 X90.2531 Y322.4970
G01 X90.2964 Y322.5201
G01 X90.3048 Y322.5251
G01 X90.3456 Y322.5524
G01 X90.3535 Y322.5583
G01 X90.3915 Y322.5894
G01 X90.3987 Y322.5960
G01 X90.4334 Y322.6307
G01 X90.4400 Y322.6379
G01 X90.4711 Y322.6759
G01 X90.4770 Y322.6838
G01 X90.5043 Y322.7246
G01 X90.5093 Y322.7330
G01 X90.5324 Y322.7763
G01 X90.5366 Y322.7851
G01 X90.5554 Y322.8305
G01 X90.5587 Y322.8397
G01 X90.5730 Y322.8867
G01 X90.5753 Y322.8962
G01 X90.5849 Y322.9443
G01 X90.5864 Y322.9540
G01 X90.5912 Y323.0029
G01 X90.5916 Y323.0127
G01 X90.5916 Y323.0617
G01 X90.5912 Y323.0715
G01 X90.5864 Y323.1204
G01 X90.5849 Y323.1301
G01 X90.5753 Y323.1782
G01 X90.5730 Y323.1877
G01 X90.5587 Y323.2347
G01 X90.5554 Y323.2439
G01 X90.5366 Y323.2893
G01 X90.5324 Y323.2981
G01 X90.5093 Y323.3414
G01 X90.5043 Y323.3498
G01 X90.4770 Y323.3906
G01 X90.4711 Y323.3985
G01 X90.4400 Y323.4365
G01 X90.4334 Y323.4437
G01 X90.3987 Y323.4784
G01 X90.3915 Y323.4850
G01 X90.3535 Y323.5161
G01 X90.3456 Y323.5220
G01 X90.3048 Y323.5493
G01 X90.2964 Y323.5543
G01 X90.2531 Y323.5774
G01 X90.2443 Y323.5816
G01 X90.1989 Y323.6004
G01 X90.1897 Y323.6037
G01 X90.1427 Y323.6180
G01 X90.1332 Y323.6203
G01 X90.0851 Y323.6299
G01 X90.0754 Y323.6314
G01 X90.0265 Y323.6362
G01 X90.0167 Y323.6366
G01 X89.9922 Y323.6372
G01 X70.0024 Y323.6372
G01 X69.9681 Y323.6362
G01 X69.9192 Y323.6314
G01 X69.9095 Y323.6299
G01 X69.8614 Y323.6203
G01 X69.8519 Y323.6180
G01 X69.8049 Y323.6037
G01 X69.7957 Y323.6004
G01 X69.7503 Y323.5816
G01 X69.7415 Y323.5774
G01 X69.6982 Y323.5543
G01 X69.6898 Y323.5493
G01 X69.6490 Y323.5220
G01 X69.6411 Y323.5161
G01 X69.6031 Y323.4850
G01 X69.5959 Y323.4784
G01 X69.5612 Y323.4437
G01 X69.5546 Y323.4365
G01 X69.5235 Y323.3985
G01 X69.5176 Y323.3906
G01 X69.4903 Y323.3498
G01 X69.4853 Y323.3414
G01 X69.4622 Y323.2981
G01 X69.4580 Y323.2893
G01 X69.4392 Y323.2439
G01 X69.4359 Y323.2347
G01 X69.4216 Y323.1877
G01 X69.4193 Y323.1782
G01 X69.4097 Y323.1301
G01 X69.4082 Y323.1204
G01 X69.4034 Y323.0715
G01 X69.4030 Y323.0617
G01 X69.4030 Y323.0127
G01 X69.4034 Y323.0029
G01 X69.4082 Y322.9540
G01 X69.4097 Y322.9443
G01 X69.4193 Y322.8962
G00 Z10.0000
G00 X69.4193 Y310.1200
G01 F60.00
G01 Z-5.0000
G01 F120.00
G01 X69.4216 Y310.1105
G01 X69.4359 Y310.0635
G01 X69.4392 Y310.0543
G01 X69.4580 Y310.0089
G01 X69.4622 Y310.0001
G01 X69.4853 Y309.9568
G01 X69.4903 Y309.9484
G01 X69.5176 Y309.9076
G01 X69.5235 Y309.8997
G01 X69.5546 Y309.8617
G01 X69.5612 Y309.8545
G01 X69.5959 Y309.8198
G01 X69.6031 Y309.8132
G01 X69.6411 Y309.7821
G01 X69.6490 Y309.7762
G01 X69.6898 Y309.7489
G01 X69.6982 Y309.7439
G01 X69.7415 Y309.7208
G01 X69.7503 Y309.7166
G01 X69.7957 Y309.6978
G01 X69.8049 Y309.6945
G01 X69.8519 Y309.6802
G01 X69.8614 Y309.6779
G01 X69.9095 Y309.6683
G01 X69.9192 Y309.6668
G01 X69.9681 Y309.6620
G01 X70.0024 Y309.6610
G01 X89.9922 Y309.6610
G01 X90.0265 Y309.6620
G01 X90.0754 Y309.6668
G01 X90.0851 Y309.6683
G01 X90.1332 Y309.6779
G01 X90.1427 Y309.6802
G01 X90.1897 Y309.6945
G01 X90.1989 Y309.6978
G01 X90.2443 Y309.7166
G01 X90.2531 Y309.7208
G01 X90.2964 Y309.7439
G01 X90.3048 Y309.7489
G01 X90.3456 Y309.7762
G01 X90.3535 Y309.7821
G01 X90.3915 Y309.8132
G01 X90.3987 Y309.8198
G01 X90.4334 Y309.8545
G01 X90.4400 Y309.8617
G01 X90.4711 Y309.8997
G01 X90.4770 Y309.9076
G01 X90.5043 Y309.9484
G01 X90.5093 Y309.9568
G01 X90.5324 Y310.0001
G01 X90.5366 Y310.0089
G01 X90.5554 Y310.0543
G01 X90.5587 Y310.0635
G01 X90.5730 Y310.1105
G01 X90.5753 Y310.1200
G01 X90.5849 Y310.1681
G01 X90.5864 Y310.1778
G01 X90.5912 Y310.2267
G01 X90.5916 Y310.2365
G01 X90.5916 Y310.2855
G01 X90.5912 Y310.2953
G01 X90.5864 Y310.3442
G01 X90.5849 Y310.3539
G01 X90.5753 Y310.4020
G01 X90.5730 Y310.4115
G01 X90.5587 Y310.4585
G01 X90.5554 Y310.4677
G01 X90.5366 Y310.5131
G01 X90.5324 Y310.5219
G01 X90.5093 Y310.5652
G01 X90.5043 Y310.5736
G01 X90.4770 Y310.6144
G01 X90.4711 Y310.6223
G01 X90.4400 Y310.6603
G01 X90.4334 Y310.6675
G01 X90.3987 Y310.7022
G01 X90.3915 Y310.7088
G01 X90.3535 Y310.7399
G01 X90.3456 Y310.7458
G01 X90.3048 Y310.7731
G01 X90.2964 Y310.7781
G01 X90.2531 Y310.8012
G01 X90.2443 Y310.8054
G01 X90.1989 Y310.8242
G01 X90.1897 Y310.8275
G01 X90.1427 Y310.8418
G01 X90.1332 Y310.8441
G01 X90.0851 Y310.8537
G01 X90.0754 Y310.8552
G01 X90.0265 Y310.8600
G01 X90.0167 Y310.8604
G01 X89.9922 Y310.8610
G01 X70.0024 Y310.8610
G01 X69.9681 Y310.8600
G01 X69.9192 Y310.8552
G01 X69.9095 Y310.8537
G01 X69.8614 Y310.8441
G01 X69.8519 Y310.8418
G01 X69.8049 Y310.8275
G01 X69.7957 Y310.8242
G01 X69.7503 Y310.8054
G01 X69.7415 Y310.8012
G01 X69.6982 Y310.7781
G01 X69.6898 Y310.7731
G01 X69.6490 Y310.7458
G01 X69.6411 Y310.7399
G01 X69.6031 Y310.7088
G01 X69.5959 Y310.7022
G01 X69.5612 Y310.6675
G01 X69.5546 Y310.6603
G01 X69.5235 Y310.6223
G01 X69.5176 Y310.6144
G01 X69.4903 Y310.5736
G01 X69.4853 Y310.5652
G01 X69.4622 Y310.5219
G01 X69.4580 Y310.5131
G01 X69.4392 Y310.4677
G01 X69.4359 Y310.4585
G01 X69.4216 Y310.4115
G01 X69.4193 Y310.4020
G01 X69.4097 Y310.3539
G01 X69.4082 Y310.3442
G01 X69.4034 Y310.2953
G01 X69.4030 Y310.2855
G01 X69.4030 Y310.2365
G01 X69.4034 Y310.2267
G01 X69.4082 Y310.1778
G01 X69.4097 Y310.1681
G01 X69.4193 Y310.1200
G00 Z10.0000
G00 X69.6502 Y293.0937
G01 F60.00
G01 Z-5.0000
G01 F120.00
G01 X69.6423 Y293.0879
G01 X69.6043 Y293.0568
G01 X69.5970 Y293.0503
G01 X69.5622 Y293.0156
G01 X69.5556 Y293.0084
G01 X69.5244 Y292.9705
G01 X69.5185 Y292.9627
G01 X69.4911 Y292.9219
G01 X69.4861 Y292.9135
G01 X69.4628 Y292.8703
G01 X69.4586 Y292.8614
G01 X69.4397 Y292.8162
G01 X69.4364 Y292.8069
G01 X69.4220 Y292.7600
G01 X69.4196 Y292.7505
G01 X69.4099 Y292.7024
G01 X69.4085 Y292.6927
G01 X69.4035 Y292.6439
G01 X69.4030 Y292.6341
G01 X69.4029 Y292.5850
G01 X69.4033 Y292.5752
G01 X69.4080 Y292.5263
G01 X69.4095 Y292.5166
G01 X69.4189 Y292.4685
G01 X69.4213 Y292.4589
G01 X69.4354 Y292.4120
G01 X69.4387 Y292.4027
G01 X69.4573 Y292.3573
G01 X69.4615 Y292.3484
G01 X69.4845 Y292.3051
G01 X69.4896 Y292.2967
G01 X69.5167 Y292.2558
G01 X69.5225 Y292.2479
G01 X69.5536 Y292.2099
G01 X69.5601 Y292.2026
G01 X69.5948 Y292.1678
G01 X69.6020 Y292.1612
G01 X69.6399 Y292.1300
G01 X69.6477 Y292.1241
G01 X69.6885 Y292.0967
G01 X69.6969 Y292.0917
G01 X69.7401 Y292.0684
G01 X69.7490 Y292.0642
G01 X69.7942 Y292.0453
G01 X69.8035 Y292.0420
G01 X69.8504 Y292.0276
G01 X69.8599 Y292.0252
G01 X69.9080 Y292.0155
G01 X69.9177 Y292.0141
G01 X69.9665 Y292.0091
G01 X70.0009 Y292.0080
G01 X89.9907 Y291.9572
G01 X90.0152 Y291.9577
G01 X90.0250 Y291.9581
G01 X90.0739 Y291.9628
G01 X90.0836 Y291.9643
G01 X90.1317 Y291.9737
G01 X90.1413 Y291.9761
G01 X90.1882 Y291.9902
G01 X90.1975 Y291.9935
G01 X90.2429 Y292.0121
G01 X90.2518 Y292.0163
G01 X90.2951 Y292.0393
G01 X90.3035 Y292.0444
G01 X90.3444 Y292.0715
G01 X90.3523 Y292.0773
G01 X90.3903 Y292.1084
G01 X90.3976 Y292.1149
G01 X90.4324 Y292.1496
G01 X90.4390 Y292.1568
G01 X90.4702 Y292.1947
G01 X90.4761 Y292.2025
G01 X90.5035 Y292.2433
G01 X90.5085 Y292.2517
G01 X90.5318 Y292.2949
G01 X90.5360 Y292.3038
G01 X90.5549 Y292.3490
G01 X90.5582 Y292.3583
G01 X90.5726 Y292.4052
G01 X90.5750 Y292.4147
G01 X90.5847 Y292.4628
G01 X90.5861 Y292.4725
G01 X90.5911 Y292.5213
G01 X90.5916 Y292.5311
G01 X90.5917 Y292.5802
G01 X90.5913 Y292.5900
G01 X90.5866 Y292.6389
G01 X90.5851 Y292.6486
G01 X90.5757 Y292.6967
G01 X90.5733 Y292.7063
G01 X90.5592 Y292.7532
G01 X90.5559 Y292.7625
G01 X90.5373 Y292.8079
G01 X90.5331 Y292.8168
G01 X90.5101 Y292.8601
G01 X90.5050 Y292.8685
G01 X90.4779 Y292.9094
G01 X90.4721 Y292.9173
G01 X90.4410 Y292.9553
G01 X90.4345 Y292.9626
G01 X90.3998 Y292.9974
G01 X90.3926 Y293.0040
G01 X90.3547 Y293.0352
G01 X90.3469 Y293.0411
G01 X90.3061 Y293.0685
G01 X90.2977 Y293.0735
G01 X90.2545 Y293.0968
G01 X90.2456 Y293.1010
G01 X90.2004 Y293.1199
G01 X90.1911 Y293.1232
G01 X90.1442 Y293.1376
G01 X90.1347 Y293.1400
G01 X90.0866 Y293.1497
G01 X90.0769 Y293.1511
G01 X90.0281 Y293.1561
G01 X89.9937 Y293.1572
G01 X70.0039 Y293.2080
G01 X69.9696 Y293.2071
G01 X69.9207 Y293.2024
G01 X69.9110 Y293.2009
G01 X69.8629 Y293.1915
G01 X69.8533 Y293.1891
G01 X69.8064 Y293.1750
G01 X69.7971 Y293.1717
G01 X69.7517 Y293.1531
G01 X69.7428 Y293.1489
G01 X69.6995 Y293.1259
G01 X69.6911 Y293.1208
G01 X69.6502 Y293.0937
G00 Z10.0000
G00 X69.3431 Y279.6908
G01 F60.00
G01 Z-5.0000
G01 F120.00
G01 X69.3454 Y279.6813
G01 X69.3597 Y279.6343
G01 X69.3630 Y279.6251
G01 X69.3818 Y279.5797
G01 X69.3860 Y279.5709
G01 X69.4091 Y279.5276
G01 X69.4141 Y279.5192
G01 X69.4414 Y279.4784
G01 X69.4473 Y279.4705
G01 X69.4784 Y279.4325
G01 X69.4850 Y279.4253
G01 X69.5197 Y279.3906
G01 X69.5269 Y279.3840
G01 X69.5649 Y279.3529
G01 X69.5728 Y279.3470
G01 X69.6136 Y279.3197
G01 X69.6220 Y279.3147
G01 X69.6653 Y279.2916
G01 X69.6741 Y279.2874
G01 X69.7195 Y279.2686
G01 X69.7287 Y279.2653
G01 X69.7757 Y279.2510
G01 X69.7852 Y279.2487
G01 X69.8333 Y279.2391
G01 X69.8430 Y279.2376
G01 X69.8919 Y279.2328
G01 X69.9262 Y279.2318
G01 X89.9922 Y279.2318
G01 X90.0265 Y279.2328
G01 X90.0754 Y279.2376
G01 X90.0851 Y279.2391
G01 X90.1332 Y279.2487
G01 X90.1427 Y279.2510
G01 X90.1897 Y279.2653
G01 X90.1989 Y279.2686
G01 X90.2443 Y279.2874
G01 X90.2531 Y279.2916
G01 X90.2964 Y279.3147
G01 X90.3048 Y279.3197
G01 X90.3456 Y279.3470
G01 X90.3535 Y279.3529
G01 X90.3915 Y279.3840
G01 X90.3987 Y279.3906
G01 X90.4334 Y279.4253
G01 X90.4400 Y279.4325
G01 X90.4711 Y279.4705
G01 X90.4770 Y279.4784
G01 X90.5043 Y279.5192
G01 X90.5093 Y279.5276
G01 X90.5324 Y279.5709
G01 X90.5366 Y279.5797
G01 X90.5554 Y279.6251
G01 X90.5587 Y279.6343
G01 X90.5730 Y279.6813
G01 X90.5753 Y279.6908
G01 X90.5849 Y279.7389
G01 X90.5864 Y279.7486
G01 X90.5912 Y279.7975
G01 X90.5916 Y279.8073
G01 X90.5916 Y279.8563
G01 X90.5912 Y279.8661
G01 X90.5864 Y279.9150
G01 X90.5849 Y279.9247
G01 X90.5753 Y279.9728
G01 X90.5730 Y279.9823
G01 X90.5587 Y280.0293
G01 X90.5554 Y280.0385
G01 X90.5366 Y280.0839
G01 X90.5324 Y280.0927
G01 X90.5093 Y280.1360
G01 X90.5043 Y280.1444
G01 X90.4770 Y280.1852
G01 X90.4711 Y280.1931
G01 X90.4400 Y280.2311
G01 X90.4334 Y280.2383
G01 X90.3987 Y280.2730
G01 X90.3915 Y280.2796
G01 X90.3535 Y280.3107
G01 X90.3456 Y280.3166
G01 X90.3048 Y280.3439
G01 X90.2964 Y280.3489
G01 X90.2531 Y280.3720
G01 X90.2443 Y280.3762
G01 X90.1989 Y280.3950
G01 X90.1897 Y280.3983
G01 X90.1427 Y280.4126
G01 X90.1332 Y280.4149
G01 X90.0851 Y280.4245
G01 X90.0754 Y280.4260
G01 X90.0265 Y280.4308
G01 X90.0167 Y280.4312
G01 X89.9922 Y280.4318
G01 X69.9262 Y280.4318
G01 X69.8919 Y280.4308
G01 X69.8430 Y280.4260
G01 X69.8333 Y280.4245
G01 X69.7852 Y280.4149
G01 X69.7757 Y280.4126
G01 X69.7287 Y280.3983
G01 X69.7195 Y280.3950
G01 X69.6741 Y280.3762
G01 X69.6653 Y280.3720
G01 X69.6220 Y280.3489
G01 X69.6136 Y280.3439
G01 X69.5728 Y280.3166
G01 X69.5649 Y280.3107
G01 X69.5269 Y280.2796
G01 X69.5197 Y280.2730
G01 X69.4850 Y280.2383
G01 X69.4784 Y280.2311
G01 X69.4473 Y280.1931
G01 X69.4414 Y280.1852
G01 X69.4141 Y280.1444
G01 X69.4091 Y280.1360
G01 X69.3860 Y280.0927
G01 X69.3818 Y280.0839
G01 X69.3630 Y280.0385
G01 X69.3597 Y280.0293
G01 X69.3454 Y279.9823
G01 X69.3431 Y279.9728
G01 X69.3335 Y279.9247
G01 X69.3320 Y279.9150
G01 X69.3272 Y279.8661
G01 X69.3268 Y279.8563
G01 X69.3268 Y279.8073
G01 X69.3272 Y279.7975
G01 X69.3320 Y279.7486
G01 X69.3335 Y279.7389
G01 X69.3431 Y279.6908
G00 Z10.0000
G00 X69.4193 Y266.9908
G01 F60.00
G01 Z-5.0000
G01 F120.00
G01 X69.4216 Y266.9813
G01 X69.4359 Y266.9343
G01 X69.4392 Y266.9251
G01 X69.4580 Y266.8797
G01 X69.4622 Y266.8709
G01 X69.4853 Y266.8276
G01 X69.4903 Y266.8192
G01 X69.5176 Y266.7784
G01 X69.5235 Y266.7705
G01 X69.5546 Y266.7325
G01 X69.5612 Y266.7253
G01 X69.5959 Y266.6906
G01 X69.6031 Y266.6840
G01 X69.6411 Y266.6529
G01 X69.6490 Y266.6470
G01 X69.6898 Y266.6197
G01 X69.6982 Y266.6147
G01 X69.7415 Y266.5916
G01 X69.7503 Y266.5874
G01 X69.7957 Y266.5686
G01 X69.8049 Y266.5653
G01 X69.8519 Y266.5510
G01 X69.8614 Y266.5487
G01 X69.9095 Y266.5391
G01 X69.9192 Y266.5376
G01 X69.9681 Y266.5328
G01 X70.0024 Y266.5318
G01 X89.9922 Y266.5318
G01 X90.0265 Y266.5328
G01 X90.0754 Y266.5376
G01 X90.0851 Y266.5391
G01 X90.1332 Y266.5487
G01 X90.1427 Y266.5510
G01 X90.1897 Y266.5653
G01 X90.1989 Y266.5686
G01 X90.2443 Y266.5874
G01 X90.2531 Y266.5916
G01 X90.2964 Y266.6147
G01 X90.3048 Y266.6197
G01 X90.3456 Y266.6470
G01 X90.3535 Y266.6529
G01 X90.3915 Y266.6840
G01 X90.3987 Y266.6906
G01 X90.4334 Y266.7253
G01 X90.4400 Y266.7325
G01 X90.4711 Y266.7705
G01 X90.4770 Y266.7784
G01 X90.5043 Y266.8192
G01 X90.5093 Y266.8276
G01 X90.5324 Y266.8709
G01 X90.5366 Y266.8797
G01 X90.5554 Y266.9251
G01 X90.5587 Y266.9343
G01 X90.5730 Y266.9813
G01 X90.5753 Y266.9908
G01 X90.5849 Y267.0389
G01 X90.5864 Y267.0486
G01 X90.5912 Y267.0975
G01 X90.5916 Y267.1073
G01 X90.5916 Y267.1563
G01 X90.5912 Y267.1661
G01 X90.5864 Y267.2150
G01 X90.5849 Y267.2247
G01 X90.5753 Y267.2728
G01 X90.5730 Y267.2823
G01 X90.5587 Y267.3293
G01 X90.5554 Y267.3385
G01 X90.5366 Y267.3839
G01 X90.5324 Y267.3927
G01 X90.5093 Y267.4360
G01 X90.5043 Y267.4444
G01 X90.4770 Y267.4852
G01 X90.4711 Y267.4931
G01 X90.4400 Y267.5311
G01 X90.4334 Y267.5383
G01 X90.3987 Y267.5730
G01 X90.3915 Y267.5796
G01 X90.3535 Y267.6107
G01 X90.3456 Y267.6166
G01 X90.3048 Y267.6439
G01 X90.2964 Y267.6489
G01 X90.2531 Y267.6720
G01 X90.2443 Y267.6762
G01 X90.1989 Y267.6950
G01 X90.1897 Y267.6983
G01 X90.1427 Y267.7126
G01 X90.1332 Y267.7149
G01 X90.0851 Y267.7245
G01 X90.0754 Y267.7260
G01 X90.0265 Y267.7308
G01 X90.0167 Y267.7312
G01 X89.9922 Y267.7318
G01 X70.0024 Y267.7318
G01 X69.9681 Y267.7308
G01 X69.9192 Y267.7260
G01 X69.9095 Y267.7245
G01 X69.8614 Y267.7149
G01 X69.8519 Y267.7126
G01 X69.8049 Y267.6983
G01 X69.7957 Y267.6950
G01 X69.7503 Y267.6762
G01 X69.7415 Y267.6720
G01 X69.6982 Y267.6489
G01 X69.6898 Y267.6439
G01 X69.6490 Y267.6166
G01 X69.6411 Y267.6107
G01 X69.6031 Y267.5796
G01 X69.5959 Y267.5730
G01 X69.5612 Y267.5383
G01 X69.5546 Y267.5311
G01 X69.5235 Y267.4931
G01 X69.5176 Y267.4852
G01 X69.4903 Y267.4444
G01 X69.4853 Y267.4360
G01 X69.4622 Y267.3927
G01 X69.4580 Y267.3839
G01 X69.4392 Y267.3385
G01 X69.4359 Y267.3293
G01 X69.4216 Y267.2823
G01 X69.4193 Y267.2728
G01 X69.4097 Y267.2247
G01 X69.4082 Y267.2150
G01 X69.4034 Y267.1661
G01 X69.4030 Y267.1563
G01 X69.4030 Y267.1073
G01 X69.4034 Y267.0975
G01 X69.4082 Y267.0486
G01 X69.4097 Y267.0389
G01 X69.4193 Y266.9908
G00 Z10.0000
G00 X69.4359 Y254.2851
G01 F60.00
G01 Z-5.0000
G01 F120.00
G01 X69.4392 Y254.2759
G01 X69.4580 Y254.2305
G01 X69.4622 Y254.2217
G01 X69.4853 Y254.1784
G01 X69.4903 Y254.1700
G01 X69.5176 Y254.1292
G01 X69.5235 Y254.1213
G01 X69.5546 Y254.0833
G01 X69.5612 Y254.0761
G01 X69.5959 Y254.0414
G01 X69.6031 Y254.0348
G01 X69.6411 Y254.0037
G01 X69.6490 Y253.9978
G01 X69.6898 Y253.9705
G01 X69.6982 Y253.9655
G01 X69.7415 Y253.9424
G01 X69.7503 Y253.9382
G01 X69.7957 Y253.9194
G01 X69.8049 Y253.9161
G01 X69.8519 Y253.9018
G01 X69.8614 Y253.8995
G01 X69.9095 Y253.8899
G01 X69.9192 Y253.8884
G01 X69.9681 Y253.8836
G01 X70.0024 Y253.8826
G01 X90.0430 Y253.8826
G01 X90.0773 Y253.8836
G01 X90.1262 Y253.8884
G01 X90.1359 Y253.8899
G01 X90.1840 Y253.8995
G01 X90.1935 Y253.9018
G01 X90.2405 Y253.9161
G01 X90.2497 Y253.9194
G01 X90.2951 Y253.9382
G01 X90.3039 Y253.9424
G01 X90.3472 Y253.9655
G01 X90.3556 Y253.9705
G01 X90.3964 Y253.9978
G01 X90.4043 Y254.0037
G01 X90.4423 Y254.0348
G01 X90.4495 Y254.0414
G01 X90.4842 Y254.0761
G01 X90.4908 Y254.0833
G01 X90.5219 Y254.1213
G01 X90.5278 Y254.1292
G01 X90.5551 Y254.1700
G01 X90.5601 Y254.1784
G01 X90.5832 Y254.2217
G01 X90.5874 Y254.2305
G01 X90.6062 Y254.2759
G01 X90.6095 Y254.2851
G01 X90.6238 Y254.3321
G01 X90.6261 Y254.3416
G01 X90.6357 Y254.3897
G01 X90.6372 Y254.3994
G01 X90.6420 Y254.4483
G01 X90.6424 Y254.4581
G01 X90.6424 Y254.5071
G01 X90.6420 Y254.5169
G01 X90.6372 Y254.5658
G01 X90.6357 Y254.5755
G01 X90.6261 Y254.6236
G01 X90.6238 Y254.6331
G01 X90.6095 Y254.6801
G01 X90.6062 Y254.6893
G01 X90.5874 Y254.7347
G01 X90.5832 Y254.7435
G01 X90.5601 Y254.7868
G01 X90.5551 Y254.7952
G01 X90.5278 Y254.8360
G01 X90.5219 Y254.8439
G01 X90.4908 Y254.8819
G01 X90.4842 Y254.8891
G01 X90.4495 Y254.9238
G01 X90.4423 Y254.9304
G01 X90.4043 Y254.9615
G01 X90.3964 Y254.9674
G01 X90.3556 Y254.9947
G01 X90.3472 Y254.9997
G01 X90.3039 Y255.0228
G01 X90.2951 Y255.0270
G01 X90.2497 Y255.0458
G01 X90.2405 Y255.0491
G01 X90.1935 Y255.0634
G01 X90.1840 Y255.0657
G01 X90.1359 Y255.0753
G01 X90.1262 Y255.0768
G01 X90.0773 Y255.0816
G01 X90.0675 Y255.0820
G01 X90.0430 Y255.0826
G01 X70.0024 Y255.0826
G01 X69.9681 Y255.0816
G01 X69.9192 Y255.0768
G01 X69.9095 Y255.0753
G01 X69.8614 Y255.0657
G01 X69.8519 Y255.0634
G01 X69.8049 Y255.0491
G01 X69.7957 Y255.0458
G01 X69.7503 Y255.0270
G01 X69.7415 Y255.0228
G01 X69.6982 Y254.9997
G01 X69.6898 Y254.9947
G01 X69.6490 Y254.9674
G01 X69.6411 Y254.9615
G01 X69.6031 Y254.9304
G01 X69.5959 Y254.9238
G01 X69.5612 Y254.8891
G01 X69.5546 Y254.8819
G01 X69.5235 Y254.8439
G01 X69.5176 Y254.8360
G01 X69.4903 Y254.7952
G01 X69.4853 Y254.7868
G01 X69.4622 Y254.7435
G01 X69.4580 Y254.7347
G01 X69.4392 Y254.6893
G01 X69.4359 Y254.6801
G01 X69.4216 Y254.6331
G01 X69.4193 Y254.6236
G01 X69.4097 Y254.5755
G01 X69.4082 Y254.5658
G01 X69.4034 Y254.5169
G01 X69.4030 Y254.5071
G01 X69.4030 Y254.4581
G01 X69.4034 Y254.4483
G01 X69.4082 Y254.3994
G01 X69.4097 Y254.3897
G01 X69.4193 Y254.3416
G01 X69.4216 Y254.3321
G01 X69.4359 Y254.2851
G00 Z10.0000
G00 X69.4359 Y236.5305
G01 F60.00
G01 Z-5.0000
G01 F120.00
G01 X69.4392 Y236.5213
G01 X69.4580 Y236.4759
G01 X69.4622 Y236.4671
G01 X69.4853 Y236.4238
G01 X69.4903 Y236.4154
G01 X69.5176 Y236.3746
G01 X69.5235 Y236.3667
G01 X69.5546 Y236.3287
G01 X69.5612 Y236.3215
G01 X69.5959 Y236.2868
G01 X69.6031 Y236.2802
G01 X69.6411 Y236.2491
G01 X69.6490 Y236.2432
G01 X69.6898 Y236.2159
G01 X69.6982 Y236.2109
G01 X69.7415 Y236.1878
G01 X69.7503 Y236.1836
G01 X69.7957 Y236.1648
G01 X69.8049 Y236.1615
G01 X69.8519 Y236.1472
G01 X69.8614 Y236.1449
G01 X69.9095 Y236.1353
G01 X69.9192 Y236.1338
G01 X69.9681 Y236.1290
G01 X70.0024 Y236.1280
G01 X90.0430 Y236.1280
G01 X90.0773 Y236.1290
G01 X90.1262 Y236.1338
G01 X90.1359 Y236.1353
G01 X90.1840 Y236.1449
G01 X90.1935 Y236.1472
G01 X90.2405 Y236.1615
G01 X90.2497 Y236.1648
G01 X90.2951 Y236.1836
G01 X90.3039 Y236.1878
G01 X90.3472 Y236.2109
G01 X90.3556 Y236.2159
G01 X90.3964 Y236.2432
G01 X90.4043 Y236.2491
G01 X90.4423 Y236.2802
G01 X90.4495 Y236.2868
G01 X90.4842 Y236.3215
G01 X90.4908 Y236.3287
G01 X90.5219 Y236.3667
G01 X90.5278 Y236.3746
G01 X90.5551 Y236.4154
G01 X90.5601 Y236.4238
G01 X90.5832 Y236.4671
G01 X90.5874 Y236.4759
G01 X90.6062 Y236.5213
G01 X90.6095 Y236.5305
G01 X90.6238 Y236.5775
G01 X90.6261 Y236.5870
G01 X90.6357 Y236.6351
G01 X90.6372 Y236.6448
G01 X90.6420 Y236.6937
G01 X90.6424 Y236.7035
G01 X90.6424 Y236.7525
G01 X90.6420 Y236.7623
G01 X90.6372 Y236.8112
G01 X90.6357 Y236.8209
G01 X90.6261 Y236.8690
G01 X90.6238 Y236.8785
G01 X90.6095 Y236.9255
G01 X90.6062 Y236.9347
G01 X90.5874 Y236.9801
G01 X90.5832 Y236.9889
G01 X90.5601 Y237.0322
G01 X90.5551 Y237.0406
G01 X90.5278 Y237.0814
G01 X90.5219 Y237.0893
G01 X90.4908 Y237.1273
G01 X90.4842 Y237.1345
G01 X90.4495 Y237.1692
G01 X90.4423 Y237.1758
G01 X90.4043 Y237.2069
G01 X90.3964 Y237.2128
G01 X90.3556 Y237.2401
G01 X90.3472 Y237.2451
G01 X90.3039 Y237.2682
G01 X90.2951 Y237.2724
G01 X90.2497 Y237.2912
G01 X90.2405 Y237.2945
G01 X90.1935 Y237.3088
G01 X90.1840 Y237.3111
G01 X90.1359 Y237.3207
G01 X90.1262 Y237.3222
G01 X90.0773 Y237.3270
G01 X90.0675 Y237.3274
G01 X90.0430 Y237.3280
G01 X70.0024 Y237.3280
G01 X69.9681 Y237.3270
G01 X69.9192 Y237.3222
G01 X69.9095 Y237.3207
G01 X69.8614 Y237.3111
G01 X69.8519 Y237.3088
G01 X69.8049 Y237.2945
G01 X69.7957 Y237.2912
G01 X69.7503 Y237.2724
G01 X69.7415 Y237.2682
G01 X69.6982 Y237.2451
G01 X69.6898 Y237.2401
G01 X69.6490 Y237.2128
G01 X69.6411 Y237.2069
G01 X69.6031 Y237.1758
G01 X69.5959 Y237.1692
G01 X69.5612 Y237.1345
G01 X69.5546 Y237.1273
G01 X69.5235 Y237.0893
G01 X69.5176 Y237.0814
G01 X69.4903 Y237.0406
G01 X69.4853 Y237.0322
G01 X69.4622 Y236.9889
G01 X69.4580 Y236.9801
G01 X69.4392 Y236.9347
G01 X69.4359 Y236.9255
G01 X69.4216 Y236.8785
G01 X69.4193 Y236.8690
G01 X69.4097 Y236.8209
G01 X69.4082 Y236.8112
G01 X69.4034 Y236.7623
G01 X69.4030 Y236.7525
G01 X69.4030 Y236.7035
G01 X69.4034 Y236.6937
G01 X69.4082 Y236.6448
G01 X69.4097 Y236.6351
G01 X69.4193 Y236.5870
G01 X69.4216 Y236.5775
G01 X69.4359 Y236.5305
G00 Z10.0000
G00 X69.3767 Y223.8037
G01 F60.00
G01 Z-5.0000
G01 F120.00
G01 X69.3800 Y223.7945
G01 X69.3988 Y223.7491
G01 X69.4030 Y223.7403
G01 X69.4261 Y223.6970
G01 X69.4311 Y223.6886
G01 X69.4584 Y223.6478
G01 X69.4643 Y223.6399
G01 X69.4954 Y223.6019
G01 X69.5020 Y223.5947
G01 X69.5367 Y223.5600
G01 X69.5439 Y223.5534
G01 X69.5819 Y223.5223
G01 X69.5898 Y223.5164
G01 X69.6306 Y223.4891
G01 X69.6390 Y223.4841
G01 X69.6823 Y223.4610
G01 X69.6911 Y223.4568
G01 X69.7365 Y223.4380
G01 X69.7457 Y223.4347
G01 X69.7927 Y223.4204
G01 X69.8022 Y223.4181
G01 X69.8503 Y223.4085
G01 X69.8600 Y223.4070
G01 X69.9089 Y223.4022
G01 X69.9432 Y223.4012
G01 X89.9432 Y223.4012
G01 X89.9775 Y223.4022
G01 X90.0264 Y223.4070
G01 X90.0361 Y223.4085
G01 X90.0842 Y223.4181
G01 X90.0937 Y223.4204
G01 X90.1407 Y223.4347
G01 X90.1499 Y223.4380
G01 X90.1953 Y223.4568
G01 X90.2041 Y223.4610
G01 X90.2474 Y223.4841
G01 X90.2558 Y223.4891
G01 X90.2966 Y223.5164
G01 X90.3045 Y223.5223
G01 X90.3425 Y223.5534
G01 X90.3497 Y223.5600
G01 X90.3844 Y223.5947
G01 X90.3910 Y223.6019
G01 X90.4221 Y223.6399
G01 X90.4280 Y223.6478
G01 X90.4553 Y223.6886
G01 X90.4603 Y223.6970
G01 X90.4834 Y223.7403
G01 X90.4876 Y223.7491
G01 X90.5064 Y223.7945
G01 X90.5097 Y223.8037
G01 X90.5240 Y223.8507
G01 X90.5263 Y223.8602
G01 X90.5359 Y223.9083
G01 X90.5374 Y223.9180
G01 X90.5422 Y223.9669
G01 X90.5426 Y223.9767
G01 X90.5426 Y224.0257
G01 X90.5422 Y224.0355
G01 X90.5374 Y224.0844
G01 X90.5359 Y224.0941
G01 X90.5263 Y224.1422
G01 X90.5240 Y224.1517
G01 X90.5097 Y224.1987
G01 X90.5064 Y224.2079
G01 X90.4876 Y224.2533
G01 X90.4834 Y224.2621
G01 X90.4603 Y224.3054
G01 X90.4553 Y224.3138
G01 X90.4280 Y224.3546
G01 X90.4221 Y224.3625
G01 X90.3910 Y224.4005
G01 X90.3844 Y224.4077
G01 X90.3497 Y224.4424
G01 X90.3425 Y224.4490
G01 X90.3045 Y224.4801
G01 X90.2966 Y224.4860
G01 X90.2558 Y224.5133
G01 X90.2474 Y224.5183
G01 X90.2041 Y224.5414
G01 X90.1953 Y224.5456
G01 X90.1499 Y224.5644
G01 X90.1407 Y224.5677
G01 X90.0937 Y224.5820
G01 X90.0842 Y224.5843
G01 X90.0361 Y224.5939
G01 X90.0264 Y224.5954
G01 X89.9775 Y224.6002
G01 X89.9677 Y224.6006
G01 X89.9432 Y224.6012
G01 X69.9432 Y224.6012
G01 X69.9089 Y224.6002
G01 X69.8600 Y224.5954
G01 X69.8503 Y224.5939
G01 X69.8022 Y224.5843
G01 X69.7927 Y224.5820
G01 X69.7457 Y224.5677
G01 X69.7365 Y224.5644
G01 X69.6911 Y224.5456
G01 X69.6823 Y224.5414
G01 X69.6390 Y224.5183
G01 X69.6306 Y224.5133
G01 X69.5898 Y224.4860
G01 X69.5819 Y224.4801
G01 X69.5439 Y224.4490
G01 X69.5367 Y224.4424
G01 X69.5020 Y224.4077
G01 X69.4954 Y224.4005
G01 X69.4643 Y224.3625
G01 X69.4584 Y224.3546
G01 X69.4311 Y224.3138
G01 X69.4261 Y224.3054
G01 X69.4030 Y224.2621
G01 X69.3988 Y224.2533
G01 X69.3800 Y224.2079
G01 X69.3767 Y224.1987
G01 X69.3624 Y224.1517
G01 X69.3601 Y224.1422
G01 X69.3505 Y224.0941
G01 X69.3490 Y224.0844
G01 X69.3442 Y224.0355
G01 X69.3438 Y224.0257
G01 X69.3438 Y223.9767
G01 X69.3442 Y223.9669
G01 X69.3490 Y223.9180
G01 X69.3505 Y223.9083
G01 X69.3601 Y223.8602
G01 X69.3624 Y223.8507
G01 X69.3767 Y223.8037
G00 Z10.0000
G00 X69.3767 Y211.0537
G01 F60.00
G01 Z-5.0000
G01 F120.00
G01 X69.3800 Y211.0445
G01 X69.3988 Y210.9991
G01 X69.4030 Y210.9903
G01 X69.4261 Y210.9470
G01 X69.4311 Y210.9386
G01 X69.4584 Y210.8978
G01 X69.4643 Y210.8899
G01 X69.4954 Y210.8519
G01 X69.5020 Y210.8447
G01 X69.5367 Y210.8100
G01 X69.5439 Y210.8034
G01 X69.5819 Y210.7723
G01 X69.5898 Y210.7664
G01 X69.6306 Y210.7391
G01 X69.6390 Y210.7341
G01 X69.6823 Y210.7110
G01 X69.6911 Y210.7068
G01 X69.7365 Y210.6880
G01 X69.7457 Y210.6847
G01 X69.7927 Y210.6704
G01 X69.8022 Y210.6681
G01 X69.8503 Y210.6585
G01 X69.8600 Y210.6570
G01 X69.9089 Y210.6522
G01 X69.9432 Y210.6512
G01 X89.9432 Y210.6512
G01 X89.9775 Y210.6522
G01 X90.0264 Y210.6570
G01 X90.0361 Y210.6585
G01 X90.0842 Y210.6681
G01 X90.0937 Y210.6704
G01 X90.1407 Y210.6847
G01 X90.1499 Y210.6880
G01 X90.1953 Y210.7068
G01 X90.2041 Y210.7110
G01 X90.2474 Y210.7341
G01 X90.2558 Y210.7391
G01 X90.2966 Y210.7664
G01 X90.3045 Y210.7723
G01 X90.3425 Y210.8034
G01 X90.3497 Y210.8100
G01 X90.3844 Y210.8447
G01 X90.3910 Y210.8519
G01 X90.4221 Y210.8899
G01 X90.4280 Y210.8978
G01 X90.4553 Y210.9386
G01 X90.4603 Y210.9470
G01 X90.4834 Y210.9903
G01 X90.4876 Y210.9991
G01 X90.5064 Y211.0445
G01 X90.5097 Y211.0537
G01 X90.5240 Y211.1007
G01 X90.5263 Y211.1102
G01 X90.5359 Y211.1583
G01 X90.5374 Y211.1680
G01 X90.5422 Y211.2169
G01 X90.5426 Y211.2267
G01 X90.5426 Y211.2757
G01 X90.5422 Y211.2855
G01 X90.5374 Y211.3344
G01 X90.5359 Y211.3441
G01 X90.5263 Y211.3922
G01 X90.5240 Y211.4017
G01 X90.5097 Y211.4487
G01 X90.5064 Y211.4579
G01 X90.4876 Y211.5033
G01 X90.4834 Y211.5121
G01 X90.4603 Y211.5554
G01 X90.4553 Y211.5638
G01 X90.4280 Y211.6046
G01 X90.4221 Y211.6125
G01 X90.3910 Y211.6505
G01 X90.3844 Y211.6577
G01 X90.3497 Y211.6924
G01 X90.3425 Y211.6990
G01 X90.3045 Y211.7301
G01 X90.2966 Y211.7360
G01 X90.2558 Y211.7633
G01 X90.2474 Y211.7683
G01 X90.2041 Y211.7914
G01 X90.1953 Y211.7956
G01 X90.1499 Y211.8144
G01 X90.1407 Y211.8177
G01 X90.0937 Y211.8320
G01 X90.0842 Y211.8343
G01 X90.0361 Y211.8439
G01 X90.0264 Y211.8454
G01 X89.9775 Y211.8502
G01 X89.9677 Y211.8506
G01 X89.9432 Y211.8512
G01 X69.9432 Y211.8512
G01 X69.9089 Y211.8502
G01 X69.8600 Y211.8454
G01 X69.8503 Y211.8439
G01 X69.8022 Y211.8343
G01 X69.7927 Y211.8320
G01 X69.7457 Y211.8177
G01 X69.7365 Y211.8144
G01 X69.6911 Y211.7956
G01 X69.6823 Y211.7914
G01 X69.6390 Y211.7683
G01 X69.6306 Y211.7633
G01 X69.5898 Y211.7360
G01 X69.5819 Y211.7301
G01 X69.5439 Y211.6990
G01 X69.5367 Y211.6924
G01 X69.5020 Y211.6577
G01 X69.4954 Y211.6505
G01 X69.4643 Y211.6125
G01 X69.4584 Y211.6046
G01 X69.4311 Y211.5638
G01 X69.4261 Y211.5554
G01 X69.4030 Y211.5121
G01 X69.3988 Y211.5033
G01 X69.3800 Y211.4579
G01 X69.3767 Y211.4487
G01 X69.3624 Y211.4017
G01 X69.3601 Y211.3922
G01 X69.3505 Y211.3441
G01 X69.3490 Y211.3344
G01 X69.3442 Y211.2855
G01 X69.3438 Y211.2757
G01 X69.3438 Y211.2267
G01 X69.3442 Y211.2169
G01 X69.3490 Y211.1680
G01 X69.3505 Y211.1583
G01 X69.3601 Y211.1102
G01 X69.3624 Y211.1007
G01 X69.3767 Y211.0537
G00 Z10.0000
G00 X69.3767 Y198.3037
G01 F60.00
G01 Z-5.0000
G01 F120.00
G01 X69.3800 Y198.2945
G01 X69.3988 Y198.2491
G01 X69.4030 Y198.2403
G01 X69.4261 Y198.1970
G01 X69.4311 Y198.1886
G01 X69.4584 Y198.1478
G01 X69.4643 Y198.1399
G01 X69.4954 Y198.1019
G01 X69.5020 Y198.0947
G01 X69.5367 Y198.0600
G01 X69.5439 Y198.0534
G01 X69.5819 Y198.0223
G01 X69.5898 Y198.0164
G01 X69.6306 Y197.9891
G01 X69.6390 Y197.9841
G01 X69.6823 Y197.9610
G01 X69.6911 Y197.9568
G01 X69.7365 Y197.9380
G01 X69.7457 Y197.9347
G01 X69.7927 Y197.9204
G01 X69.8022 Y197.9181
G01 X69.8503 Y197.9085
G01 X69.8600 Y197.9070
G01 X69.9089 Y197.9022
G01 X69.9432 Y197.9012
G01 X89.9432 Y197.9012
G01 X89.9775 Y197.9022
G01 X90.0264 Y197.9070
G01 X90.0361 Y197.9085
G01 X90.0842 Y197.9181
G01 X90.0937 Y197.9204
G01 X90.1407 Y197.9347
G01 X90.1499 Y197.9380
G01 X90.1953 Y197.9568
G01 X90.2041 Y197.9610
G01 X90.2474 Y197.9841
G01 X90.2558 Y197.9891
G01 X90.2966 Y198.0164
G01 X90.3045 Y198.0223
G01 X90.3425 Y198.0534
G01 X90.3497 Y198.0600
G01 X90.3844 Y198.0947
G01 X90.3910 Y198.1019
G01 X90.4221 Y198.1399
G01 X90.4280 Y198.1478
G01 X90.4553 Y198.1886
G01 X90.4603 Y198.1970
G01 X90.4834 Y198.2403
G01 X90.4876 Y198.2491
G01 X90.5064 Y198.2945
G01 X90.5097 Y198.3037
G01 X90.5240 Y198.3507
G01 X90.5263 Y198.3602
G01 X90.5359 Y198.4083
G01 X90.5374 Y198.4180
G01 X90.5422 Y198.4669
G01 X90.5426 Y198.4767
G01 X90.5426 Y198.5257
G01 X90.5422 Y198.5355
G01 X90.5374 Y198.5844
G01 X90.5359 Y198.5941
G01 X90.5263 Y198.6422
G01 X90.5240 Y198.6517
G01 X90.5097 Y198.6987
G01 X90.5064 Y198.7079
G01 X90.4876 Y198.7533
G01 X90.4834 Y198.7621
G01 X90.4603 Y198.8054
G01 X90.4553 Y198.8138
G01 X90.4280 Y198.8546
G01 X90.4221 Y198.8625
G01 X90.3910 Y198.9005
G01 X90.3844 Y198.9077
G01 X90.3497 Y198.9424
G01 X90.3425 Y198.9490
G01 X90.3045 Y198.9801
G01 X90.2966 Y198.9860
G01 X90.2558 Y199.0133
G01 X90.2474 Y199.0183
G01 X90.2041 Y199.0414
G01 X90.1953 Y199.0456
G01 X90.1499 Y199.0644
G01 X90.1407 Y199.0677
G01 X90.0937 Y199.0820
G01 X90.0842 Y199.0843
G01 X90.0361 Y199.0939
G01 X90.0264 Y199.0954
G01 X89.9775 Y199.1002
G01 X89.9677 Y199.1006
G01 X89.9432 Y199.1012
G01 X69.9432 Y199.1012
G01 X69.9089 Y199.1002
G01 X69.8600 Y199.0954
G01 X69.8503 Y199.0939
G01 X69.8022 Y199.0843
G01 X69.7927 Y199.0820
G01 X69.7457 Y199.0677
G01 X69.7365 Y199.0644
G01 X69.6911 Y199.0456
G01 X69.6823 Y199.0414
G01 X69.6390 Y199.0183
G01 X69.6306 Y199.0133
G01 X69.5898 Y198.9860
G01 X69.5819 Y198.9801
G01 X69.5439 Y198.9490
G01 X69.5367 Y198.9424
G01 X69.5020 Y198.9077
G01 X69.4954 Y198.9005
G01 X69.4643 Y198.8625
G01 X69.4584 Y198.8546
G01 X69.4311 Y198.8138
G01 X69.4261 Y198.8054
G01 X69.4030 Y198.7621
G01 X69.3988 Y198.7533
G01 X69.3800 Y198.7079
G01 X69.3767 Y198.6987
G01 X69.3624 Y198.6517
G01 X69.3601 Y198.6422
G01 X69.3505 Y198.5941
G01 X69.3490 Y198.5844
G01 X69.3442 Y198.5355
G01 X69.3438 Y198.5257
G01 X69.3438 Y198.4767
G01 X69.3442 Y198.4669
G01 X69.3490 Y198.4180
G01 X69.3505 Y198.4083
G01 X69.3601 Y198.3602
G01 X69.3624 Y198.3507
G01 X69.3767 Y198.3037
G00 Z10.0000
G00 X51.3200 Y312.4531
G01 F60.00
G01 Z-5.0000
G01 F120.00
G01 X51.5329 Y312.5538
G01 X51.7545 Y312.6331
G01 X51.9829 Y312.6903
G01 X52.2158 Y312.7249
G01 X52.4510 Y312.7364
G01 X52.6862 Y312.7249
G01 X52.9191 Y312.6903
G01 X53.1475 Y312.6331
G01 X53.3691 Y312.5538
G01 X53.5820 Y312.4531
G01 X53.7839 Y312.3321
G01 X53.9731 Y312.1918
G01 X54.1475 Y312.0337
G01 X54.3056 Y311.8593
G01 X54.4459 Y311.6701
G01 X54.5669 Y311.4682
G01 X54.6676 Y311.2553
G01 X54.7469 Y311.0337
G01 X54.8041 Y310.8053
G01 X54.8387 Y310.5724
G01 X54.8502 Y310.3372
G01 X54.8387 Y310.1020
G01 X54.8041 Y309.8691
G01 X54.7469 Y309.6407
G01 X54.6676 Y309.4191
G01 X54.5669 Y309.2062
G01 X54.4459 Y309.0043
G01 X54.3056 Y308.8151
G01 X54.1475 Y308.6407
G01 X53.9731 Y308.4826
G01 X53.7839 Y308.3423
G01 X53.5820 Y308.2213
G01 X53.3691 Y308.1206
G01 X53.1475 Y308.0413
G01 X52.9191 Y307.9841
G01 X52.6862 Y307.9495
G01 X52.4510 Y307.9380
G01 X52.2158 Y307.9495
G01 X51.9829 Y307.9841
G01 X51.7545 Y308.0413
G01 X51.5329 Y308.1206
G01 X51.3200 Y308.2213
G01 X51.1181 Y308.3423
G01 X50.9289 Y308.4826
G01 X50.7545 Y308.6407
G01 X50.5964 Y308.8151
G01 X50.4561 Y309.0043
G01 X50.3351 Y309.2062
G01 X50.2344 Y309.4191
G01 X50.1551 Y309.6407
G01 X50.0979 Y309.8691
G01 X50.0633 Y310.1020
G01 X50.0518 Y310.3372
G01 X50.0633 Y310.5724
G01 X50.0979 Y310.8053
G01 X50.1551 Y311.0337
G01 X50.2344 Y311.2553
G01 X50.3351 Y311.4682
G01 X50.4561 Y311.6701
G01 X50.5964 Y311.8593
G01 X50.7545 Y312.0337
G01 X50.9289 Y312.1918
G01 X51.1181 Y312.3321
G01 X51.3200 Y312.4531
G00 Z10.0000
G00 X51.3200 Y325.1531
G01 F60.00
G01 Z-5.0000
G01 F120.00
G01 X51.5329 Y325.2538
G01 X51.7545 Y325.3331
G01 X51.9829 Y325.3903
G01 X52.2158 Y325.4249
G01 X52.4510 Y325.4364
G01 X52.6862 Y325.4249
G01 X52.9191 Y325.3903
G01 X53.1475 Y325.3331
G01 X53.3691 Y325.2538
G01 X53.5820 Y325.1531
G01 X53.7839 Y325.0321
G01 X53.9731 Y324.8918
G01 X54.1475 Y324.7337
G01 X54.3056 Y324.5593
G01 X54.4459 Y324.3701
G01 X54.5669 Y324.1682
G01 X54.6676 Y323.9553
G01 X54.7469 Y323.7337
G01 X54.8041 Y323.5053
G01 X54.8387 Y323.2724
G01 X54.8502 Y323.0372
G01 X54.8387 Y322.8020
G01 X54.8041 Y322.5691
G01 X54.7469 Y322.3407
G01 X54.6676 Y322.1191
G01 X54.5669 Y321.9062
G01 X54.4459 Y321.7043
G01 X54.3056 Y321.5151
G01 X54.1475 Y321.3407
G01 X53.9731 Y321.1826
G01 X53.7839 Y321.0423
G01 X53.5820 Y320.9213
G01 X53.3691 Y320.8206
G01 X53.1475 Y320.7413
G01 X52.9191 Y320.6841
G01 X52.6862 Y320.6495
G01 X52.4510 Y320.6380
G01 X52.2158 Y320.6495
G01 X51.9829 Y320.6841
G01 X51.7545 Y320.7413
G01 X51.5329 Y320.8206
G01 X51.3200 Y320.9213
G01 X51.1181 Y321.0423
G01 X50.9289 Y321.1826
G01 X50.7545 Y321.3407
G01 X50.5964 Y321.5151
G01 X50.4561 Y321.7043
G01 X50.3351 Y321.9062
G01 X50.2344 Y322.1191
G01 X50.1551 Y322.3407
G01 X50.0979 Y322.5691
G01 X50.0633 Y322.8020
G01 X50.0518 Y323.0372
G01 X50.0633 Y323.2724
G01 X50.0979 Y323.5053
G01 X50.1551 Y323.7337
G01 X50.2344 Y323.9553
G01 X50.3351 Y324.1682
G01 X50.4561 Y324.3701
G01 X50.5964 Y324.5593
G01 X50.7545 Y324.7337
G01 X50.9289 Y324.8918
G01 X51.1181 Y325.0321
G01 X51.3200 Y325.1531
G00 Z10.0000
G00 X49.6982 Y332.4765
G01 F60.00
G01 Z-5.0000
G01 F120.00
G01 X49.6983 Y372.2212
G01 X79.4862 Y372.2211
G01 X79.4861 Y332.4764
G01 X49.6982 Y332.4765
G00 Z10.0000
M05
G00 Z10.0000
G00 Z15.00
G00 X0.0 Y0.0

