(G-CODE GENERATED BY FLATCAM v8.994 - www.flatcam.org - Version Date: 2020/11/7)

(Name: kaugummi_motherboard-Edge_Cuts.gbr_cutout_cnc)
(Type: G-code from Geometry)
(Units: MM)

(Created on Sonntag, 02 Januar 2022 at 17:05)

(This preprocessor is the default preprocessor used by FlatCAM.)
(It is made to work with MACH3 compatible motion controllers.)

(TOOL DIAMETER: 2.0 mm)
(Feedrate_XY: 120.0 mm/min)
(Feedrate_Z: 60.0 mm/min)
(Feedrate rapids 1500.0 mm/min)

(Z_Cut: -2.5 mm)
(DepthPerCut: 1.3 mm <=>2 passes)
(Z_Move: 2.0 mm)
(Z Start: None mm)
(Z End: 15.0 mm)
(X,Y End: None mm)
(Steps per circle: 64)
(Preprocessor Geometry: default)

(X range:   -1.1500 ...   83.6500  mm)
(Y range:   -1.1500 ...   58.1500  mm)

(Spindle Speed: 0.0 RPM)
G21
G90
G94

G01 F120.00

M5
G00 Z15.0000
G00 X0.0000 Y0.0000
T1
M6    
(MSG, Change to Tool Dia = 2.0000)
M0
G00 Z15.0000

M03
G01 F120.00
G00 X-1.1487 Y-0.0540
G01 F60.00
G01 Z-1.3000
G01 F120.00
G01 X-1.1500 Y0.0000
G01 X-1.1500 Y57.0000
G01 X-1.1485 Y57.0589
G01 X-1.1379 Y57.1663
G01 X-1.1161 Y57.2770
G01 X-1.0819 Y57.3897
G01 X-1.0385 Y57.4939
G01 X-0.9851 Y57.5933
G01 X-0.9251 Y57.6831
G01 X-0.8537 Y57.7705
G01 X-0.7741 Y57.8504
G01 X-0.6831 Y57.9251
G01 X-0.5891 Y57.9876
G01 X-0.4939 Y58.0385
G01 X-0.3851 Y58.0836
G01 X-0.2818 Y58.1149
G01 X-0.1712 Y58.1372
G01 X-0.0589 Y58.1485
G01 X0.0000 Y58.1500
G01 X82.5000 Y58.1500
G01 X82.5589 Y58.1485
G01 X82.6663 Y58.1379
G01 X82.7770 Y58.1161
G01 X82.8897 Y58.0819
G01 X82.9939 Y58.0385
G01 X83.0933 Y57.9851
G01 X83.1831 Y57.9251
G01 X83.2705 Y57.8537
G01 X83.3504 Y57.7741
G01 X83.4251 Y57.6831
G01 X83.4876 Y57.5891
G01 X83.5385 Y57.4939
G01 X83.5836 Y57.3851
G01 X83.6149 Y57.2818
G01 X83.6372 Y57.1712
G01 X83.6485 Y57.0589
G01 X83.6500 Y57.0000
G01 X83.6500 Y0.0000
G01 X83.6485 Y-0.0589
G01 X83.6379 Y-0.1663
G01 X83.6161 Y-0.2770
G01 X83.5819 Y-0.3897
G01 X83.5385 Y-0.4939
G01 X83.4851 Y-0.5933
G01 X83.4251 Y-0.6831
G01 X83.3537 Y-0.7705
G01 X83.2741 Y-0.8504
G01 X83.1831 Y-0.9251
G01 X83.0891 Y-0.9876
G01 X82.9939 Y-1.0385
G01 X82.8851 Y-1.0836
G01 X82.7818 Y-1.1149
G01 X82.6712 Y-1.1372
G01 X82.5589 Y-1.1485
G01 X82.5000 Y-1.1500
G01 X0.0000 Y-1.1500
G01 X-0.0589 Y-1.1485
G01 X-0.1712 Y-1.1372
G01 X-0.2818 Y-1.1149
G01 X-0.3897 Y-1.0819
G01 X-0.4939 Y-1.0385
G01 X-0.5933 Y-0.9851
G01 X-0.6870 Y-0.9222
G01 X-0.7741 Y-0.8504
G01 X-0.8537 Y-0.7705
G01 X-0.9251 Y-0.6831
G01 X-0.9876 Y-0.5891
G01 X-1.0406 Y-0.4895
G01 X-1.0836 Y-0.3851
G01 X-1.1161 Y-0.2770
G01 X-1.1379 Y-0.1663
G01 X-1.1487 Y-0.0540
G00 X-1.1487 Y-0.0540
G01 F60.00
G01 Z-2.5000
G01 F120.00
G01 X-1.1379 Y-0.1663
G01 X-1.1161 Y-0.2770
G01 X-1.0836 Y-0.3851
G01 X-1.0406 Y-0.4895
G01 X-0.9876 Y-0.5891
G01 X-0.9251 Y-0.6831
G01 X-0.8537 Y-0.7705
G01 X-0.7741 Y-0.8504
G01 X-0.6870 Y-0.9222
G01 X-0.5933 Y-0.9851
G01 X-0.4939 Y-1.0385
G01 X-0.3897 Y-1.0819
G01 X-0.2818 Y-1.1149
G01 X-0.1712 Y-1.1372
G01 X-0.0589 Y-1.1485
G01 X0.0000 Y-1.1500
G01 X82.5000 Y-1.1500
G01 X82.5589 Y-1.1485
G01 X82.6712 Y-1.1372
G01 X82.7818 Y-1.1149
G01 X82.8851 Y-1.0836
G01 X82.9939 Y-1.0385
G01 X83.0891 Y-0.9876
G01 X83.1831 Y-0.9251
G01 X83.2741 Y-0.8504
G01 X83.3537 Y-0.7705
G01 X83.4251 Y-0.6831
G01 X83.4851 Y-0.5933
G01 X83.5385 Y-0.4939
G01 X83.5819 Y-0.3897
G01 X83.6161 Y-0.2770
G01 X83.6379 Y-0.1663
G01 X83.6485 Y-0.0589
G01 X83.6500 Y0.0000
G01 X83.6500 Y57.0000
G01 X83.6485 Y57.0589
G01 X83.6372 Y57.1712
G01 X83.6149 Y57.2818
G01 X83.5836 Y57.3851
G01 X83.5385 Y57.4939
G01 X83.4876 Y57.5891
G01 X83.4251 Y57.6831
G01 X83.3504 Y57.7741
G01 X83.2705 Y57.8537
G01 X83.1831 Y57.9251
G01 X83.0933 Y57.9851
G01 X82.9939 Y58.0385
G01 X82.8897 Y58.0819
G01 X82.7770 Y58.1161
G01 X82.6663 Y58.1379
G01 X82.5589 Y58.1485
G01 X82.5000 Y58.1500
G01 X0.0000 Y58.1500
G01 X-0.0589 Y58.1485
G01 X-0.1712 Y58.1372
G01 X-0.2818 Y58.1149
G01 X-0.3851 Y58.0836
G01 X-0.4939 Y58.0385
G01 X-0.5891 Y57.9876
G01 X-0.6831 Y57.9251
G01 X-0.7741 Y57.8504
G01 X-0.8537 Y57.7705
G01 X-0.9251 Y57.6831
G01 X-0.9851 Y57.5933
G01 X-1.0385 Y57.4939
G01 X-1.0819 Y57.3897
G01 X-1.1161 Y57.2770
G01 X-1.1379 Y57.1663
G01 X-1.1485 Y57.0589
G01 X-1.1500 Y57.0000
G01 X-1.1500 Y0.0000
G01 X-1.1487 Y-0.0540
G00 Z2.0000
M05
G00 Z2.0000
G00 Z15.00


