(G-CODE GENERATED BY FLATCAM v8.994 - www.flatcam.org - Version Date: 2020/11/7)

(Name: kaugummi_motherboard-PTH.drl_cnc)
(Type: G-code from Geometry)
(Units: MM)

(Created on Sonntag, 02 Januar 2022 at 17:03)

(This preprocessor is the default preprocessor used by FlatCAM.)
(It is made to work with MACH3 compatible motion controllers.)


(TOOLS DIAMETER: )
(Tool: 1 -> Dia: 0.6)
(Tool: 2 -> Dia: 1.0)

(FEEDRATE Z: )
(Tool: 1 -> Feedrate: 200.0)
(Tool: 2 -> Feedrate: 200.0)

(FEEDRATE RAPIDS: )
(Tool: 1 -> Feedrate Rapids: 1500)
(Tool: 2 -> Feedrate Rapids: 1500)

(Z_CUT: )
(Tool: 1 -> Z_Cut: -2.5000000000000004)
(Tool: 2 -> Z_Cut: -2.5000000000000004)

(Tools Offset: )
(Tool: 1 -> Offset Z: 0.0)
(Tool: 2 -> Offset Z: 0.0)

(Z_MOVE: )
(Tool: 1 -> Z_Move: 2)
(Tool: 2 -> Z_Move: 2)

(Z Toolchange: 45.0 mm)
(X,Y Toolchange: 0.0000, 0.0000 mm)
(Z Start: None mm)
(Z End: 10.0 mm)
(X,Y End: None mm)
(Steps per circle: 64)
(Preprocessor Excellon: default)

(X range:    2.8520 ...   79.8480  mm)
(Y range:    2.5860 ...   54.3350  mm)

(Spindle Speed: 0 RPM)
G21
G90
G94

G01 F200.00

M5
G00 Z45.0000
T1
G00 X0.0000 Y0.0000                
M6
(MSG, Change to Tool Dia = 0.6000 ||| Total drills for tool T1 = 19)
M0
G00 Z45.0000

G01 F200.00
M03
G00 X6.4500 Y44.3860
G01 Z-2.5000
G01 Z0
G00 Z2.0000
G00 X10.1080 Y41.3890
G01 Z-2.5000
G01 Z0
G00 Z2.0000
G00 X15.8230 Y33.0580
G01 Z-2.5000
G01 Z0
G00 Z2.0000
G00 X20.9030 Y33.0580
G01 Z-2.5000
G01 Z0
G00 Z2.0000
G00 X11.2620 Y6.4310
G01 Z-2.5000
G01 Z0
G00 Z2.0000
G00 X16.4690 Y6.4310
G01 Z-2.5000
G01 Z0
G00 Z2.0000
G00 X21.6760 Y6.4310
G01 Z-2.5000
G01 Z0
G00 Z2.0000
G00 X26.6290 Y6.4310
G01 Z-2.5000
G01 Z0
G00 Z2.0000
G00 X31.7090 Y6.4310
G01 Z-2.5000
G01 Z0
G00 Z2.0000
G00 X36.7890 Y6.4310
G01 Z-2.5000
G01 Z0
G00 Z2.0000
G00 X41.8690 Y6.4310
G01 Z-2.5000
G01 Z0
G00 Z2.0000
G00 X42.0610 Y44.4880
G01 Z-2.5000
G01 Z0
G00 Z2.0000
G00 X36.8800 Y44.4400
G01 Z-2.5000
G01 Z0
G00 Z2.0000
G00 X31.8500 Y44.4370
G01 Z-2.5000
G01 Z0
G00 Z2.0000
G00 X26.7700 Y44.4370
G01 Z-2.5000
G01 Z0
G00 Z2.0000
G00 X21.7410 Y44.4370
G01 Z-2.5000
G01 Z0
G00 Z2.0000
G00 X16.6610 Y44.4370
G01 Z-2.5000
G01 Z0
G00 Z2.0000
G00 X15.1880 Y41.3890
G01 Z-2.5000
G01 Z0
G00 Z2.0000
G00 X11.5300 Y44.4030
G01 Z-2.5000
G01 Z0
G00 Z2.0000
G01 F200.00

M5
G00 Z45.0000
T2
G00 X0.0000 Y0.0000                
M6
(MSG, Change to Tool Dia = 1.0000 ||| Total drills for tool T2 = 124)
M0
G00 Z45.0000

G01 F200.00
M03
G00 X3.3520 Y46.7740
G01 Z-2.5000
G01 Z0
G00 Z2.0000
G00 X3.3520 Y44.2340
G01 Z-2.5000
G01 Z0
G00 Z2.0000
G00 X3.3520 Y41.6940
G01 Z-2.5000
G01 Z0
G00 Z2.0000
G00 X5.6580 Y35.9790
G01 Z-2.5000
G01 Z0
G00 Z2.0000
G00 X5.6630 Y33.4390
G01 Z-2.5000
G01 Z0
G00 Z2.0000
G00 X5.6630 Y30.8990
G01 Z-2.5000
G01 Z0
G00 Z2.0000
G00 X5.6630 Y28.3590
G01 Z-2.5000
G01 Z0
G00 Z2.0000
G00 X5.6630 Y25.8190
G01 Z-2.5000
G01 Z0
G00 Z2.0000
G00 X5.6630 Y23.2790
G01 Z-2.5000
G01 Z0
G00 Z2.0000
G00 X5.6630 Y20.7390
G01 Z-2.5000
G01 Z0
G00 Z2.0000
G00 X8.2030 Y20.7390
G01 Z-2.5000
G01 Z0
G00 Z2.0000
G00 X9.7520 Y3.1370
G01 Z-2.5000
G01 Z0
G00 Z2.0000
G00 X12.2920 Y3.1370
G01 Z-2.5000
G01 Z0
G00 Z2.0000
G00 X14.8320 Y3.1370
G01 Z-2.5000
G01 Z0
G00 Z2.0000
G00 X22.3050 Y3.1120
G01 Z-2.5000
G01 Z0
G00 Z2.0000
G00 X24.8450 Y3.1120
G01 Z-2.5000
G01 Z0
G00 Z2.0000
G00 X27.3850 Y3.1120
G01 Z-2.5000
G01 Z0
G00 Z2.0000
G00 X29.9250 Y3.1120
G01 Z-2.5000
G01 Z0
G00 Z2.0000
G00 X32.4650 Y3.1120
G01 Z-2.5000
G01 Z0
G00 Z2.0000
G00 X35.0050 Y3.1120
G01 Z-2.5000
G01 Z0
G00 Z2.0000
G00 X37.5450 Y3.1120
G01 Z-2.5000
G01 Z0
G00 Z2.0000
G00 X46.3030 Y3.0860
G01 Z-2.5000
G01 Z0
G00 Z2.0000
G00 X48.8430 Y3.0860
G01 Z-2.5000
G01 Z0
G00 Z2.0000
G00 X51.3830 Y3.0860
G01 Z-2.5000
G01 Z0
G00 Z2.0000
G00 X53.9230 Y3.0860
G01 Z-2.5000
G01 Z0
G00 Z2.0000
G00 X56.4630 Y3.0860
G01 Z-2.5000
G01 Z0
G00 Z2.0000
G00 X59.0030 Y3.0860
G01 Z-2.5000
G01 Z0
G00 Z2.0000
G00 X61.5430 Y3.0860
G01 Z-2.5000
G01 Z0
G00 Z2.0000
G00 X64.0830 Y3.0860
G01 Z-2.5000
G01 Z0
G00 Z2.0000
G00 X66.6230 Y3.0860
G01 Z-2.5000
G01 Z0
G00 Z2.0000
G00 X69.1630 Y3.0860
G01 Z-2.5000
G01 Z0
G00 Z2.0000
G00 X71.7030 Y3.0860
G01 Z-2.5000
G01 Z0
G00 Z2.0000
G00 X74.2430 Y3.0860
G01 Z-2.5000
G01 Z0
G00 Z2.0000
G00 X76.7830 Y3.0860
G01 Z-2.5000
G01 Z0
G00 Z2.0000
G00 X79.3230 Y3.0860
G01 Z-2.5000
G01 Z0
G00 Z2.0000
G00 X79.3230 Y20.7390
G01 Z-2.5000
G01 Z0
G00 Z2.0000
G00 X79.3230 Y29.6290
G01 Z-2.5000
G01 Z0
G00 Z2.0000
G00 X79.3230 Y27.0890
G01 Z-2.5000
G01 Z0
G00 Z2.0000
G00 X76.7830 Y20.7390
G01 Z-2.5000
G01 Z0
G00 Z2.0000
G00 X74.2430 Y20.7390
G01 Z-2.5000
G01 Z0
G00 Z2.0000
G00 X71.7030 Y20.7390
G01 Z-2.5000
G01 Z0
G00 Z2.0000
G00 X69.1630 Y20.7390
G01 Z-2.5000
G01 Z0
G00 Z2.0000
G00 X66.6230 Y20.7390
G01 Z-2.5000
G01 Z0
G00 Z2.0000
G00 X64.0830 Y20.7390
G01 Z-2.5000
G01 Z0
G00 Z2.0000
G00 X61.5430 Y20.7390
G01 Z-2.5000
G01 Z0
G00 Z2.0000
G00 X59.0030 Y20.7390
G01 Z-2.5000
G01 Z0
G00 Z2.0000
G00 X56.4630 Y20.7390
G01 Z-2.5000
G01 Z0
G00 Z2.0000
G00 X53.9230 Y20.7390
G01 Z-2.5000
G01 Z0
G00 Z2.0000
G00 X51.3830 Y20.7390
G01 Z-2.5000
G01 Z0
G00 Z2.0000
G00 X48.8430 Y20.7390
G01 Z-2.5000
G01 Z0
G00 Z2.0000
G00 X46.3030 Y20.7390
G01 Z-2.5000
G01 Z0
G00 Z2.0000
G00 X43.7630 Y20.7390
G01 Z-2.5000
G01 Z0
G00 Z2.0000
G00 X41.2230 Y20.7390
G01 Z-2.5000
G01 Z0
G00 Z2.0000
G00 X38.6830 Y20.7390
G01 Z-2.5000
G01 Z0
G00 Z2.0000
G00 X36.1430 Y20.7390
G01 Z-2.5000
G01 Z0
G00 Z2.0000
G00 X33.6030 Y20.7390
G01 Z-2.5000
G01 Z0
G00 Z2.0000
G00 X31.0630 Y20.7390
G01 Z-2.5000
G01 Z0
G00 Z2.0000
G00 X28.5230 Y20.7390
G01 Z-2.5000
G01 Z0
G00 Z2.0000
G00 X25.9830 Y20.7390
G01 Z-2.5000
G01 Z0
G00 Z2.0000
G00 X23.4430 Y20.7390
G01 Z-2.5000
G01 Z0
G00 Z2.0000
G00 X20.9030 Y20.7390
G01 Z-2.5000
G01 Z0
G00 Z2.0000
G00 X18.3630 Y20.7390
G01 Z-2.5000
G01 Z0
G00 Z2.0000
G00 X15.8230 Y20.7390
G01 Z-2.5000
G01 Z0
G00 Z2.0000
G00 X13.2830 Y20.7390
G01 Z-2.5000
G01 Z0
G00 Z2.0000
G00 X10.7430 Y20.7390
G01 Z-2.5000
G01 Z0
G00 Z2.0000
G00 X8.1980 Y35.9790
G01 Z-2.5000
G01 Z0
G00 Z2.0000
G00 X10.7380 Y35.9790
G01 Z-2.5000
G01 Z0
G00 Z2.0000
G00 X13.2780 Y35.9790
G01 Z-2.5000
G01 Z0
G00 Z2.0000
G00 X15.8180 Y35.9790
G01 Z-2.5000
G01 Z0
G00 Z2.0000
G00 X18.3580 Y35.9790
G01 Z-2.5000
G01 Z0
G00 Z2.0000
G00 X20.8980 Y35.9790
G01 Z-2.5000
G01 Z0
G00 Z2.0000
G00 X23.4380 Y35.9790
G01 Z-2.5000
G01 Z0
G00 Z2.0000
G00 X25.9780 Y35.9790
G01 Z-2.5000
G01 Z0
G00 Z2.0000
G00 X28.5180 Y35.9790
G01 Z-2.5000
G01 Z0
G00 Z2.0000
G00 X31.0580 Y35.9790
G01 Z-2.5000
G01 Z0
G00 Z2.0000
G00 X33.5980 Y35.9790
G01 Z-2.5000
G01 Z0
G00 Z2.0000
G00 X36.1380 Y35.9790
G01 Z-2.5000
G01 Z0
G00 Z2.0000
G00 X38.6780 Y35.9790
G01 Z-2.5000
G01 Z0
G00 Z2.0000
G00 X41.2180 Y35.9790
G01 Z-2.5000
G01 Z0
G00 Z2.0000
G00 X43.7580 Y35.9790
G01 Z-2.5000
G01 Z0
G00 Z2.0000
G00 X46.2980 Y35.9790
G01 Z-2.5000
G01 Z0
G00 Z2.0000
G00 X48.8380 Y35.9790
G01 Z-2.5000
G01 Z0
G00 Z2.0000
G00 X51.3780 Y35.9790
G01 Z-2.5000
G01 Z0
G00 Z2.0000
G00 X53.9180 Y35.9790
G01 Z-2.5000
G01 Z0
G00 Z2.0000
G00 X56.4580 Y35.9790
G01 Z-2.5000
G01 Z0
G00 Z2.0000
G00 X58.9980 Y35.9790
G01 Z-2.5000
G01 Z0
G00 Z2.0000
G00 X61.5380 Y35.9790
G01 Z-2.5000
G01 Z0
G00 Z2.0000
G00 X64.0780 Y35.9790
G01 Z-2.5000
G01 Z0
G00 Z2.0000
G00 X66.6180 Y35.9790
G01 Z-2.5000
G01 Z0
G00 Z2.0000
G00 X69.1580 Y35.9790
G01 Z-2.5000
G01 Z0
G00 Z2.0000
G00 X71.6980 Y35.9790
G01 Z-2.5000
G01 Z0
G00 Z2.0000
G00 X74.2380 Y35.9790
G01 Z-2.5000
G01 Z0
G00 Z2.0000
G00 X76.7780 Y35.9790
G01 Z-2.5000
G01 Z0
G00 Z2.0000
G00 X79.3180 Y35.9790
G01 Z-2.5000
G01 Z0
G00 Z2.0000
G00 X79.3480 Y39.8140
G01 Z-2.5000
G01 Z0
G00 Z2.0000
G00 X79.3480 Y42.3540
G01 Z-2.5000
G01 Z0
G00 Z2.0000
G00 X79.3480 Y44.8940
G01 Z-2.5000
G01 Z0
G00 Z2.0000
G00 X79.3480 Y47.4340
G01 Z-2.5000
G01 Z0
G00 Z2.0000
G00 X79.3480 Y49.9740
G01 Z-2.5000
G01 Z0
G00 Z2.0000
G00 X79.3330 Y53.7590
G01 Z-2.5000
G01 Z0
G00 Z2.0000
G00 X76.7930 Y53.7590
G01 Z-2.5000
G01 Z0
G00 Z2.0000
G00 X74.2530 Y53.7590
G01 Z-2.5000
G01 Z0
G00 Z2.0000
G00 X71.7130 Y53.7590
G01 Z-2.5000
G01 Z0
G00 Z2.0000
G00 X69.1730 Y53.7590
G01 Z-2.5000
G01 Z0
G00 Z2.0000
G00 X66.6330 Y53.7590
G01 Z-2.5000
G01 Z0
G00 Z2.0000
G00 X64.0930 Y53.7590
G01 Z-2.5000
G01 Z0
G00 Z2.0000
G00 X61.5530 Y53.7590
G01 Z-2.5000
G01 Z0
G00 Z2.0000
G00 X59.0130 Y53.7590
G01 Z-2.5000
G01 Z0
G00 Z2.0000
G00 X56.4730 Y53.7590
G01 Z-2.5000
G01 Z0
G00 Z2.0000
G00 X53.9330 Y53.7590
G01 Z-2.5000
G01 Z0
G00 Z2.0000
G00 X51.3930 Y53.7590
G01 Z-2.5000
G01 Z0
G00 Z2.0000
G00 X48.8530 Y53.7590
G01 Z-2.5000
G01 Z0
G00 Z2.0000
G00 X46.3130 Y53.7590
G01 Z-2.5000
G01 Z0
G00 Z2.0000
G00 X39.4700 Y53.8350
G01 Z-2.5000
G01 Z0
G00 Z2.0000
G00 X36.9300 Y53.8350
G01 Z-2.5000
G01 Z0
G00 Z2.0000
G00 X34.3900 Y53.8350
G01 Z-2.5000
G01 Z0
G00 Z2.0000
G00 X31.8500 Y53.8350
G01 Z-2.5000
G01 Z0
G00 Z2.0000
G00 X29.3100 Y53.8350
G01 Z-2.5000
G01 Z0
G00 Z2.0000
G00 X26.7700 Y53.8350
G01 Z-2.5000
G01 Z0
G00 Z2.0000
G00 X24.2300 Y53.8350
G01 Z-2.5000
G01 Z0
G00 Z2.0000
G00 X21.6900 Y53.8350
G01 Z-2.5000
G01 Z0
G00 Z2.0000
G00 X14.7920 Y53.7590
G01 Z-2.5000
G01 Z0
G00 Z2.0000
G00 X12.2520 Y53.7590
G01 Z-2.5000
G01 Z0
G00 Z2.0000
G00 X9.7120 Y53.7590
G01 Z-2.5000
G01 Z0
G00 Z2.0000
M05
G00 Z10.00


