(G-CODE GENERATED BY FLATCAM v8.994 - www.flatcam.org - Version Date: 2020/11/7)

(Name: kaugummi_motherboard-F_Cu.gbr_iso_combined_cnc)
(Type: G-code from Geometry)
(Units: MM)

(Created on Sonntag, 02 Januar 2022 at 17:00)

(This preprocessor is the default preprocessor used by FlatCAM.)
(It is made to work with MACH3 compatible motion controllers.)

(TOOL DIAMETER: 0.4 mm)
(Feedrate_XY: 120.0 mm/min)
(Feedrate_Z: 60.0 mm/min)
(Feedrate rapids 1500.0 mm/min)

(Z_Cut: -0.3621 mm)
(Z_Move: 2.0 mm)
(Z Start: None mm)
(Z End: 15.0 mm)
(X,Y End: None mm)
(Steps per circle: 64)
(Preprocessor Geometry: default)

(X range:    2.3016 ...   80.3984  mm)
(Y range:    0.9087 ...   54.8852  mm)

(Spindle Speed: 0.0 RPM)
G21
G90
G94

G01 F120.00

M5
G00 Z15.0000
G00 X0.0000 Y0.0000
T1
M6    
(MSG, Change to Tool Dia = 0.4000)
M0
G00 Z15.0000

M03
G01 F120.00
G00 X7.4478 Y8.4981
G01 F60.00
G01 Z-0.3621
G01 F120.00
G01 X7.4370 Y8.4553
G01 X7.4318 Y8.4214
G01 X7.4301 Y8.4067
G01 X7.4284 Y8.3675
G01 X7.4284 Y7.4675
G01 X7.4306 Y7.4234
G01 X7.4370 Y7.3797
G01 X7.4478 Y7.3369
G01 X7.4591 Y7.3045
G01 X7.4646 Y7.2908
G01 X7.4815 Y7.2554
G01 X7.5016 Y7.2216
G01 X7.5099 Y7.2095
G01 X7.5305 Y7.1820
G01 X7.5568 Y7.1528
G01 X7.5637 Y7.1459
G01 X7.5855 Y7.1261
G01 X7.6007 Y7.1136
G01 X7.6284 Y7.0933
G01 X7.6620 Y7.0730
G01 X7.6706 Y7.0684
G01 X7.6972 Y7.0557
G01 X7.7108 Y7.0499
G01 X7.7478 Y7.0369
G01 X7.7783 Y7.0290
G01 X7.7783 Y6.5436
G01 X7.7800 Y6.5044
G01 X7.7816 Y6.4897
G01 X7.7869 Y6.4558
G01 X7.7963 Y6.4177
G01 X7.7991 Y6.4083
G01 X7.8090 Y6.3805
G01 X7.8145 Y6.3668
G01 X7.8314 Y6.3314
G01 X7.8515 Y6.2976
G01 X7.8569 Y6.2895
G01 X7.8744 Y6.2658
G01 X7.8869 Y6.2506
G01 X7.9101 Y6.2253
G01 X9.5467 Y4.5887
G01 X9.5794 Y4.5590
G01 X9.6069 Y4.5384
G01 X9.6190 Y4.5301
G01 X9.6528 Y4.5100
G01 X9.6927 Y4.4911
G01 X9.7297 Y4.4777
G01 X9.7438 Y4.4736
G01 X9.7772 Y4.4655
G01 X9.8111 Y4.4602
G01 X9.8258 Y4.4586
G01 X9.8601 Y4.4569
G01 X11.4566 Y4.4569
G01 X11.8334 Y4.0801
G01 X11.8062 Y4.0672
G01 X11.7931 Y4.0605
G01 X11.7132 Y4.0125
G01 X11.7010 Y4.0042
G01 X11.6340 Y3.9545
G01 X11.6225 Y3.9453
G01 X11.5499 Y3.8793
G01 X11.4872 Y3.8103
G01 X11.4747 Y3.7952
G01 X11.4221 Y3.7242
G01 X11.4141 Y3.7119
G01 X11.3664 Y3.6318
G01 X11.3263 Y3.5476
G01 X11.3188 Y3.5295
G01 X11.2876 Y3.4416
G01 X11.2647 Y3.3512
G01 X11.2609 Y3.3320
G01 X11.2480 Y3.2446
G01 X11.2467 Y3.2299
G01 X11.2424 Y3.1368
G01 X11.2467 Y3.0437
G01 X11.2487 Y3.0241
G01 X11.2626 Y2.9320
G01 X11.2850 Y2.8415
G01 X11.2907 Y2.8227
G01 X11.3223 Y2.7350
G01 X11.3620 Y2.6506
G01 X11.3712 Y2.6333
G01 X11.4194 Y2.5535
G01 X11.4747 Y2.4784
G01 X11.4872 Y2.4633
G01 X11.5499 Y2.3943
G01 X11.6189 Y2.3316
G01 X11.6301 Y2.3221
G01 X11.7091 Y2.2638
G01 X11.7974 Y2.2108
G01 X11.8906 Y2.1667
G01 X11.9783 Y2.1351
G01 X11.9971 Y2.1294
G01 X12.0780 Y2.1091
G01 X12.0972 Y2.1053
G01 X12.1895 Y2.0919
G01 X12.2924 Y2.0868
G01 X12.3953 Y2.0919
G01 X12.4972 Y2.1070
G01 X12.5972 Y2.1320
G01 X12.6851 Y2.1632
G01 X12.7032 Y2.1707
G01 X12.7786 Y2.2064
G01 X12.7959 Y2.2156
G01 X12.8757 Y2.2638
G01 X12.9508 Y2.3191
G01 X12.9659 Y2.3316
G01 X13.0349 Y2.3943
G01 X13.0976 Y2.4633
G01 X13.1101 Y2.4784
G01 X13.1598 Y2.5454
G01 X13.1707 Y2.5617
G01 X13.2184 Y2.6418
G01 X13.2585 Y2.7260
G01 X13.2660 Y2.7441
G01 X13.2972 Y2.8320
G01 X13.3201 Y2.9224
G01 X13.3239 Y2.9416
G01 X13.3373 Y3.0339
G01 X13.3422 Y3.1270
G01 X13.3422 Y3.1466
G01 X13.3373 Y3.2397
G01 X13.3239 Y3.3320
G01 X13.3201 Y3.3512
G01 X13.2972 Y3.4416
G01 X13.2660 Y3.5295
G01 X13.2585 Y3.5476
G01 X13.2184 Y3.6318
G01 X13.1707 Y3.7119
G01 X13.1598 Y3.7282
G01 X13.1071 Y3.7991
G01 X13.0976 Y3.8103
G01 X13.0349 Y3.8793
G01 X12.9659 Y3.9420
G01 X12.9547 Y3.9515
G01 X12.8838 Y4.0042
G01 X12.8716 Y4.0125
G01 X12.7917 Y4.0605
G01 X12.7786 Y4.0672
G01 X12.7425 Y4.0843
G01 X12.7425 Y4.2576
G01 X12.7411 Y4.2919
G01 X12.7398 Y4.3066
G01 X12.7348 Y4.3406
G01 X12.7317 Y4.3550
G01 X12.7245 Y4.3835
G01 X12.7201 Y4.3976
G01 X12.7083 Y4.4299
G01 X12.6916 Y4.4654
G01 X12.6845 Y4.4783
G01 X12.6667 Y4.5077
G01 X12.6464 Y4.5354
G01 X12.6372 Y4.5469
G01 X12.6133 Y4.5732
G01 X11.9542 Y5.2321
G01 X11.9323 Y5.2518
G01 X11.9208 Y5.2610
G01 X11.8931 Y5.2813
G01 X11.8637 Y5.2991
G01 X11.8508 Y5.3062
G01 X11.8153 Y5.3229
G01 X11.7737 Y5.3377
G01 X11.7356 Y5.3475
G01 X11.7211 Y5.3502
G01 X11.6871 Y5.3550
G01 X11.6430 Y5.3571
G01 X10.0514 Y5.3571
G01 X8.6785 Y6.7300
G01 X8.6785 Y6.9072
G01 X8.6865 Y6.9168
G01 X8.7070 Y6.9444
G01 X8.7150 Y6.9567
G01 X8.7301 Y6.9820
G01 X8.7369 Y6.9951
G01 X8.7494 Y7.0217
G01 X8.7532 Y7.0308
G01 X8.7627 Y7.0572
G01 X8.7905 Y7.0706
G01 X8.8243 Y7.0907
G01 X8.8325 Y7.0961
G01 X8.8561 Y7.1136
G01 X8.8676 Y7.1228
G01 X8.8966 Y7.1493
G01 X8.9198 Y7.1746
G01 X8.9293 Y7.1859
G01 X8.9526 Y7.2175
G01 X8.9729 Y7.2511
G01 X8.9797 Y7.2641
G01 X8.9941 Y7.2953
G01 X9.0059 Y7.3276
G01 X9.0104 Y7.3416
G01 X9.0198 Y7.3797
G01 X9.0257 Y7.4185
G01 X9.0270 Y7.4332
G01 X9.0284 Y7.4675
G01 X9.0284 Y8.3675
G01 X9.0262 Y8.4116
G01 X9.0214 Y8.4456
G01 X9.0187 Y8.4601
G01 X9.0090 Y8.4981
G01 X8.9977 Y8.5305
G01 X8.9922 Y8.5442
G01 X8.9775 Y8.5753
G01 X8.9704 Y8.5882
G01 X8.9526 Y8.6175
G01 X8.9293 Y8.6491
G01 X8.9198 Y8.6604
G01 X8.8966 Y8.6857
G01 X8.8713 Y8.7089
G01 X8.8600 Y8.7184
G01 X8.8284 Y8.7417
G01 X8.7948 Y8.7620
G01 X8.7818 Y8.7688
G01 X8.7506 Y8.7832
G01 X8.7160 Y8.7958
G01 X8.7160 Y9.2931
G01 X8.7293 Y9.2965
G01 X8.7387 Y9.2994
G01 X8.7664 Y9.3092
G01 X8.7801 Y9.3147
G01 X8.8155 Y9.3316
G01 X8.8493 Y9.3517
G01 X8.8575 Y9.3571
G01 X8.8811 Y9.3746
G01 X8.8963 Y9.3871
G01 X8.9216 Y9.4103
G01 X8.9481 Y9.4393
G01 X8.9543 Y9.4469
G01 X8.9719 Y9.4705
G01 X8.9828 Y9.4868
G01 X9.0003 Y9.5164
G01 X9.0191 Y9.5563
G01 X9.0340 Y9.5979
G01 X9.0426 Y9.6311
G01 X9.0464 Y9.6504
G01 X9.0507 Y9.6795
G01 X9.0517 Y9.6893
G01 X9.0534 Y9.7285
G01 X9.0534 Y10.6785
G01 X9.0520 Y10.7128
G01 X9.0500 Y10.7324
G01 X9.0457 Y10.7615
G01 X9.0426 Y10.7759
G01 X9.0340 Y10.8091
G01 X9.0191 Y10.8507
G01 X9.0003 Y10.8906
G01 X8.9828 Y10.9202
G01 X8.9719 Y10.9365
G01 X8.9543 Y10.9601
G01 X8.9485 Y10.9672
G01 X8.9485 Y11.5785
G01 X8.9925 Y11.5807
G01 X9.0362 Y11.5871
G01 X9.0790 Y11.5979
G01 X9.1206 Y11.6128
G01 X9.1605 Y11.6316
G01 X9.1984 Y11.6543
G01 X9.2339 Y11.6806
G01 X9.2595 Y11.7035
G01 X9.2700 Y11.7138
G01 X9.2898 Y11.7356
G01 X9.3023 Y11.7508
G01 X9.3198 Y11.7744
G01 X9.3252 Y11.7826
G01 X9.3429 Y11.8121
G01 X9.3497 Y11.8251
G01 X9.3622 Y11.8518
G01 X9.3660 Y11.8609
G01 X9.3759 Y11.8886
G01 X9.3804 Y11.9026
G01 X9.3898 Y11.9407
G01 X9.3950 Y11.9746
G01 X9.3967 Y11.9893
G01 X9.3984 Y12.0285
G01 X9.3983 Y12.7334
G01 X9.3967 Y12.7677
G01 X9.3950 Y12.7824
G01 X9.3898 Y12.8163
G01 X9.3804 Y12.8544
G01 X9.3759 Y12.8684
G01 X9.3641 Y12.9007
G01 X9.3475 Y12.9363
G01 X9.3404 Y12.9492
G01 X9.3226 Y12.9785
G01 X9.3023 Y13.0062
G01 X9.2931 Y13.0177
G01 X9.2700 Y13.0432
G01 X9.2595 Y13.0535
G01 X9.2339 Y13.0764
G01 X9.2064 Y13.0970
G01 X9.1943 Y13.1053
G01 X9.1648 Y13.1230
G01 X9.1518 Y13.1298
G01 X9.1206 Y13.1442
G01 X9.0883 Y13.1560
G01 X9.0743 Y13.1605
G01 X9.0458 Y13.1677
G01 X9.0265 Y13.1715
G01 X8.9925 Y13.1763
G01 X8.9484 Y13.1785
G01 X8.0484 Y13.1785
G01 X8.0043 Y13.1763
G01 X7.9606 Y13.1699
G01 X7.9225 Y13.1605
G01 X7.9085 Y13.1560
G01 X7.8762 Y13.1442
G01 X7.8450 Y13.1298
G01 X7.8320 Y13.1230
G01 X7.7984 Y13.1027
G01 X7.7668 Y13.0794
G01 X7.7555 Y13.0699
G01 X7.7302 Y13.0467
G01 X7.7070 Y13.0214
G01 X7.6975 Y13.0101
G01 X7.6742 Y12.9785
G01 X7.6539 Y12.9449
G01 X7.6471 Y12.9319
G01 X7.6327 Y12.9007
G01 X7.6209 Y12.8684
G01 X7.6152 Y12.8497
G01 X7.6081 Y12.8211
G01 X7.6061 Y12.8115
G01 X7.6006 Y12.7726
G01 X7.5985 Y12.7334
G01 X7.5985 Y12.0236
G01 X7.5998 Y11.9942
G01 X7.6011 Y11.9795
G01 X7.6061 Y11.9455
G01 X7.6092 Y11.9311
G01 X7.6178 Y11.8979
G01 X7.6327 Y11.8563
G01 X7.6515 Y11.8164
G01 X7.6690 Y11.7868
G01 X7.6770 Y11.7744
G01 X7.6945 Y11.7508
G01 X7.7070 Y11.7356
G01 X7.7302 Y11.7103
G01 X7.7629 Y11.6806
G01 X7.7984 Y11.6543
G01 X7.8277 Y11.6365
G01 X7.8406 Y11.6294
G01 X7.8672 Y11.6167
G01 X7.8854 Y11.6092
G01 X7.9178 Y11.5979
G01 X7.9606 Y11.5871
G01 X8.0043 Y11.5807
G01 X8.0483 Y11.5785
G01 X8.0483 Y11.1285
G01 X7.9186 Y11.1283
G01 X7.8843 Y11.1263
G01 X7.8406 Y11.1199
G01 X7.7978 Y11.1091
G01 X7.7562 Y11.0942
G01 X7.7163 Y11.0754
G01 X7.6825 Y11.0553
G01 X7.6704 Y11.0470
G01 X7.6429 Y11.0264
G01 X7.6102 Y10.9967
G01 X7.5805 Y10.9640
G01 X7.5542 Y10.9285
G01 X7.5315 Y10.8906
G01 X7.5127 Y10.8507
G01 X7.4978 Y10.8091
G01 X7.4881 Y10.7711
G01 X7.4854 Y10.7566
G01 X7.4806 Y10.7226
G01 X7.4784 Y10.6785
G01 X7.4784 Y9.7285
G01 X7.4806 Y9.6844
G01 X7.4861 Y9.6455
G01 X7.4881 Y9.6359
G01 X7.4952 Y9.6073
G01 X7.5009 Y9.5886
G01 X7.5127 Y9.5563
G01 X7.5315 Y9.5164
G01 X7.5516 Y9.4826
G01 X7.5599 Y9.4705
G01 X7.5805 Y9.4430
G01 X7.6068 Y9.4138
G01 X7.6137 Y9.4069
G01 X7.6355 Y9.3871
G01 X7.6507 Y9.3746
G01 X7.6784 Y9.3543
G01 X7.7120 Y9.3340
G01 X7.7206 Y9.3294
G01 X7.7472 Y9.3167
G01 X7.7608 Y9.3109
G01 X7.7931 Y9.2994
G01 X7.8025 Y9.2965
G01 X7.8158 Y9.2931
G01 X7.8158 Y8.8128
G01 X7.7906 Y8.8089
G01 X7.7525 Y8.7995
G01 X7.7431 Y8.7966
G01 X7.7154 Y8.7868
G01 X7.7017 Y8.7813
G01 X7.6663 Y8.7644
G01 X7.6367 Y8.7469
G01 X7.6204 Y8.7360
G01 X7.5968 Y8.7184
G01 X7.5892 Y8.7122
G01 X7.5602 Y8.6857
G01 X7.5370 Y8.6604
G01 X7.5275 Y8.6491
G01 X7.5042 Y8.6175
G01 X7.4815 Y8.5796
G01 X7.4666 Y8.5487
G01 X7.4608 Y8.5351
G01 X7.4478 Y8.4981
G00 Z2.0000
G00 X10.2649 Y11.8924
G01 F60.00
G01 Z-0.3621
G01 F120.00
G01 X10.2779 Y11.8554
G01 X10.2837 Y11.8418
G01 X10.2986 Y11.8109
G01 X10.3213 Y11.7730
G01 X10.3476 Y11.7375
G01 X10.3705 Y11.7119
G01 X10.3808 Y11.7014
G01 X10.4026 Y11.6816
G01 X10.4178 Y11.6691
G01 X10.4455 Y11.6488
G01 X10.4834 Y11.6261
G01 X10.5233 Y11.6073
G01 X10.5556 Y11.5955
G01 X10.5696 Y11.5910
G01 X10.5981 Y11.5838
G01 X10.6174 Y11.5800
G01 X10.6514 Y11.5752
G01 X10.6954 Y11.5730
G01 X10.6954 Y11.0665
G01 X10.6676 Y11.0498
G01 X10.6555 Y11.0415
G01 X10.6280 Y11.0209
G01 X10.6024 Y10.9980
G01 X10.5919 Y10.9877
G01 X10.5656 Y10.9585
G01 X10.5393 Y10.9230
G01 X10.5166 Y10.8851
G01 X10.4997 Y10.8497
G01 X10.4942 Y10.8360
G01 X10.4829 Y10.8036
G01 X10.4743 Y10.7704
G01 X10.4712 Y10.7560
G01 X10.4662 Y10.7220
G01 X10.4649 Y10.7073
G01 X10.4635 Y10.6730
G01 X10.4637 Y9.7132
G01 X10.4657 Y9.6789
G01 X10.4721 Y9.6352
G01 X10.4829 Y9.5924
G01 X10.4942 Y9.5600
G01 X10.5017 Y9.5418
G01 X10.5144 Y9.5152
G01 X10.5190 Y9.5066
G01 X10.5393 Y9.4730
G01 X10.5626 Y9.4414
G01 X10.5721 Y9.4301
G01 X10.5919 Y9.4083
G01 X10.5988 Y9.4014
G01 X10.6206 Y9.3816
G01 X10.6358 Y9.3691
G01 X10.6594 Y9.3516
G01 X10.6676 Y9.3462
G01 X10.7014 Y9.3261
G01 X10.7368 Y9.3092
G01 X10.7505 Y9.3037
G01 X10.7782 Y9.2939
G01 X10.7876 Y9.2910
G01 X10.8009 Y9.2876
G01 X10.8009 Y8.7903
G01 X10.7663 Y8.7777
G01 X10.7351 Y8.7633
G01 X10.7221 Y8.7565
G01 X10.6885 Y8.7362
G01 X10.6569 Y8.7129
G01 X10.6456 Y8.7034
G01 X10.6203 Y8.6802
G01 X10.5938 Y8.6512
G01 X10.5846 Y8.6397
G01 X10.5671 Y8.6161
G01 X10.5617 Y8.6079
G01 X10.5416 Y8.5741
G01 X10.5267 Y8.5432
G01 X10.5209 Y8.5296
G01 X10.5079 Y8.4926
G01 X10.4982 Y8.4546
G01 X10.4955 Y8.4401
G01 X10.4907 Y8.4061
G01 X10.4885 Y8.3620
G01 X10.4885 Y7.4620
G01 X10.4907 Y7.4179
G01 X10.4971 Y7.3742
G01 X10.5079 Y7.3314
G01 X10.5228 Y7.2898
G01 X10.5372 Y7.2586
G01 X10.5440 Y7.2456
G01 X10.5617 Y7.2161
G01 X10.5671 Y7.2079
G01 X10.5846 Y7.1843
G01 X10.5938 Y7.1728
G01 X10.6135 Y7.1509
G01 X10.6276 Y7.1369
G01 X10.5974 Y7.1095
G01 X10.5868 Y7.0992
G01 X10.5308 Y7.0374
G01 X10.5216 Y7.0259
G01 X10.4778 Y6.9668
G01 X10.4694 Y6.9547
G01 X10.4290 Y6.8874
G01 X10.4198 Y6.8701
G01 X10.3843 Y6.7945
G01 X10.3544 Y6.7114
G01 X10.3503 Y6.6973
G01 X10.3303 Y6.6163
G01 X10.3178 Y6.5339
G01 X10.3159 Y6.5143
G01 X10.3120 Y6.4310
G01 X10.3159 Y6.3477
G01 X10.3178 Y6.3281
G01 X10.3294 Y6.2505
G01 X10.3324 Y6.2361
G01 X10.3529 Y6.1552
G01 X10.3843 Y6.0675
G01 X10.4242 Y5.9832
G01 X10.4721 Y5.9032
G01 X10.5276 Y5.8283
G01 X10.5902 Y5.7592
G01 X10.6593 Y5.6966
G01 X10.7342 Y5.6411
G01 X10.8142 Y5.5932
G01 X10.8985 Y5.5533
G01 X10.9862 Y5.5219
G01 X11.0767 Y5.4993
G01 X11.1689 Y5.4856
G01 X11.2620 Y5.4810
G01 X11.3551 Y5.4856
G01 X11.4425 Y5.4984
G01 X11.4569 Y5.5014
G01 X11.5283 Y5.5193
G01 X11.5471 Y5.5250
G01 X11.6255 Y5.5533
G01 X11.7098 Y5.5932
G01 X11.7898 Y5.6411
G01 X11.8569 Y5.6906
G01 X11.8721 Y5.7031
G01 X11.9266 Y5.7525
G01 X11.9405 Y5.7664
G01 X11.9964 Y5.8283
G01 X12.0519 Y5.9032
G01 X12.0998 Y5.9832
G01 X12.1357 Y6.0585
G01 X12.1432 Y6.0766
G01 X12.1680 Y6.1459
G01 X12.1737 Y6.1647
G01 X12.1937 Y6.2457
G01 X12.2062 Y6.3281
G01 X12.2078 Y6.3428
G01 X12.2120 Y6.4310
G01 X12.2081 Y6.5143
G01 X12.2062 Y6.5339
G01 X12.1937 Y6.6163
G01 X12.1737 Y6.6973
G01 X12.1680 Y6.7161
G01 X12.1432 Y6.7854
G01 X12.1357 Y6.8035
G01 X12.0998 Y6.8788
G01 X12.0519 Y6.9588
G01 X11.9964 Y7.0337
G01 X11.9405 Y7.0956
G01 X11.9338 Y7.1028
G01 X11.9227 Y7.1131
G01 X11.9314 Y7.1206
G01 X11.9567 Y7.1438
G01 X11.9864 Y7.1765
G01 X12.0127 Y7.2120
G01 X12.0354 Y7.2499
G01 X12.0542 Y7.2898
G01 X12.0691 Y7.3314
G01 X12.0799 Y7.3742
G01 X12.0858 Y7.4130
G01 X12.0871 Y7.4277
G01 X12.0885 Y7.4620
G01 X12.0885 Y8.3620
G01 X12.0863 Y8.4061
G01 X12.0799 Y8.4498
G01 X12.0691 Y8.4926
G01 X12.0578 Y8.5250
G01 X12.0523 Y8.5387
G01 X12.0354 Y8.5741
G01 X12.0127 Y8.6120
G01 X11.9924 Y8.6397
G01 X11.9799 Y8.6549
G01 X11.9601 Y8.6767
G01 X11.9532 Y8.6836
G01 X11.9240 Y8.7099
G01 X11.8965 Y8.7305
G01 X11.8802 Y8.7414
G01 X11.8549 Y8.7565
G01 X11.8463 Y8.7611
G01 X11.8107 Y8.7777
G01 X11.7738 Y8.7911
G01 X11.7597 Y8.7952
G01 X11.7311 Y8.8023
G01 X11.7215 Y8.8043
G01 X11.7011 Y8.8073
G01 X11.7011 Y9.2876
G01 X11.7144 Y9.2910
G01 X11.7238 Y9.2939
G01 X11.7561 Y9.3054
G01 X11.7697 Y9.3112
G01 X11.7963 Y9.3239
G01 X11.8049 Y9.3285
G01 X11.8385 Y9.3488
G01 X11.8662 Y9.3691
G01 X11.8814 Y9.3816
G01 X11.9032 Y9.4014
G01 X11.9101 Y9.4083
G01 X11.9364 Y9.4375
G01 X11.9570 Y9.4650
G01 X11.9653 Y9.4771
G01 X11.9854 Y9.5109
G01 X12.0042 Y9.5508
G01 X12.0160 Y9.5831
G01 X12.0217 Y9.6018
G01 X12.0288 Y9.6304
G01 X12.0308 Y9.6400
G01 X12.0363 Y9.6789
G01 X12.0385 Y9.7230
G01 X12.0385 Y10.6730
G01 X12.0371 Y10.7073
G01 X12.0358 Y10.7220
G01 X12.0299 Y10.7608
G01 X12.0191 Y10.8036
G01 X12.0042 Y10.8452
G01 X11.9876 Y10.8808
G01 X11.9805 Y10.8937
G01 X11.9653 Y10.9189
G01 X11.9599 Y10.9271
G01 X11.9424 Y10.9507
G01 X11.9299 Y10.9659
G01 X11.9101 Y10.9877
G01 X11.8996 Y10.9980
G01 X11.8740 Y11.0209
G01 X11.8385 Y11.0472
G01 X11.8006 Y11.0699
G01 X11.7607 Y11.0887
G01 X11.7191 Y11.1036
G01 X11.6763 Y11.1144
G01 X11.6326 Y11.1208
G01 X11.5956 Y11.1229
G01 X11.5956 Y11.5730
G01 X11.6396 Y11.5752
G01 X11.6833 Y11.5816
G01 X11.7261 Y11.5924
G01 X11.7585 Y11.6037
G01 X11.7767 Y11.6112
G01 X11.8033 Y11.6239
G01 X11.8162 Y11.6310
G01 X11.8455 Y11.6488
G01 X11.8810 Y11.6751
G01 X11.9137 Y11.7048
G01 X11.9369 Y11.7301
G01 X11.9494 Y11.7453
G01 X11.9669 Y11.7689
G01 X11.9749 Y11.7813
G01 X11.9924 Y11.8109
G01 X12.0112 Y11.8508
G01 X12.0261 Y11.8924
G01 X12.0369 Y11.9352
G01 X12.0433 Y11.9789
G01 X12.0455 Y12.0230
G01 X12.0455 Y12.7230
G01 X12.0438 Y12.7622
G01 X12.0421 Y12.7769
G01 X12.0369 Y12.8108
G01 X12.0275 Y12.8489
G01 X12.0230 Y12.8629
G01 X12.0112 Y12.8952
G01 X11.9968 Y12.9264
G01 X11.9900 Y12.9394
G01 X11.9723 Y12.9689
G01 X11.9640 Y12.9810
G01 X11.9434 Y13.0085
G01 X11.9137 Y13.0412
G01 X11.8810 Y13.0709
G01 X11.8496 Y13.0944
G01 X11.8372 Y13.1024
G01 X11.8076 Y13.1199
G01 X11.7767 Y13.1348
G01 X11.7631 Y13.1406
G01 X11.7308 Y13.1521
G01 X11.7167 Y13.1562
G01 X11.6833 Y13.1644
G01 X11.6494 Y13.1696
G01 X11.6347 Y13.1713
G01 X11.5955 Y13.1730
G01 X10.6955 Y13.1730
G01 X10.6612 Y13.1716
G01 X10.6465 Y13.1703
G01 X10.6077 Y13.1644
G01 X10.5743 Y13.1562
G01 X10.5602 Y13.1521
G01 X10.5279 Y13.1406
G01 X10.5143 Y13.1348
G01 X10.4834 Y13.1199
G01 X10.4496 Y13.0998
G01 X10.4375 Y13.0915
G01 X10.4100 Y13.0709
G01 X10.3773 Y13.0412
G01 X10.3476 Y13.0085
G01 X10.3213 Y12.9730
G01 X10.2986 Y12.9351
G01 X10.2798 Y12.8952
G01 X10.2649 Y12.8536
G01 X10.2552 Y12.8156
G01 X10.2525 Y12.8011
G01 X10.2477 Y12.7671
G01 X10.2455 Y12.7230
G01 X10.2456 Y12.0181
G01 X10.2477 Y11.9789
G01 X10.2525 Y11.9449
G01 X10.2552 Y11.9304
G01 X10.2649 Y11.8924
G00 Z2.0000
G00 X10.2649 Y13.8924
G01 F60.00
G01 Z-0.3621
G01 F120.00
G01 X10.2779 Y13.8554
G01 X10.2837 Y13.8418
G01 X10.2986 Y13.8109
G01 X10.3213 Y13.7730
G01 X10.3446 Y13.7414
G01 X10.3541 Y13.7301
G01 X10.3773 Y13.7048
G01 X10.4100 Y13.6751
G01 X10.4414 Y13.6516
G01 X10.4538 Y13.6436
G01 X10.4834 Y13.6261
G01 X10.5233 Y13.6073
G01 X10.5649 Y13.5924
G01 X10.5981 Y13.5838
G01 X10.6125 Y13.5807
G01 X10.6416 Y13.5764
G01 X10.6612 Y13.5744
G01 X10.6955 Y13.5730
G01 X11.6004 Y13.5731
G01 X11.6347 Y13.5747
G01 X11.6494 Y13.5764
G01 X11.6833 Y13.5816
G01 X11.7167 Y13.5898
G01 X11.7308 Y13.5939
G01 X11.7677 Y13.6073
G01 X11.8033 Y13.6239
G01 X11.8162 Y13.6310
G01 X11.8455 Y13.6488
G01 X11.8771 Y13.6721
G01 X11.8884 Y13.6816
G01 X11.9102 Y13.7014
G01 X11.9171 Y13.7083
G01 X11.9434 Y13.7375
G01 X11.9640 Y13.7650
G01 X11.9723 Y13.7771
G01 X11.9924 Y13.8109
G01 X12.0073 Y13.8418
G01 X12.0131 Y13.8554
G01 X12.0261 Y13.8924
G01 X12.0340 Y13.9229
G01 X12.6700 Y13.9229
G01 X12.6779 Y13.8924
G01 X12.6928 Y13.8508
G01 X12.7116 Y13.8109
G01 X12.7291 Y13.7813
G01 X12.7400 Y13.7650
G01 X12.7576 Y13.7414
G01 X12.7638 Y13.7338
G01 X12.7903 Y13.7048
G01 X12.8193 Y13.6783
G01 X12.8269 Y13.6721
G01 X12.8505 Y13.6545
G01 X12.8668 Y13.6436
G01 X12.8964 Y13.6261
G01 X12.9363 Y13.6073
G01 X12.9779 Y13.5924
G01 X13.0111 Y13.5838
G01 X13.0255 Y13.5807
G01 X13.0644 Y13.5752
G01 X13.1085 Y13.5730
G01 X14.0085 Y13.5730
G01 X14.0477 Y13.5747
G01 X14.0575 Y13.5757
G01 X14.0866 Y13.5800
G01 X14.1059 Y13.5838
G01 X14.1391 Y13.5924
G01 X14.1807 Y13.6073
G01 X14.2206 Y13.6261
G01 X14.2502 Y13.6436
G01 X14.2626 Y13.6516
G01 X14.2862 Y13.6691
G01 X14.3014 Y13.6816
G01 X14.3267 Y13.7048
G01 X14.3564 Y13.7375
G01 X14.3827 Y13.7730
G01 X14.4054 Y13.8109
G01 X14.4242 Y13.8508
G01 X14.4391 Y13.8924
G01 X14.4499 Y13.9352
G01 X14.4558 Y13.9740
G01 X14.4571 Y13.9887
G01 X14.4585 Y14.0230
G01 X14.4584 Y14.7279
G01 X14.4568 Y14.7622
G01 X14.4551 Y14.7769
G01 X14.4499 Y14.8108
G01 X14.4405 Y14.8489
G01 X14.4360 Y14.8629
G01 X14.4242 Y14.8952
G01 X14.4076 Y14.9308
G01 X14.4005 Y14.9437
G01 X14.3853 Y14.9689
G01 X14.3799 Y14.9771
G01 X14.3624 Y15.0007
G01 X14.3532 Y15.0122
G01 X14.3301 Y15.0377
G01 X14.3232 Y15.0446
G01 X14.3014 Y15.0644
G01 X14.2862 Y15.0769
G01 X14.2626 Y15.0944
G01 X14.2502 Y15.1024
G01 X14.2206 Y15.1199
G01 X14.1807 Y15.1387
G01 X14.1391 Y15.1536
G01 X14.0963 Y15.1644
G01 X14.0526 Y15.1708
G01 X14.0183 Y15.1728
G01 X13.9031 Y15.1730
G01 X13.9031 Y15.6376
G01 X13.9164 Y15.6410
G01 X13.9258 Y15.6439
G01 X13.9535 Y15.6537
G01 X13.9672 Y15.6592
G01 X14.0026 Y15.6761
G01 X14.0364 Y15.6962
G01 X14.0446 Y15.7016
G01 X14.0682 Y15.7191
G01 X14.0834 Y15.7316
G01 X14.1087 Y15.7548
G01 X14.1352 Y15.7838
G01 X14.1414 Y15.7914
G01 X14.1590 Y15.8150
G01 X14.1699 Y15.8313
G01 X14.1874 Y15.8609
G01 X14.2062 Y15.9008
G01 X14.2211 Y15.9424
G01 X14.2297 Y15.9756
G01 X14.2328 Y15.9900
G01 X14.2383 Y16.0289
G01 X14.2405 Y16.0730
G01 X14.2405 Y17.0230
G01 X14.2388 Y17.0622
G01 X14.2378 Y17.0720
G01 X14.2335 Y17.1011
G01 X14.2297 Y17.1204
G01 X14.2211 Y17.1536
G01 X14.2062 Y17.1952
G01 X14.1874 Y17.2351
G01 X14.1699 Y17.2647
G01 X14.1619 Y17.2771
G01 X14.1444 Y17.3007
G01 X14.1319 Y17.3159
G01 X14.1087 Y17.3412
G01 X14.0834 Y17.3644
G01 X14.0721 Y17.3739
G01 X14.0485 Y17.3915
G01 X14.0364 Y17.3998
G01 X14.0069 Y17.4175
G01 X13.9983 Y17.4221
G01 X13.9717 Y17.4348
G01 X13.9581 Y17.4406
G01 X13.9258 Y17.4521
G01 X13.9117 Y17.4562
G01 X13.8831 Y17.4633
G01 X13.8686 Y17.4660
G01 X13.8395 Y17.4703
G01 X13.8297 Y17.4713
G01 X13.8003 Y17.4728
G01 X13.1155 Y17.4730
G01 X13.0714 Y17.4708
G01 X13.0325 Y17.4653
G01 X13.0181 Y17.4622
G01 X12.9849 Y17.4536
G01 X12.9433 Y17.4387
G01 X12.9034 Y17.4199
G01 X12.8738 Y17.4024
G01 X12.8614 Y17.3944
G01 X12.8378 Y17.3769
G01 X12.8226 Y17.3644
G01 X12.7973 Y17.3412
G01 X12.7676 Y17.3085
G01 X12.7413 Y17.2730
G01 X12.7186 Y17.2351
G01 X12.6998 Y17.1952
G01 X12.6849 Y17.1536
G01 X12.6741 Y17.1108
G01 X12.6682 Y17.0720
G01 X12.6669 Y17.0573
G01 X12.6655 Y17.0230
G01 X12.6655 Y16.0730
G01 X12.6672 Y16.0338
G01 X12.6682 Y16.0240
G01 X12.6725 Y15.9949
G01 X12.6763 Y15.9756
G01 X12.6849 Y15.9424
G01 X12.6998 Y15.9008
G01 X12.7186 Y15.8609
G01 X12.7361 Y15.8313
G01 X12.7470 Y15.8150
G01 X12.7646 Y15.7914
G01 X12.7708 Y15.7838
G01 X12.7973 Y15.7548
G01 X12.8226 Y15.7316
G01 X12.8378 Y15.7191
G01 X12.8614 Y15.7016
G01 X12.8696 Y15.6962
G01 X12.9034 Y15.6761
G01 X12.9388 Y15.6592
G01 X12.9525 Y15.6537
G01 X12.9802 Y15.6439
G01 X12.9896 Y15.6410
G01 X13.0029 Y15.6376
G01 X13.0029 Y15.1601
G01 X12.9779 Y15.1536
G01 X12.9409 Y15.1406
G01 X12.9273 Y15.1348
G01 X12.9007 Y15.1221
G01 X12.8921 Y15.1175
G01 X12.8585 Y15.0972
G01 X12.8308 Y15.0769
G01 X12.8193 Y15.0677
G01 X12.7903 Y15.0412
G01 X12.7638 Y15.0122
G01 X12.7546 Y15.0007
G01 X12.7343 Y14.9730
G01 X12.7140 Y14.9394
G01 X12.7094 Y14.9308
G01 X12.6967 Y14.9042
G01 X12.6909 Y14.8906
G01 X12.6779 Y14.8536
G01 X12.6700 Y14.8231
G01 X12.0340 Y14.8231
G01 X12.0261 Y14.8536
G01 X12.0112 Y14.8952
G01 X11.9924 Y14.9351
G01 X11.9749 Y14.9647
G01 X11.9640 Y14.9810
G01 X11.9464 Y15.0046
G01 X11.9402 Y15.0122
G01 X11.9137 Y15.0412
G01 X11.8884 Y15.0644
G01 X11.8732 Y15.0769
G01 X11.8496 Y15.0944
G01 X11.8414 Y15.0998
G01 X11.8076 Y15.1199
G01 X11.7722 Y15.1368
G01 X11.7585 Y15.1423
G01 X11.7308 Y15.1521
G01 X11.7214 Y15.1550
G01 X11.6833 Y15.1644
G01 X11.6494 Y15.1696
G01 X11.6347 Y15.1713
G01 X11.5955 Y15.1730
G01 X10.6906 Y15.1729
G01 X10.6514 Y15.1708
G01 X10.6174 Y15.1660
G01 X10.6029 Y15.1633
G01 X10.5743 Y15.1562
G01 X10.5602 Y15.1521
G01 X10.5279 Y15.1406
G01 X10.5143 Y15.1348
G01 X10.4834 Y15.1199
G01 X10.4538 Y15.1024
G01 X10.4414 Y15.0944
G01 X10.4178 Y15.0769
G01 X10.4063 Y15.0677
G01 X10.3773 Y15.0412
G01 X10.3476 Y15.0085
G01 X10.3241 Y14.9771
G01 X10.3161 Y14.9647
G01 X10.2986 Y14.9351
G01 X10.2837 Y14.9042
G01 X10.2779 Y14.8906
G01 X10.2649 Y14.8536
G01 X10.2541 Y14.8108
G01 X10.2477 Y14.7671
G01 X10.2455 Y14.7230
G01 X10.2455 Y14.0230
G01 X10.2472 Y13.9838
G01 X10.2489 Y13.9691
G01 X10.2541 Y13.9352
G01 X10.2649 Y13.8924
G00 Z2.0000
G00 X10.6099 Y15.9424
G01 F60.00
G01 Z-0.3621
G01 F120.00
G01 X10.6229 Y15.9054
G01 X10.6287 Y15.8918
G01 X10.6436 Y15.8609
G01 X10.6663 Y15.8230
G01 X10.6896 Y15.7914
G01 X10.6991 Y15.7801
G01 X10.7223 Y15.7548
G01 X10.7550 Y15.7251
G01 X10.7864 Y15.7016
G01 X10.7988 Y15.6936
G01 X10.8284 Y15.6761
G01 X10.8683 Y15.6573
G01 X10.9099 Y15.6424
G01 X10.9431 Y15.6338
G01 X10.9575 Y15.6307
G01 X10.9866 Y15.6264
G01 X11.0062 Y15.6244
G01 X11.0405 Y15.6230
G01 X11.7155 Y15.6230
G01 X11.7596 Y15.6252
G01 X11.8033 Y15.6316
G01 X11.8461 Y15.6424
G01 X11.8877 Y15.6573
G01 X11.9276 Y15.6761
G01 X11.9614 Y15.6962
G01 X11.9735 Y15.7045
G01 X11.9971 Y15.7221
G01 X12.0084 Y15.7316
G01 X12.0337 Y15.7548
G01 X12.0569 Y15.7801
G01 X12.0664 Y15.7914
G01 X12.0869 Y15.8189
G01 X12.0949 Y15.8313
G01 X12.1100 Y15.8566
G01 X12.1168 Y15.8696
G01 X12.1312 Y15.9008
G01 X12.1430 Y15.9331
G01 X12.1475 Y15.9471
G01 X12.1558 Y15.9804
G01 X12.1585 Y15.9949
G01 X12.1633 Y16.0289
G01 X12.1653 Y16.0632
G01 X12.1655 Y17.0230
G01 X12.1633 Y17.0671
G01 X12.1578 Y17.1060
G01 X12.1547 Y17.1204
G01 X12.1475 Y17.1489
G01 X12.1446 Y17.1583
G01 X12.1312 Y17.1952
G01 X12.1168 Y17.2264
G01 X12.1100 Y17.2394
G01 X12.0897 Y17.2730
G01 X12.0664 Y17.3046
G01 X12.0569 Y17.3159
G01 X12.0337 Y17.3412
G01 X12.0084 Y17.3644
G01 X11.9971 Y17.3739
G01 X11.9655 Y17.3972
G01 X11.9319 Y17.4175
G01 X11.9189 Y17.4243
G01 X11.8877 Y17.4387
G01 X11.8516 Y17.4519
G01 X13.6013 Y19.2015
G01 X13.6310 Y19.2342
G01 X13.6545 Y19.2657
G01 X13.6625 Y19.2780
G01 X13.6800 Y19.3076
G01 X13.6949 Y19.3386
G01 X13.7007 Y19.3521
G01 X13.7137 Y19.3891
G01 X13.7223 Y19.4224
G01 X13.7254 Y19.4368
G01 X13.7310 Y19.4757
G01 X13.7331 Y19.5149
G01 X13.7331 Y19.7915
G01 X13.7692 Y19.8086
G01 X13.7823 Y19.8153
G01 X13.8622 Y19.8633
G01 X13.8744 Y19.8716
G01 X13.9453 Y19.9243
G01 X13.9565 Y19.9338
G01 X14.0255 Y19.9965
G01 X14.0915 Y20.0691
G01 X14.1007 Y20.0806
G01 X14.1560 Y20.1557
G01 X14.2090 Y20.2440
G01 X14.2531 Y20.3372
G01 X14.2847 Y20.4249
G01 X14.2892 Y20.4389
G01 X14.3128 Y20.5342
G01 X14.3279 Y20.6361
G01 X14.3330 Y20.7390
G01 X14.3287 Y20.8321
G01 X14.3267 Y20.8517
G01 X14.3145 Y20.9342
G01 X14.3107 Y20.9534
G01 X14.2878 Y21.0438
G01 X14.2531 Y21.1408
G01 X14.2090 Y21.2340
G01 X14.1613 Y21.3141
G01 X14.1504 Y21.3304
G01 X14.1007 Y21.3974
G01 X14.0882 Y21.4125
G01 X14.0255 Y21.4815
G01 X13.9491 Y21.5507
G01 X13.8663 Y21.6120
G01 X13.7823 Y21.6627
G01 X13.7692 Y21.6694
G01 X13.6848 Y21.7091
G01 X13.5878 Y21.7438
G01 X13.4878 Y21.7688
G01 X13.3859 Y21.7839
G01 X13.2830 Y21.7890
G01 X13.1801 Y21.7839
G01 X13.0782 Y21.7688
G01 X12.9782 Y21.7438
G01 X12.8812 Y21.7091
G01 X12.7880 Y21.6650
G01 X12.6997 Y21.6120
G01 X12.6169 Y21.5507
G01 X12.5405 Y21.4815
G01 X12.4713 Y21.4051
G01 X12.4100 Y21.3223
G01 X12.3593 Y21.2383
G01 X12.3526 Y21.2252
G01 X12.3129 Y21.1408
G01 X12.2782 Y21.0438
G01 X12.2532 Y20.9438
G01 X12.2381 Y20.8419
G01 X12.2330 Y20.7390
G01 X12.2381 Y20.6361
G01 X12.2532 Y20.5342
G01 X12.2782 Y20.4342
G01 X12.3129 Y20.3372
G01 X12.3570 Y20.2440
G01 X12.4100 Y20.1557
G01 X12.4683 Y20.0767
G01 X12.4778 Y20.0655
G01 X12.5405 Y19.9965
G01 X12.6095 Y19.9338
G01 X12.6207 Y19.9243
G01 X12.6916 Y19.8716
G01 X12.7038 Y19.8633
G01 X12.7837 Y19.8153
G01 X12.7968 Y19.8086
G01 X12.8329 Y19.7915
G01 X12.8329 Y19.7062
G01 X11.0597 Y17.9331
G01 X11.0332 Y17.9041
G01 X11.0240 Y17.8926
G01 X11.0037 Y17.8649
G01 X10.9859 Y17.8355
G01 X10.9788 Y17.8226
G01 X10.9661 Y17.7960
G01 X10.9586 Y17.7779
G01 X10.9487 Y17.7501
G01 X10.9459 Y17.7407
G01 X10.9375 Y17.7074
G01 X10.9348 Y17.6929
G01 X10.9300 Y17.6589
G01 X10.9279 Y17.6197
G01 X10.9279 Y17.4584
G01 X10.9146 Y17.4550
G01 X10.9052 Y17.4521
G01 X10.8729 Y17.4406
G01 X10.8593 Y17.4348
G01 X10.8327 Y17.4221
G01 X10.8241 Y17.4175
G01 X10.7905 Y17.3972
G01 X10.7628 Y17.3769
G01 X10.7476 Y17.3644
G01 X10.7258 Y17.3446
G01 X10.7189 Y17.3377
G01 X10.6926 Y17.3085
G01 X10.6720 Y17.2810
G01 X10.6637 Y17.2689
G01 X10.6436 Y17.2351
G01 X10.6267 Y17.1997
G01 X10.6212 Y17.1860
G01 X10.6099 Y17.1536
G01 X10.5991 Y17.1108
G01 X10.5927 Y17.0671
G01 X10.5905 Y17.0230
G01 X10.5905 Y16.0730
G01 X10.5922 Y16.0338
G01 X10.5939 Y16.0191
G01 X10.5991 Y15.9852
G01 X10.6099 Y15.9424
G00 Z2.0000
G00 X10.6401 Y19.6941
G01 F60.00
G01 Z-0.3621
G01 F120.00
G01 X10.7430 Y19.6890
G01 X10.8459 Y19.6941
G01 X10.9478 Y19.7092
G01 X11.0478 Y19.7342
G01 X11.1448 Y19.7689
G01 X11.2380 Y19.8130
G01 X11.3263 Y19.8660
G01 X11.4091 Y19.9273
G01 X11.4855 Y19.9965
G01 X11.5547 Y20.0729
G01 X11.6160 Y20.1557
G01 X11.6690 Y20.2440
G01 X11.7131 Y20.3372
G01 X11.7478 Y20.4342
G01 X11.7728 Y20.5342
G01 X11.7879 Y20.6361
G01 X11.7930 Y20.7390
G01 X11.7879 Y20.8419
G01 X11.7728 Y20.9438
G01 X11.7478 Y21.0438
G01 X11.7131 Y21.1408
G01 X11.6690 Y21.2340
G01 X11.6160 Y21.3223
G01 X11.5547 Y21.4051
G01 X11.4855 Y21.4815
G01 X11.4091 Y21.5507
G01 X11.3263 Y21.6120
G01 X11.2380 Y21.6650
G01 X11.1448 Y21.7091
G01 X11.0478 Y21.7438
G01 X10.9478 Y21.7688
G01 X10.8459 Y21.7839
G01 X10.7430 Y21.7890
G01 X10.6401 Y21.7839
G01 X10.5382 Y21.7688
G01 X10.4382 Y21.7438
G01 X10.3412 Y21.7091
G01 X10.2480 Y21.6650
G01 X10.1597 Y21.6120
G01 X10.0769 Y21.5507
G01 X10.0005 Y21.4815
G01 X9.9313 Y21.4051
G01 X9.8700 Y21.3223
G01 X9.8170 Y21.2340
G01 X9.7729 Y21.1408
G01 X9.7382 Y21.0438
G01 X9.7132 Y20.9438
G01 X9.6981 Y20.8419
G01 X9.6930 Y20.7390
G01 X9.6981 Y20.6361
G01 X9.7132 Y20.5342
G01 X9.7382 Y20.4342
G01 X9.7729 Y20.3372
G01 X9.8170 Y20.2440
G01 X9.8700 Y20.1557
G01 X9.9313 Y20.0729
G01 X10.0005 Y19.9965
G01 X10.0769 Y19.9273
G01 X10.1597 Y19.8660
G01 X10.2480 Y19.8130
G01 X10.3412 Y19.7689
G01 X10.4382 Y19.7342
G01 X10.5382 Y19.7092
G01 X10.6401 Y19.6941
G00 Z2.0000
G00 X15.7201 Y19.6941
G01 F60.00
G01 Z-0.3621
G01 F120.00
G01 X15.8230 Y19.6890
G01 X15.9259 Y19.6941
G01 X16.0278 Y19.7092
G01 X16.1278 Y19.7342
G01 X16.2248 Y19.7689
G01 X16.3180 Y19.8130
G01 X16.4063 Y19.8660
G01 X16.4891 Y19.9273
G01 X16.5655 Y19.9965
G01 X16.6347 Y20.0729
G01 X16.6960 Y20.1557
G01 X16.7490 Y20.2440
G01 X16.7931 Y20.3372
G01 X16.8278 Y20.4342
G01 X16.8528 Y20.5342
G01 X16.8679 Y20.6361
G01 X16.8730 Y20.7390
G01 X16.8679 Y20.8419
G01 X16.8528 Y20.9438
G01 X16.8278 Y21.0438
G01 X16.7931 Y21.1408
G01 X16.7490 Y21.2340
G01 X16.6960 Y21.3223
G01 X16.6347 Y21.4051
G01 X16.5655 Y21.4815
G01 X16.4891 Y21.5507
G01 X16.4063 Y21.6120
G01 X16.3180 Y21.6650
G01 X16.2248 Y21.7091
G01 X16.1278 Y21.7438
G01 X16.0278 Y21.7688
G01 X15.9259 Y21.7839
G01 X15.8230 Y21.7890
G01 X15.7201 Y21.7839
G01 X15.6182 Y21.7688
G01 X15.5182 Y21.7438
G01 X15.4212 Y21.7091
G01 X15.3280 Y21.6650
G01 X15.2397 Y21.6120
G01 X15.1569 Y21.5507
G01 X15.0805 Y21.4815
G01 X15.0113 Y21.4051
G01 X14.9500 Y21.3223
G01 X14.8970 Y21.2340
G01 X14.8529 Y21.1408
G01 X14.8182 Y21.0438
G01 X14.7932 Y20.9438
G01 X14.7781 Y20.8419
G01 X14.7730 Y20.7390
G01 X14.7781 Y20.6361
G01 X14.7932 Y20.5342
G01 X14.8182 Y20.4342
G01 X14.8529 Y20.3372
G01 X14.8970 Y20.2440
G01 X14.9500 Y20.1557
G01 X15.0113 Y20.0729
G01 X15.0805 Y19.9965
G01 X15.1569 Y19.9273
G01 X15.2397 Y19.8660
G01 X15.3280 Y19.8130
G01 X15.4212 Y19.7689
G01 X15.5182 Y19.7342
G01 X15.6182 Y19.7092
G01 X15.7201 Y19.6941
G00 Z2.0000
G00 X15.6899 Y15.9424
G01 F60.00
G01 Z-0.3621
G01 F120.00
G01 X15.7029 Y15.9054
G01 X15.7087 Y15.8918
G01 X15.7236 Y15.8609
G01 X15.7463 Y15.8230
G01 X15.7696 Y15.7914
G01 X15.7791 Y15.7801
G01 X15.8023 Y15.7548
G01 X15.8350 Y15.7251
G01 X15.8664 Y15.7016
G01 X15.8788 Y15.6936
G01 X15.9084 Y15.6761
G01 X15.9483 Y15.6573
G01 X15.9899 Y15.6424
G01 X16.0231 Y15.6338
G01 X16.0375 Y15.6307
G01 X16.0666 Y15.6264
G01 X16.0862 Y15.6244
G01 X16.1205 Y15.6230
G01 X16.7955 Y15.6230
G01 X16.8396 Y15.6252
G01 X16.8833 Y15.6316
G01 X16.9261 Y15.6424
G01 X16.9677 Y15.6573
G01 X17.0076 Y15.6761
G01 X17.0414 Y15.6962
G01 X17.0535 Y15.7045
G01 X17.0771 Y15.7221
G01 X17.0884 Y15.7316
G01 X17.1137 Y15.7548
G01 X17.1369 Y15.7801
G01 X17.1464 Y15.7914
G01 X17.1669 Y15.8189
G01 X17.1749 Y15.8313
G01 X17.1900 Y15.8566
G01 X17.1968 Y15.8696
G01 X17.2112 Y15.9008
G01 X17.2230 Y15.9331
G01 X17.2275 Y15.9471
G01 X17.2358 Y15.9804
G01 X17.2385 Y15.9949
G01 X17.2433 Y16.0289
G01 X17.2453 Y16.0632
G01 X17.2455 Y17.0230
G01 X17.2433 Y17.0671
G01 X17.2369 Y17.1108
G01 X17.2275 Y17.1489
G01 X17.2230 Y17.1629
G01 X17.2112 Y17.1952
G01 X17.1968 Y17.2264
G01 X17.1900 Y17.2394
G01 X17.1723 Y17.2689
G01 X17.1640 Y17.2810
G01 X17.1434 Y17.3085
G01 X17.1137 Y17.3412
G01 X17.0884 Y17.3644
G01 X17.0771 Y17.3739
G01 X17.0496 Y17.3944
G01 X17.0356 Y17.4034
G01 X18.6813 Y19.0491
G01 X18.7045 Y19.0744
G01 X18.7140 Y19.0857
G01 X18.7373 Y19.1173
G01 X18.7551 Y19.1467
G01 X18.7622 Y19.1596
G01 X18.7789 Y19.1951
G01 X18.7923 Y19.2321
G01 X18.7964 Y19.2462
G01 X18.8045 Y19.2796
G01 X18.8098 Y19.3135
G01 X18.8114 Y19.3282
G01 X18.8131 Y19.3674
G01 X18.8131 Y19.7915
G01 X18.8492 Y19.8086
G01 X18.8623 Y19.8153
G01 X18.9422 Y19.8633
G01 X18.9544 Y19.8716
G01 X19.0253 Y19.9243
G01 X19.0365 Y19.9338
G01 X19.1055 Y19.9965
G01 X19.1715 Y20.0691
G01 X19.1807 Y20.0806
G01 X19.2360 Y20.1557
G01 X19.2890 Y20.2440
G01 X19.3331 Y20.3372
G01 X19.3647 Y20.4249
G01 X19.3692 Y20.4389
G01 X19.3928 Y20.5342
G01 X19.4079 Y20.6361
G01 X19.4130 Y20.7390
G01 X19.4087 Y20.8321
G01 X19.4067 Y20.8517
G01 X19.3945 Y20.9342
G01 X19.3907 Y20.9534
G01 X19.3678 Y21.0438
G01 X19.3331 Y21.1408
G01 X19.2890 Y21.2340
G01 X19.2413 Y21.3141
G01 X19.2304 Y21.3304
G01 X19.1807 Y21.3974
G01 X19.1682 Y21.4125
G01 X19.1055 Y21.4815
G01 X19.0291 Y21.5507
G01 X18.9463 Y21.6120
G01 X18.8623 Y21.6627
G01 X18.8492 Y21.6694
G01 X18.7648 Y21.7091
G01 X18.6678 Y21.7438
G01 X18.5678 Y21.7688
G01 X18.4659 Y21.7839
G01 X18.3630 Y21.7890
G01 X18.2601 Y21.7839
G01 X18.1582 Y21.7688
G01 X18.0582 Y21.7438
G01 X17.9612 Y21.7091
G01 X17.8680 Y21.6650
G01 X17.7797 Y21.6120
G01 X17.6969 Y21.5507
G01 X17.6205 Y21.4815
G01 X17.5513 Y21.4051
G01 X17.4900 Y21.3223
G01 X17.4393 Y21.2383
G01 X17.4326 Y21.2252
G01 X17.3929 Y21.1408
G01 X17.3582 Y21.0438
G01 X17.3332 Y20.9438
G01 X17.3181 Y20.8419
G01 X17.3130 Y20.7390
G01 X17.3181 Y20.6361
G01 X17.3332 Y20.5342
G01 X17.3568 Y20.4389
G01 X17.3613 Y20.4249
G01 X17.3929 Y20.3372
G01 X17.4370 Y20.2440
G01 X17.4900 Y20.1557
G01 X17.5453 Y20.0806
G01 X17.5545 Y20.0691
G01 X17.6205 Y19.9965
G01 X17.6895 Y19.9338
G01 X17.7007 Y19.9243
G01 X17.7716 Y19.8716
G01 X17.7838 Y19.8633
G01 X17.8637 Y19.8153
G01 X17.8768 Y19.8086
G01 X17.9129 Y19.7915
G01 X17.9129 Y19.5538
G01 X16.1363 Y17.7772
G01 X16.1100 Y17.7480
G01 X16.0837 Y17.7125
G01 X16.0610 Y17.6746
G01 X16.0421 Y17.6347
G01 X16.0273 Y17.5931
G01 X16.0165 Y17.5502
G01 X16.0100 Y17.5065
G01 X16.0081 Y17.4722
G01 X16.0079 Y17.4584
G01 X15.9946 Y17.4550
G01 X15.9806 Y17.4505
G01 X15.9529 Y17.4406
G01 X15.9393 Y17.4348
G01 X15.9127 Y17.4221
G01 X15.9041 Y17.4175
G01 X15.8746 Y17.3998
G01 X15.8625 Y17.3915
G01 X15.8389 Y17.3739
G01 X15.8313 Y17.3677
G01 X15.8094 Y17.3480
G01 X15.7989 Y17.3377
G01 X15.7791 Y17.3159
G01 X15.7696 Y17.3046
G01 X15.7491 Y17.2771
G01 X15.7411 Y17.2647
G01 X15.7236 Y17.2351
G01 X15.7087 Y17.2042
G01 X15.7029 Y17.1906
G01 X15.6899 Y17.1536
G01 X15.6802 Y17.1156
G01 X15.6775 Y17.1011
G01 X15.6727 Y17.0671
G01 X15.6707 Y17.0328
G01 X15.6706 Y16.0681
G01 X15.6727 Y16.0289
G01 X15.6775 Y15.9949
G01 X15.6802 Y15.9804
G01 X15.6899 Y15.9424
G00 Z2.0000
G00 X15.3449 Y13.8924
G01 F60.00
G01 Z-0.3621
G01 F120.00
G01 X15.3579 Y13.8554
G01 X15.3637 Y13.8418
G01 X15.3786 Y13.8109
G01 X15.4013 Y13.7730
G01 X15.4246 Y13.7414
G01 X15.4341 Y13.7301
G01 X15.4573 Y13.7048
G01 X15.4900 Y13.6751
G01 X15.5214 Y13.6516
G01 X15.5338 Y13.6436
G01 X15.5634 Y13.6261
G01 X15.6033 Y13.6073
G01 X15.6449 Y13.5924
G01 X15.6781 Y13.5838
G01 X15.6925 Y13.5807
G01 X15.7216 Y13.5764
G01 X15.7412 Y13.5744
G01 X15.7755 Y13.5730
G01 X16.6804 Y13.5731
G01 X16.7147 Y13.5747
G01 X16.7294 Y13.5764
G01 X16.7633 Y13.5816
G01 X16.7967 Y13.5898
G01 X16.8108 Y13.5939
G01 X16.8477 Y13.6073
G01 X16.8833 Y13.6239
G01 X16.8962 Y13.6310
G01 X16.9255 Y13.6488
G01 X16.9571 Y13.6721
G01 X16.9684 Y13.6816
G01 X16.9902 Y13.7014
G01 X16.9971 Y13.7083
G01 X17.0234 Y13.7375
G01 X17.0440 Y13.7650
G01 X17.0523 Y13.7771
G01 X17.0724 Y13.8109
G01 X17.0873 Y13.8418
G01 X17.0931 Y13.8554
G01 X17.1061 Y13.8924
G01 X17.1140 Y13.9229
G01 X17.8770 Y13.9229
G01 X17.8849 Y13.8924
G01 X17.8998 Y13.8508
G01 X17.9186 Y13.8109
G01 X17.9361 Y13.7813
G01 X17.9470 Y13.7650
G01 X17.9646 Y13.7414
G01 X17.9708 Y13.7338
G01 X17.9973 Y13.7048
G01 X18.0263 Y13.6783
G01 X18.0339 Y13.6721
G01 X18.0575 Y13.6545
G01 X18.0738 Y13.6436
G01 X18.1034 Y13.6261
G01 X18.1433 Y13.6073
G01 X18.1849 Y13.5924
G01 X18.2181 Y13.5838
G01 X18.2325 Y13.5807
G01 X18.2714 Y13.5752
G01 X18.3155 Y13.5730
G01 X19.2155 Y13.5730
G01 X19.2547 Y13.5747
G01 X19.2645 Y13.5757
G01 X19.2936 Y13.5800
G01 X19.3129 Y13.5838
G01 X19.3461 Y13.5924
G01 X19.3877 Y13.6073
G01 X19.4276 Y13.6261
G01 X19.4572 Y13.6436
G01 X19.4696 Y13.6516
G01 X19.4932 Y13.6691
G01 X19.5084 Y13.6816
G01 X19.5337 Y13.7048
G01 X19.5634 Y13.7375
G01 X19.5897 Y13.7730
G01 X19.6124 Y13.8109
G01 X19.6312 Y13.8508
G01 X19.6461 Y13.8924
G01 X19.6569 Y13.9352
G01 X19.6628 Y13.9740
G01 X19.6641 Y13.9887
G01 X19.6655 Y14.0230
G01 X19.6654 Y14.7279
G01 X19.6633 Y14.7671
G01 X19.6578 Y14.8060
G01 X19.6558 Y14.8156
G01 X19.6487 Y14.8442
G01 X19.6430 Y14.8629
G01 X19.6331 Y14.8906
G01 X19.6293 Y14.8997
G01 X19.6168 Y14.9264
G01 X19.6100 Y14.9394
G01 X19.5949 Y14.9647
G01 X19.5869 Y14.9771
G01 X19.5664 Y15.0046
G01 X19.5569 Y15.0159
G01 X19.5337 Y15.0412
G01 X19.5084 Y15.0644
G01 X19.4971 Y15.0739
G01 X19.4735 Y15.0915
G01 X19.4614 Y15.0998
G01 X19.4319 Y15.1175
G01 X19.4233 Y15.1221
G01 X19.3967 Y15.1348
G01 X19.3785 Y15.1423
G01 X19.3508 Y15.1521
G01 X19.3367 Y15.1562
G01 X19.3033 Y15.1644
G01 X19.2596 Y15.1708
G01 X19.2155 Y15.1730
G01 X18.9831 Y15.1730
G01 X18.9831 Y15.6376
G01 X18.9964 Y15.6410
G01 X19.0058 Y15.6439
G01 X19.0335 Y15.6537
G01 X19.0472 Y15.6592
G01 X19.0826 Y15.6761
G01 X19.1164 Y15.6962
G01 X19.1246 Y15.7016
G01 X19.1482 Y15.7191
G01 X19.1634 Y15.7316
G01 X19.1887 Y15.7548
G01 X19.2152 Y15.7838
G01 X19.2214 Y15.7914
G01 X19.2390 Y15.8150
G01 X19.2499 Y15.8313
G01 X19.2674 Y15.8609
G01 X19.2862 Y15.9008
G01 X19.3011 Y15.9424
G01 X19.3097 Y15.9756
G01 X19.3128 Y15.9900
G01 X19.3183 Y16.0289
G01 X19.3205 Y16.0730
G01 X19.3205 Y17.0230
G01 X19.3188 Y17.0622
G01 X19.3178 Y17.0720
G01 X19.3135 Y17.1011
G01 X19.3097 Y17.1204
G01 X19.3011 Y17.1536
G01 X19.2862 Y17.1952
G01 X19.2674 Y17.2351
G01 X19.2499 Y17.2647
G01 X19.2419 Y17.2771
G01 X19.2244 Y17.3007
G01 X19.2119 Y17.3159
G01 X19.1887 Y17.3412
G01 X19.1560 Y17.3709
G01 X19.1205 Y17.3972
G01 X19.0826 Y17.4199
G01 X19.0427 Y17.4387
G01 X19.0011 Y17.4536
G01 X18.9583 Y17.4644
G01 X18.9244 Y17.4696
G01 X18.9097 Y17.4713
G01 X18.8705 Y17.4730
G01 X18.1955 Y17.4730
G01 X18.1612 Y17.4716
G01 X18.1465 Y17.4703
G01 X18.1077 Y17.4644
G01 X18.0696 Y17.4550
G01 X18.0556 Y17.4505
G01 X18.0233 Y17.4387
G01 X17.9921 Y17.4243
G01 X17.9791 Y17.4175
G01 X17.9455 Y17.3972
G01 X17.9139 Y17.3739
G01 X17.9026 Y17.3644
G01 X17.8773 Y17.3412
G01 X17.8541 Y17.3159
G01 X17.8446 Y17.3046
G01 X17.8213 Y17.2730
G01 X17.7986 Y17.2351
G01 X17.7798 Y17.1952
G01 X17.7664 Y17.1583
G01 X17.7623 Y17.1442
G01 X17.7541 Y17.1108
G01 X17.7489 Y17.0769
G01 X17.7472 Y17.0622
G01 X17.7456 Y17.0279
G01 X17.7455 Y16.0730
G01 X17.7477 Y16.0289
G01 X17.7532 Y15.9900
G01 X17.7552 Y15.9804
G01 X17.7623 Y15.9518
G01 X17.7680 Y15.9331
G01 X17.7798 Y15.9008
G01 X17.7986 Y15.8609
G01 X17.8187 Y15.8271
G01 X17.8270 Y15.8150
G01 X17.8476 Y15.7875
G01 X17.8739 Y15.7583
G01 X17.8808 Y15.7514
G01 X17.9026 Y15.7316
G01 X17.9178 Y15.7191
G01 X17.9455 Y15.6988
G01 X17.9791 Y15.6785
G01 X17.9877 Y15.6739
G01 X18.0143 Y15.6612
G01 X18.0279 Y15.6554
G01 X18.0602 Y15.6439
G01 X18.0696 Y15.6410
G01 X18.0829 Y15.6376
G01 X18.0829 Y15.1079
G01 X18.0696 Y15.0998
G01 X18.0614 Y15.0944
G01 X18.0339 Y15.0739
G01 X18.0226 Y15.0644
G01 X18.0008 Y15.0446
G01 X17.9905 Y15.0341
G01 X17.9708 Y15.0122
G01 X17.9646 Y15.0046
G01 X17.9470 Y14.9810
G01 X17.9387 Y14.9689
G01 X17.9210 Y14.9394
G01 X17.9142 Y14.9264
G01 X17.9017 Y14.8997
G01 X17.8962 Y14.8860
G01 X17.8864 Y14.8583
G01 X17.8835 Y14.8489
G01 X17.8770 Y14.8231
G01 X17.1140 Y14.8231
G01 X17.1061 Y14.8536
G01 X17.0912 Y14.8952
G01 X17.0724 Y14.9351
G01 X17.0549 Y14.9647
G01 X17.0440 Y14.9810
G01 X17.0264 Y15.0046
G01 X17.0202 Y15.0122
G01 X16.9937 Y15.0412
G01 X16.9684 Y15.0644
G01 X16.9532 Y15.0769
G01 X16.9296 Y15.0944
G01 X16.9214 Y15.0998
G01 X16.8876 Y15.1199
G01 X16.8522 Y15.1368
G01 X16.8385 Y15.1423
G01 X16.8108 Y15.1521
G01 X16.8014 Y15.1550
G01 X16.7633 Y15.1644
G01 X16.7294 Y15.1696
G01 X16.7147 Y15.1713
G01 X16.6755 Y15.1730
G01 X15.7706 Y15.1729
G01 X15.7314 Y15.1708
G01 X15.6877 Y15.1644
G01 X15.6449 Y15.1536
G01 X15.6125 Y15.1423
G01 X15.5988 Y15.1368
G01 X15.5634 Y15.1199
G01 X15.5338 Y15.1024
G01 X15.5214 Y15.0944
G01 X15.4939 Y15.0739
G01 X15.4826 Y15.0644
G01 X15.4573 Y15.0412
G01 X15.4308 Y15.0122
G01 X15.4216 Y15.0007
G01 X15.4013 Y14.9730
G01 X15.3810 Y14.9394
G01 X15.3742 Y14.9264
G01 X15.3598 Y14.8952
G01 X15.3480 Y14.8629
G01 X15.3435 Y14.8489
G01 X15.3352 Y14.8156
G01 X15.3325 Y14.8011
G01 X15.3277 Y14.7671
G01 X15.3255 Y14.7230
G01 X15.3255 Y14.0230
G01 X15.3272 Y13.9838
G01 X15.3289 Y13.9691
G01 X15.3341 Y13.9352
G01 X15.3449 Y13.8924
G00 Z2.0000
G00 X20.4249 Y13.8924
G01 F60.00
G01 Z-0.3621
G01 F120.00
G01 X20.4379 Y13.8554
G01 X20.4437 Y13.8418
G01 X20.4586 Y13.8109
G01 X20.4813 Y13.7730
G01 X20.5046 Y13.7414
G01 X20.5141 Y13.7301
G01 X20.5373 Y13.7048
G01 X20.5700 Y13.6751
G01 X20.6014 Y13.6516
G01 X20.6138 Y13.6436
G01 X20.6434 Y13.6261
G01 X20.6833 Y13.6073
G01 X20.7249 Y13.5924
G01 X20.7581 Y13.5838
G01 X20.7725 Y13.5807
G01 X20.8016 Y13.5764
G01 X20.8212 Y13.5744
G01 X20.8555 Y13.5730
G01 X21.7604 Y13.5731
G01 X21.7947 Y13.5747
G01 X21.8094 Y13.5764
G01 X21.8433 Y13.5816
G01 X21.8767 Y13.5898
G01 X21.8908 Y13.5939
G01 X21.9277 Y13.6073
G01 X21.9633 Y13.6239
G01 X21.9762 Y13.6310
G01 X22.0055 Y13.6488
G01 X22.0371 Y13.6721
G01 X22.0484 Y13.6816
G01 X22.0702 Y13.7014
G01 X22.0771 Y13.7083
G01 X22.1034 Y13.7375
G01 X22.1240 Y13.7650
G01 X22.1323 Y13.7771
G01 X22.1524 Y13.8109
G01 X22.1673 Y13.8418
G01 X22.1731 Y13.8554
G01 X22.1861 Y13.8924
G01 X22.1940 Y13.9229
G01 X22.9570 Y13.9229
G01 X22.9649 Y13.8924
G01 X22.9798 Y13.8508
G01 X22.9986 Y13.8109
G01 X23.0161 Y13.7813
G01 X23.0270 Y13.7650
G01 X23.0446 Y13.7414
G01 X23.0508 Y13.7338
G01 X23.0773 Y13.7048
G01 X23.1063 Y13.6783
G01 X23.1139 Y13.6721
G01 X23.1375 Y13.6545
G01 X23.1538 Y13.6436
G01 X23.1834 Y13.6261
G01 X23.2233 Y13.6073
G01 X23.2649 Y13.5924
G01 X23.2981 Y13.5838
G01 X23.3125 Y13.5807
G01 X23.3514 Y13.5752
G01 X23.3955 Y13.5730
G01 X24.2955 Y13.5730
G01 X24.3347 Y13.5747
G01 X24.3445 Y13.5757
G01 X24.3736 Y13.5800
G01 X24.3929 Y13.5838
G01 X24.4261 Y13.5924
G01 X24.4677 Y13.6073
G01 X24.5076 Y13.6261
G01 X24.5372 Y13.6436
G01 X24.5496 Y13.6516
G01 X24.5732 Y13.6691
G01 X24.5884 Y13.6816
G01 X24.6137 Y13.7048
G01 X24.6434 Y13.7375
G01 X24.6697 Y13.7730
G01 X24.6924 Y13.8109
G01 X24.7112 Y13.8508
G01 X24.7261 Y13.8924
G01 X24.7369 Y13.9352
G01 X24.7428 Y13.9740
G01 X24.7441 Y13.9887
G01 X24.7455 Y14.0230
G01 X24.7454 Y14.7279
G01 X24.7433 Y14.7671
G01 X24.7378 Y14.8060
G01 X24.7358 Y14.8156
G01 X24.7287 Y14.8442
G01 X24.7230 Y14.8629
G01 X24.7131 Y14.8906
G01 X24.7093 Y14.8997
G01 X24.6968 Y14.9264
G01 X24.6900 Y14.9394
G01 X24.6749 Y14.9647
G01 X24.6669 Y14.9771
G01 X24.6464 Y15.0046
G01 X24.6369 Y15.0159
G01 X24.6137 Y15.0412
G01 X24.5884 Y15.0644
G01 X24.5771 Y15.0739
G01 X24.5535 Y15.0915
G01 X24.5414 Y15.0998
G01 X24.5119 Y15.1175
G01 X24.5033 Y15.1221
G01 X24.4767 Y15.1348
G01 X24.4585 Y15.1423
G01 X24.4308 Y15.1521
G01 X24.4167 Y15.1562
G01 X24.3833 Y15.1644
G01 X24.3396 Y15.1708
G01 X24.2955 Y15.1730
G01 X24.0631 Y15.1730
G01 X24.0631 Y15.6376
G01 X24.0764 Y15.6410
G01 X24.0858 Y15.6439
G01 X24.1135 Y15.6537
G01 X24.1272 Y15.6592
G01 X24.1626 Y15.6761
G01 X24.1964 Y15.6962
G01 X24.2046 Y15.7016
G01 X24.2282 Y15.7191
G01 X24.2434 Y15.7316
G01 X24.2687 Y15.7548
G01 X24.2952 Y15.7838
G01 X24.3014 Y15.7914
G01 X24.3190 Y15.8150
G01 X24.3299 Y15.8313
G01 X24.3474 Y15.8609
G01 X24.3662 Y15.9008
G01 X24.3811 Y15.9424
G01 X24.3897 Y15.9756
G01 X24.3928 Y15.9900
G01 X24.3983 Y16.0289
G01 X24.4005 Y16.0730
G01 X24.4005 Y17.0230
G01 X24.3988 Y17.0622
G01 X24.3978 Y17.0720
G01 X24.3935 Y17.1011
G01 X24.3897 Y17.1204
G01 X24.3811 Y17.1536
G01 X24.3662 Y17.1952
G01 X24.3474 Y17.2351
G01 X24.3299 Y17.2647
G01 X24.3219 Y17.2771
G01 X24.3044 Y17.3007
G01 X24.2919 Y17.3159
G01 X24.2687 Y17.3412
G01 X24.2360 Y17.3709
G01 X24.2005 Y17.3972
G01 X24.1626 Y17.4199
G01 X24.1227 Y17.4387
G01 X24.0811 Y17.4536
G01 X24.0383 Y17.4644
G01 X24.0044 Y17.4696
G01 X23.9897 Y17.4713
G01 X23.9505 Y17.4730
G01 X23.2755 Y17.4730
G01 X23.2412 Y17.4716
G01 X23.2265 Y17.4703
G01 X23.1877 Y17.4644
G01 X23.1496 Y17.4550
G01 X23.1356 Y17.4505
G01 X23.1033 Y17.4387
G01 X23.0721 Y17.4243
G01 X23.0591 Y17.4175
G01 X23.0255 Y17.3972
G01 X22.9939 Y17.3739
G01 X22.9826 Y17.3644
G01 X22.9573 Y17.3412
G01 X22.9341 Y17.3159
G01 X22.9246 Y17.3046
G01 X22.9013 Y17.2730
G01 X22.8786 Y17.2351
G01 X22.8598 Y17.1952
G01 X22.8464 Y17.1583
G01 X22.8423 Y17.1442
G01 X22.8341 Y17.1108
G01 X22.8289 Y17.0769
G01 X22.8272 Y17.0622
G01 X22.8256 Y17.0279
G01 X22.8255 Y16.0730
G01 X22.8277 Y16.0289
G01 X22.8332 Y15.9900
G01 X22.8352 Y15.9804
G01 X22.8423 Y15.9518
G01 X22.8480 Y15.9331
G01 X22.8598 Y15.9008
G01 X22.8786 Y15.8609
G01 X22.8987 Y15.8271
G01 X22.9070 Y15.8150
G01 X22.9276 Y15.7875
G01 X22.9539 Y15.7583
G01 X22.9608 Y15.7514
G01 X22.9826 Y15.7316
G01 X22.9978 Y15.7191
G01 X23.0255 Y15.6988
G01 X23.0591 Y15.6785
G01 X23.0677 Y15.6739
G01 X23.0943 Y15.6612
G01 X23.1079 Y15.6554
G01 X23.1402 Y15.6439
G01 X23.1496 Y15.6410
G01 X23.1629 Y15.6376
G01 X23.1629 Y15.1079
G01 X23.1496 Y15.0998
G01 X23.1414 Y15.0944
G01 X23.1139 Y15.0739
G01 X23.1026 Y15.0644
G01 X23.0808 Y15.0446
G01 X23.0705 Y15.0341
G01 X23.0508 Y15.0122
G01 X23.0446 Y15.0046
G01 X23.0270 Y14.9810
G01 X23.0187 Y14.9689
G01 X23.0010 Y14.9394
G01 X22.9942 Y14.9264
G01 X22.9817 Y14.8997
G01 X22.9762 Y14.8860
G01 X22.9664 Y14.8583
G01 X22.9635 Y14.8489
G01 X22.9570 Y14.8231
G01 X22.1940 Y14.8231
G01 X22.1861 Y14.8536
G01 X22.1712 Y14.8952
G01 X22.1524 Y14.9351
G01 X22.1349 Y14.9647
G01 X22.1240 Y14.9810
G01 X22.1064 Y15.0046
G01 X22.1002 Y15.0122
G01 X22.0737 Y15.0412
G01 X22.0484 Y15.0644
G01 X22.0332 Y15.0769
G01 X22.0096 Y15.0944
G01 X22.0014 Y15.0998
G01 X21.9676 Y15.1199
G01 X21.9322 Y15.1368
G01 X21.9185 Y15.1423
G01 X21.8908 Y15.1521
G01 X21.8814 Y15.1550
G01 X21.8433 Y15.1644
G01 X21.8094 Y15.1696
G01 X21.7947 Y15.1713
G01 X21.7555 Y15.1730
G01 X20.8506 Y15.1729
G01 X20.8114 Y15.1708
G01 X20.7677 Y15.1644
G01 X20.7249 Y15.1536
G01 X20.6925 Y15.1423
G01 X20.6788 Y15.1368
G01 X20.6434 Y15.1199
G01 X20.6138 Y15.1024
G01 X20.6014 Y15.0944
G01 X20.5739 Y15.0739
G01 X20.5626 Y15.0644
G01 X20.5373 Y15.0412
G01 X20.5108 Y15.0122
G01 X20.5016 Y15.0007
G01 X20.4813 Y14.9730
G01 X20.4610 Y14.9394
G01 X20.4542 Y14.9264
G01 X20.4398 Y14.8952
G01 X20.4280 Y14.8629
G01 X20.4235 Y14.8489
G01 X20.4152 Y14.8156
G01 X20.4125 Y14.8011
G01 X20.4077 Y14.7671
G01 X20.4055 Y14.7230
G01 X20.4055 Y14.0230
G01 X20.4072 Y13.9838
G01 X20.4089 Y13.9691
G01 X20.4141 Y13.9352
G01 X20.4249 Y13.8924
G00 Z2.0000
G00 X20.4249 Y11.8924
G01 F60.00
G01 Z-0.3621
G01 F120.00
G01 X20.4379 Y11.8554
G01 X20.4437 Y11.8418
G01 X20.4586 Y11.8109
G01 X20.4813 Y11.7730
G01 X20.5076 Y11.7375
G01 X20.5305 Y11.7119
G01 X20.5408 Y11.7014
G01 X20.5626 Y11.6816
G01 X20.5778 Y11.6691
G01 X20.6055 Y11.6488
G01 X20.6434 Y11.6261
G01 X20.6833 Y11.6073
G01 X20.7156 Y11.5955
G01 X20.7296 Y11.5910
G01 X20.7581 Y11.5838
G01 X20.7774 Y11.5800
G01 X20.8114 Y11.5752
G01 X20.8554 Y11.5730
G01 X20.8554 Y10.9617
G01 X20.8496 Y10.9546
G01 X20.8320 Y10.9310
G01 X20.8211 Y10.9147
G01 X20.8036 Y10.8851
G01 X20.7848 Y10.8452
G01 X20.7699 Y10.8036
G01 X20.7613 Y10.7704
G01 X20.7582 Y10.7560
G01 X20.7539 Y10.7269
G01 X20.7519 Y10.7073
G01 X20.7505 Y10.6730
G01 X20.7505 Y9.7230
G01 X20.7527 Y9.6789
G01 X20.7582 Y9.6400
G01 X20.7613 Y9.6256
G01 X20.7699 Y9.5924
G01 X20.7848 Y9.5508
G01 X20.8036 Y9.5109
G01 X20.8211 Y9.4813
G01 X20.8320 Y9.4650
G01 X20.8496 Y9.4414
G01 X20.8558 Y9.4338
G01 X20.8823 Y9.4048
G01 X20.9076 Y9.3816
G01 X20.9228 Y9.3691
G01 X20.9464 Y9.3516
G01 X20.9546 Y9.3462
G01 X20.9884 Y9.3261
G01 X21.0238 Y9.3092
G01 X21.0375 Y9.3037
G01 X21.0652 Y9.2939
G01 X21.0746 Y9.2910
G01 X21.0879 Y9.2876
G01 X21.0879 Y8.7903
G01 X21.0533 Y8.7777
G01 X21.0221 Y8.7633
G01 X21.0091 Y8.7565
G01 X20.9755 Y8.7362
G01 X20.9439 Y8.7129
G01 X20.9326 Y8.7034
G01 X20.9073 Y8.6802
G01 X20.8776 Y8.6475
G01 X20.8541 Y8.6161
G01 X20.8461 Y8.6037
G01 X20.8286 Y8.5741
G01 X20.8098 Y8.5342
G01 X20.7964 Y8.4973
G01 X20.7923 Y8.4832
G01 X20.7841 Y8.4498
G01 X20.7782 Y8.4110
G01 X20.7769 Y8.3963
G01 X20.7755 Y8.3620
G01 X20.7755 Y7.4620
G01 X20.7777 Y7.4179
G01 X20.7825 Y7.3839
G01 X20.7852 Y7.3694
G01 X20.7949 Y7.3314
G01 X20.8098 Y7.2898
G01 X20.8286 Y7.2499
G01 X20.8513 Y7.2120
G01 X20.8776 Y7.1765
G01 X20.9005 Y7.1509
G01 X20.9108 Y7.1404
G01 X20.9326 Y7.1206
G01 X20.9439 Y7.1111
G01 X20.9714 Y7.0906
G01 X20.9850 Y7.0819
G01 X20.9416 Y7.0337
G01 X20.8918 Y6.9668
G01 X20.8809 Y6.9505
G01 X20.8405 Y6.8831
G01 X20.8338 Y6.8701
G01 X20.7983 Y6.7945
G01 X20.7700 Y6.7161
G01 X20.7655 Y6.7021
G01 X20.7464 Y6.6259
G01 X20.7426 Y6.6067
G01 X20.7306 Y6.5241
G01 X20.7262 Y6.4408
G01 X20.7262 Y6.4212
G01 X20.7306 Y6.3379
G01 X20.7426 Y6.2553
G01 X20.7453 Y6.2409
G01 X20.7669 Y6.1552
G01 X20.7983 Y6.0675
G01 X20.8382 Y5.9832
G01 X20.8861 Y5.9032
G01 X20.9416 Y5.8283
G01 X21.0042 Y5.7592
G01 X21.0733 Y5.6966
G01 X21.1482 Y5.6411
G01 X21.2282 Y5.5932
G01 X21.3125 Y5.5533
G01 X21.4002 Y5.5219
G01 X21.4907 Y5.4993
G01 X21.5829 Y5.4856
G01 X21.6760 Y5.4810
G01 X21.7691 Y5.4856
G01 X21.8517 Y5.4976
G01 X21.8661 Y5.5003
G01 X21.9518 Y5.5219
G01 X22.0395 Y5.5533
G01 X22.1238 Y5.5932
G01 X22.1955 Y5.6359
G01 X22.2118 Y5.6468
G01 X22.2709 Y5.6906
G01 X22.2861 Y5.7031
G01 X22.3478 Y5.7592
G01 X22.4104 Y5.8283
G01 X22.4659 Y5.9032
G01 X22.5090 Y5.9746
G01 X22.5182 Y5.9919
G01 X22.5497 Y6.0585
G01 X22.5572 Y6.0766
G01 X22.5851 Y6.1552
G01 X22.6077 Y6.2457
G01 X22.6214 Y6.3379
G01 X22.6259 Y6.4261
G01 X22.6258 Y6.4408
G01 X22.6214 Y6.5241
G01 X22.6094 Y6.6067
G01 X22.6056 Y6.6259
G01 X22.5877 Y6.6973
G01 X22.5820 Y6.7161
G01 X22.5537 Y6.7945
G01 X22.5182 Y6.8701
G01 X22.5090 Y6.8874
G01 X22.4659 Y6.9588
G01 X22.4104 Y7.0337
G01 X22.3478 Y7.1028
G01 X22.2861 Y7.1589
G01 X22.2787 Y7.1654
G01 X22.2698 Y7.1723
G01 X22.2764 Y7.1804
G01 X22.2940 Y7.2040
G01 X22.3049 Y7.2203
G01 X22.3224 Y7.2499
G01 X22.3412 Y7.2898
G01 X22.3561 Y7.3314
G01 X22.3647 Y7.3646
G01 X22.3685 Y7.3839
G01 X22.3728 Y7.4130
G01 X22.3738 Y7.4228
G01 X22.3755 Y7.4620
G01 X22.3754 Y8.3669
G01 X22.3738 Y8.4012
G01 X22.3721 Y8.4159
G01 X22.3669 Y8.4498
G01 X22.3575 Y8.4879
G01 X22.3546 Y8.4973
G01 X22.3448 Y8.5250
G01 X22.3373 Y8.5432
G01 X22.3224 Y8.5741
G01 X22.2997 Y8.6120
G01 X22.2764 Y8.6436
G01 X22.2669 Y8.6549
G01 X22.2437 Y8.6802
G01 X22.2147 Y8.7067
G01 X22.2071 Y8.7129
G01 X22.1835 Y8.7305
G01 X22.1672 Y8.7414
G01 X22.1376 Y8.7589
G01 X22.1022 Y8.7758
G01 X22.0885 Y8.7813
G01 X22.0608 Y8.7911
G01 X22.0514 Y8.7940
G01 X22.0133 Y8.8034
G01 X21.9881 Y8.8073
G01 X21.9881 Y9.2876
G01 X22.0014 Y9.2910
G01 X22.0108 Y9.2939
G01 X22.0431 Y9.3054
G01 X22.0567 Y9.3112
G01 X22.0833 Y9.3239
G01 X22.0919 Y9.3285
G01 X22.1255 Y9.3488
G01 X22.1532 Y9.3691
G01 X22.1684 Y9.3816
G01 X22.1902 Y9.4014
G01 X22.1971 Y9.4083
G01 X22.2234 Y9.4375
G01 X22.2440 Y9.4650
G01 X22.2523 Y9.4771
G01 X22.2724 Y9.5109
G01 X22.2912 Y9.5508
G01 X22.3030 Y9.5831
G01 X22.3087 Y9.6018
G01 X22.3158 Y9.6304
G01 X22.3178 Y9.6400
G01 X22.3233 Y9.6789
G01 X22.3255 Y9.7230
G01 X22.3255 Y10.6730
G01 X22.3233 Y10.7171
G01 X22.3178 Y10.7560
G01 X22.3147 Y10.7704
G01 X22.3061 Y10.8036
G01 X22.2912 Y10.8452
G01 X22.2724 Y10.8851
G01 X22.2497 Y10.9230
G01 X22.2234 Y10.9585
G01 X22.1937 Y10.9912
G01 X22.1610 Y11.0209
G01 X22.1255 Y11.0472
G01 X22.0876 Y11.0699
G01 X22.0477 Y11.0887
G01 X22.0061 Y11.1036
G01 X21.9633 Y11.1144
G01 X21.9196 Y11.1208
G01 X21.8853 Y11.1228
G01 X21.7556 Y11.1230
G01 X21.7556 Y11.5730
G01 X21.7996 Y11.5752
G01 X21.8433 Y11.5816
G01 X21.8861 Y11.5924
G01 X21.9185 Y11.6037
G01 X21.9367 Y11.6112
G01 X21.9633 Y11.6239
G01 X21.9762 Y11.6310
G01 X22.0055 Y11.6488
G01 X22.0410 Y11.6751
G01 X22.0737 Y11.7048
G01 X22.0969 Y11.7301
G01 X22.1094 Y11.7453
G01 X22.1269 Y11.7689
G01 X22.1349 Y11.7813
G01 X22.1524 Y11.8109
G01 X22.1712 Y11.8508
G01 X22.1861 Y11.8924
G01 X22.1969 Y11.9352
G01 X22.2033 Y11.9789
G01 X22.2055 Y12.0230
G01 X22.2055 Y12.7230
G01 X22.2038 Y12.7622
G01 X22.2021 Y12.7769
G01 X22.1969 Y12.8108
G01 X22.1875 Y12.8489
G01 X22.1830 Y12.8629
G01 X22.1712 Y12.8952
G01 X22.1568 Y12.9264
G01 X22.1500 Y12.9394
G01 X22.1323 Y12.9689
G01 X22.1240 Y12.9810
G01 X22.1034 Y13.0085
G01 X22.0737 Y13.0412
G01 X22.0410 Y13.0709
G01 X22.0096 Y13.0944
G01 X21.9972 Y13.1024
G01 X21.9676 Y13.1199
G01 X21.9367 Y13.1348
G01 X21.9231 Y13.1406
G01 X21.8908 Y13.1521
G01 X21.8767 Y13.1562
G01 X21.8433 Y13.1644
G01 X21.8094 Y13.1696
G01 X21.7947 Y13.1713
G01 X21.7555 Y13.1730
G01 X20.8555 Y13.1730
G01 X20.8212 Y13.1716
G01 X20.8065 Y13.1703
G01 X20.7677 Y13.1644
G01 X20.7343 Y13.1562
G01 X20.7202 Y13.1521
G01 X20.6879 Y13.1406
G01 X20.6743 Y13.1348
G01 X20.6434 Y13.1199
G01 X20.6096 Y13.0998
G01 X20.5975 Y13.0915
G01 X20.5700 Y13.0709
G01 X20.5373 Y13.0412
G01 X20.5076 Y13.0085
G01 X20.4813 Y12.9730
G01 X20.4586 Y12.9351
G01 X20.4398 Y12.8952
G01 X20.4249 Y12.8536
G01 X20.4152 Y12.8156
G01 X20.4125 Y12.8011
G01 X20.4077 Y12.7671
G01 X20.4055 Y12.7230
G01 X20.4056 Y12.0181
G01 X20.4077 Y11.9789
G01 X20.4125 Y11.9449
G01 X20.4152 Y11.9304
G01 X20.4249 Y11.8924
G00 Z2.0000
G00 X20.7685 Y15.9471
G01 F60.00
G01 Z-0.3621
G01 F120.00
G01 X20.7714 Y15.9377
G01 X20.7812 Y15.9100
G01 X20.7887 Y15.8918
G01 X20.8036 Y15.8609
G01 X20.8263 Y15.8230
G01 X20.8496 Y15.7914
G01 X20.8591 Y15.7801
G01 X20.8823 Y15.7548
G01 X20.9150 Y15.7251
G01 X20.9464 Y15.7016
G01 X20.9588 Y15.6936
G01 X20.9884 Y15.6761
G01 X21.0283 Y15.6573
G01 X21.0699 Y15.6424
G01 X21.1031 Y15.6338
G01 X21.1175 Y15.6307
G01 X21.1466 Y15.6264
G01 X21.1662 Y15.6244
G01 X21.2005 Y15.6230
G01 X21.8755 Y15.6230
G01 X21.9196 Y15.6252
G01 X21.9633 Y15.6316
G01 X22.0061 Y15.6424
G01 X22.0477 Y15.6573
G01 X22.0876 Y15.6761
G01 X22.1214 Y15.6962
G01 X22.1335 Y15.7045
G01 X22.1571 Y15.7221
G01 X22.1684 Y15.7316
G01 X22.1937 Y15.7548
G01 X22.2169 Y15.7801
G01 X22.2264 Y15.7914
G01 X22.2469 Y15.8189
G01 X22.2549 Y15.8313
G01 X22.2700 Y15.8566
G01 X22.2768 Y15.8696
G01 X22.2912 Y15.9008
G01 X22.3030 Y15.9331
G01 X22.3075 Y15.9471
G01 X22.3158 Y15.9804
G01 X22.3185 Y15.9949
G01 X22.3233 Y16.0289
G01 X22.3253 Y16.0632
G01 X22.3255 Y17.0230
G01 X22.3238 Y17.0622
G01 X22.3221 Y17.0769
G01 X22.3169 Y17.1108
G01 X22.3061 Y17.1536
G01 X22.2912 Y17.1952
G01 X22.2768 Y17.2264
G01 X22.2700 Y17.2394
G01 X22.2497 Y17.2730
G01 X22.2294 Y17.3007
G01 X22.2202 Y17.3122
G01 X22.2005 Y17.3341
G01 X22.1902 Y17.3446
G01 X22.1647 Y17.3677
G01 X22.1571 Y17.3739
G01 X22.1456 Y17.3826
G01 X23.7613 Y18.9983
G01 X23.7878 Y19.0273
G01 X23.7970 Y19.0388
G01 X23.8173 Y19.0665
G01 X23.8351 Y19.0959
G01 X23.8422 Y19.1088
G01 X23.8589 Y19.1443
G01 X23.8723 Y19.1813
G01 X23.8764 Y19.1954
G01 X23.8845 Y19.2288
G01 X23.8904 Y19.2676
G01 X23.8917 Y19.2823
G01 X23.8931 Y19.3166
G01 X23.8931 Y19.7915
G01 X23.9292 Y19.8086
G01 X23.9423 Y19.8153
G01 X24.0222 Y19.8633
G01 X24.0344 Y19.8716
G01 X24.1053 Y19.9243
G01 X24.1165 Y19.9338
G01 X24.1855 Y19.9965
G01 X24.2515 Y20.0691
G01 X24.2607 Y20.0806
G01 X24.3160 Y20.1557
G01 X24.3690 Y20.2440
G01 X24.4131 Y20.3372
G01 X24.4447 Y20.4249
G01 X24.4492 Y20.4389
G01 X24.4728 Y20.5342
G01 X24.4879 Y20.6361
G01 X24.4930 Y20.7390
G01 X24.4887 Y20.8321
G01 X24.4867 Y20.8517
G01 X24.4745 Y20.9342
G01 X24.4707 Y20.9534
G01 X24.4478 Y21.0438
G01 X24.4131 Y21.1408
G01 X24.3690 Y21.2340
G01 X24.3213 Y21.3141
G01 X24.3104 Y21.3304
G01 X24.2607 Y21.3974
G01 X24.2482 Y21.4125
G01 X24.1855 Y21.4815
G01 X24.1091 Y21.5507
G01 X24.0263 Y21.6120
G01 X23.9423 Y21.6627
G01 X23.9292 Y21.6694
G01 X23.8448 Y21.7091
G01 X23.7478 Y21.7438
G01 X23.6478 Y21.7688
G01 X23.5459 Y21.7839
G01 X23.4430 Y21.7890
G01 X23.3401 Y21.7839
G01 X23.2382 Y21.7688
G01 X23.1382 Y21.7438
G01 X23.0412 Y21.7091
G01 X22.9480 Y21.6650
G01 X22.8597 Y21.6120
G01 X22.7769 Y21.5507
G01 X22.7005 Y21.4815
G01 X22.6313 Y21.4051
G01 X22.5700 Y21.3223
G01 X22.5193 Y21.2383
G01 X22.5126 Y21.2252
G01 X22.4729 Y21.1408
G01 X22.4382 Y21.0438
G01 X22.4132 Y20.9438
G01 X22.3981 Y20.8419
G01 X22.3930 Y20.7390
G01 X22.3981 Y20.6361
G01 X22.4132 Y20.5342
G01 X22.4368 Y20.4389
G01 X22.4413 Y20.4249
G01 X22.4729 Y20.3372
G01 X22.5170 Y20.2440
G01 X22.5700 Y20.1557
G01 X22.6253 Y20.0806
G01 X22.6345 Y20.0691
G01 X22.7005 Y19.9965
G01 X22.7695 Y19.9338
G01 X22.7807 Y19.9243
G01 X22.8516 Y19.8716
G01 X22.8638 Y19.8633
G01 X22.9437 Y19.8153
G01 X22.9568 Y19.8086
G01 X22.9929 Y19.7915
G01 X22.9929 Y19.5030
G01 X21.2163 Y17.7264
G01 X21.1900 Y17.6972
G01 X21.1637 Y17.6617
G01 X21.1410 Y17.6238
G01 X21.1261 Y17.5928
G01 X21.1186 Y17.5747
G01 X21.1087 Y17.5469
G01 X21.1059 Y17.5375
G01 X21.0965 Y17.4994
G01 X21.0904 Y17.4590
G01 X21.0746 Y17.4550
G01 X21.0652 Y17.4521
G01 X21.0375 Y17.4423
G01 X21.0238 Y17.4368
G01 X20.9884 Y17.4199
G01 X20.9588 Y17.4024
G01 X20.9464 Y17.3944
G01 X20.9150 Y17.3709
G01 X20.8823 Y17.3412
G01 X20.8526 Y17.3085
G01 X20.8320 Y17.2810
G01 X20.8237 Y17.2689
G01 X20.8036 Y17.2351
G01 X20.7887 Y17.2042
G01 X20.7829 Y17.1906
G01 X20.7699 Y17.1536
G01 X20.7602 Y17.1156
G01 X20.7575 Y17.1011
G01 X20.7527 Y17.0671
G01 X20.7507 Y17.0328
G01 X20.7506 Y16.0681
G01 X20.7522 Y16.0338
G01 X20.7539 Y16.0191
G01 X20.7591 Y15.9852
G01 X20.7685 Y15.9471
G00 Z2.0000
G00 X20.8001 Y19.6941
G01 F60.00
G01 Z-0.3621
G01 F120.00
G01 X20.9030 Y19.6890
G01 X21.0059 Y19.6941
G01 X21.1078 Y19.7092
G01 X21.2078 Y19.7342
G01 X21.3048 Y19.7689
G01 X21.3980 Y19.8130
G01 X21.4863 Y19.8660
G01 X21.5691 Y19.9273
G01 X21.6455 Y19.9965
G01 X21.7147 Y20.0729
G01 X21.7760 Y20.1557
G01 X21.8290 Y20.2440
G01 X21.8731 Y20.3372
G01 X21.9078 Y20.4342
G01 X21.9328 Y20.5342
G01 X21.9479 Y20.6361
G01 X21.9530 Y20.7390
G01 X21.9479 Y20.8419
G01 X21.9328 Y20.9438
G01 X21.9078 Y21.0438
G01 X21.8731 Y21.1408
G01 X21.8290 Y21.2340
G01 X21.7760 Y21.3223
G01 X21.7147 Y21.4051
G01 X21.6455 Y21.4815
G01 X21.5691 Y21.5507
G01 X21.4863 Y21.6120
G01 X21.3980 Y21.6650
G01 X21.3048 Y21.7091
G01 X21.2078 Y21.7438
G01 X21.1078 Y21.7688
G01 X21.0059 Y21.7839
G01 X20.9030 Y21.7890
G01 X20.8001 Y21.7839
G01 X20.6982 Y21.7688
G01 X20.5982 Y21.7438
G01 X20.5012 Y21.7091
G01 X20.4080 Y21.6650
G01 X20.3197 Y21.6120
G01 X20.2369 Y21.5507
G01 X20.1605 Y21.4815
G01 X20.0913 Y21.4051
G01 X20.0300 Y21.3223
G01 X19.9770 Y21.2340
G01 X19.9329 Y21.1408
G01 X19.8982 Y21.0438
G01 X19.8732 Y20.9438
G01 X19.8581 Y20.8419
G01 X19.8530 Y20.7390
G01 X19.8581 Y20.6361
G01 X19.8732 Y20.5342
G01 X19.8982 Y20.4342
G01 X19.9329 Y20.3372
G01 X19.9770 Y20.2440
G01 X20.0300 Y20.1557
G01 X20.0913 Y20.0729
G01 X20.1605 Y19.9965
G01 X20.2369 Y19.9273
G01 X20.3197 Y19.8660
G01 X20.4080 Y19.8130
G01 X20.5012 Y19.7689
G01 X20.5982 Y19.7342
G01 X20.6982 Y19.7092
G01 X20.8001 Y19.6941
G00 Z2.0000
G00 X25.8752 Y19.6946
G01 F60.00
G01 Z-0.3621
G01 F120.00
G01 X25.8899 Y19.6933
G01 X25.9830 Y19.6890
G01 X26.0859 Y19.6941
G01 X26.1878 Y19.7092
G01 X26.2878 Y19.7342
G01 X26.3848 Y19.7689
G01 X26.4780 Y19.8130
G01 X26.5663 Y19.8660
G01 X26.6491 Y19.9273
G01 X26.7255 Y19.9965
G01 X26.7947 Y20.0729
G01 X26.8560 Y20.1557
G01 X26.9090 Y20.2440
G01 X26.9531 Y20.3372
G01 X26.9878 Y20.4342
G01 X27.0128 Y20.5342
G01 X27.0279 Y20.6361
G01 X27.0330 Y20.7390
G01 X27.0279 Y20.8419
G01 X27.0128 Y20.9438
G01 X26.9878 Y21.0438
G01 X26.9531 Y21.1408
G01 X26.9090 Y21.2340
G01 X26.8560 Y21.3223
G01 X26.7947 Y21.4051
G01 X26.7255 Y21.4815
G01 X26.6491 Y21.5507
G01 X26.5663 Y21.6120
G01 X26.4780 Y21.6650
G01 X26.3848 Y21.7091
G01 X26.2878 Y21.7438
G01 X26.1878 Y21.7688
G01 X26.0859 Y21.7839
G01 X25.9830 Y21.7890
G01 X25.8801 Y21.7839
G01 X25.7782 Y21.7688
G01 X25.6782 Y21.7438
G01 X25.5812 Y21.7091
G01 X25.4880 Y21.6650
G01 X25.3997 Y21.6120
G01 X25.3169 Y21.5507
G01 X25.2405 Y21.4815
G01 X25.1713 Y21.4051
G01 X25.1100 Y21.3223
G01 X25.0570 Y21.2340
G01 X25.0129 Y21.1408
G01 X24.9782 Y21.0438
G01 X24.9532 Y20.9438
G01 X24.9381 Y20.8419
G01 X24.9330 Y20.7390
G01 X24.9381 Y20.6361
G01 X24.9532 Y20.5342
G01 X24.9782 Y20.4342
G01 X25.0129 Y20.3372
G01 X25.0570 Y20.2440
G01 X25.1100 Y20.1557
G01 X25.1713 Y20.0729
G01 X25.2405 Y19.9965
G01 X25.3169 Y19.9273
G01 X25.3997 Y19.8660
G01 X25.4880 Y19.8130
G01 X25.5812 Y19.7689
G01 X25.6782 Y19.7342
G01 X25.7782 Y19.7092
G01 X25.8752 Y19.6946
G00 Z2.0000
G00 X25.8485 Y15.9471
G01 F60.00
G01 Z-0.3621
G01 F120.00
G01 X25.8514 Y15.9377
G01 X25.8612 Y15.9100
G01 X25.8687 Y15.8918
G01 X25.8836 Y15.8609
G01 X25.9063 Y15.8230
G01 X25.9296 Y15.7914
G01 X25.9391 Y15.7801
G01 X25.9623 Y15.7548
G01 X25.9950 Y15.7251
G01 X26.0264 Y15.7016
G01 X26.0388 Y15.6936
G01 X26.0684 Y15.6761
G01 X26.1083 Y15.6573
G01 X26.1499 Y15.6424
G01 X26.1831 Y15.6338
G01 X26.1975 Y15.6307
G01 X26.2266 Y15.6264
G01 X26.2462 Y15.6244
G01 X26.2805 Y15.6230
G01 X26.9555 Y15.6230
G01 X26.9996 Y15.6252
G01 X27.0433 Y15.6316
G01 X27.0861 Y15.6424
G01 X27.1277 Y15.6573
G01 X27.1676 Y15.6761
G01 X27.2014 Y15.6962
G01 X27.2135 Y15.7045
G01 X27.2371 Y15.7221
G01 X27.2484 Y15.7316
G01 X27.2737 Y15.7548
G01 X27.2969 Y15.7801
G01 X27.3064 Y15.7914
G01 X27.3269 Y15.8189
G01 X27.3349 Y15.8313
G01 X27.3500 Y15.8566
G01 X27.3568 Y15.8696
G01 X27.3712 Y15.9008
G01 X27.3830 Y15.9331
G01 X27.3875 Y15.9471
G01 X27.3958 Y15.9804
G01 X27.3985 Y15.9949
G01 X27.4033 Y16.0289
G01 X27.4053 Y16.0632
G01 X27.4055 Y17.0230
G01 X27.4033 Y17.0671
G01 X27.3969 Y17.1108
G01 X27.3875 Y17.1489
G01 X27.3830 Y17.1629
G01 X27.3712 Y17.1952
G01 X27.3568 Y17.2264
G01 X27.3500 Y17.2394
G01 X27.3323 Y17.2689
G01 X27.3240 Y17.2810
G01 X27.3034 Y17.3085
G01 X27.2737 Y17.3412
G01 X27.2484 Y17.3644
G01 X27.2371 Y17.3739
G01 X27.2096 Y17.3944
G01 X27.1956 Y17.4034
G01 X28.8413 Y19.0491
G01 X28.8645 Y19.0744
G01 X28.8740 Y19.0857
G01 X28.8973 Y19.1173
G01 X28.9151 Y19.1467
G01 X28.9222 Y19.1596
G01 X28.9389 Y19.1951
G01 X28.9523 Y19.2321
G01 X28.9564 Y19.2462
G01 X28.9645 Y19.2796
G01 X28.9698 Y19.3135
G01 X28.9714 Y19.3282
G01 X28.9731 Y19.3674
G01 X28.9731 Y19.7915
G01 X29.0092 Y19.8086
G01 X29.0223 Y19.8153
G01 X29.1022 Y19.8633
G01 X29.1144 Y19.8716
G01 X29.1853 Y19.9243
G01 X29.1965 Y19.9338
G01 X29.2655 Y19.9965
G01 X29.3315 Y20.0691
G01 X29.3407 Y20.0806
G01 X29.3960 Y20.1557
G01 X29.4490 Y20.2440
G01 X29.4931 Y20.3372
G01 X29.5247 Y20.4249
G01 X29.5292 Y20.4389
G01 X29.5528 Y20.5342
G01 X29.5679 Y20.6361
G01 X29.5730 Y20.7390
G01 X29.5687 Y20.8321
G01 X29.5667 Y20.8517
G01 X29.5545 Y20.9342
G01 X29.5507 Y20.9534
G01 X29.5278 Y21.0438
G01 X29.4931 Y21.1408
G01 X29.4490 Y21.2340
G01 X29.4013 Y21.3141
G01 X29.3904 Y21.3304
G01 X29.3407 Y21.3974
G01 X29.3282 Y21.4125
G01 X29.2655 Y21.4815
G01 X29.1891 Y21.5507
G01 X29.1063 Y21.6120
G01 X29.0223 Y21.6627
G01 X29.0092 Y21.6694
G01 X28.9248 Y21.7091
G01 X28.8278 Y21.7438
G01 X28.7278 Y21.7688
G01 X28.6259 Y21.7839
G01 X28.5230 Y21.7890
G01 X28.4201 Y21.7839
G01 X28.3182 Y21.7688
G01 X28.2182 Y21.7438
G01 X28.1212 Y21.7091
G01 X28.0280 Y21.6650
G01 X27.9397 Y21.6120
G01 X27.8569 Y21.5507
G01 X27.7805 Y21.4815
G01 X27.7113 Y21.4051
G01 X27.6500 Y21.3223
G01 X27.5993 Y21.2383
G01 X27.5926 Y21.2252
G01 X27.5529 Y21.1408
G01 X27.5182 Y21.0438
G01 X27.4932 Y20.9438
G01 X27.4781 Y20.8419
G01 X27.4730 Y20.7390
G01 X27.4781 Y20.6361
G01 X27.4932 Y20.5342
G01 X27.5168 Y20.4389
G01 X27.5213 Y20.4249
G01 X27.5529 Y20.3372
G01 X27.5970 Y20.2440
G01 X27.6500 Y20.1557
G01 X27.7053 Y20.0806
G01 X27.7145 Y20.0691
G01 X27.7805 Y19.9965
G01 X27.8495 Y19.9338
G01 X27.8607 Y19.9243
G01 X27.9316 Y19.8716
G01 X27.9438 Y19.8633
G01 X28.0237 Y19.8153
G01 X28.0368 Y19.8086
G01 X28.0729 Y19.7915
G01 X28.0729 Y19.5538
G01 X26.2963 Y17.7772
G01 X26.2700 Y17.7480
G01 X26.2437 Y17.7125
G01 X26.2210 Y17.6746
G01 X26.2021 Y17.6347
G01 X26.1873 Y17.5931
G01 X26.1765 Y17.5502
G01 X26.1700 Y17.5065
G01 X26.1681 Y17.4722
G01 X26.1679 Y17.4584
G01 X26.1546 Y17.4550
G01 X26.1452 Y17.4521
G01 X26.1175 Y17.4423
G01 X26.1038 Y17.4368
G01 X26.0684 Y17.4199
G01 X26.0388 Y17.4024
G01 X26.0264 Y17.3944
G01 X25.9950 Y17.3709
G01 X25.9623 Y17.3412
G01 X25.9326 Y17.3085
G01 X25.9120 Y17.2810
G01 X25.9037 Y17.2689
G01 X25.8836 Y17.2351
G01 X25.8687 Y17.2042
G01 X25.8629 Y17.1906
G01 X25.8499 Y17.1536
G01 X25.8402 Y17.1156
G01 X25.8375 Y17.1011
G01 X25.8327 Y17.0671
G01 X25.8307 Y17.0328
G01 X25.8306 Y16.0681
G01 X25.8322 Y16.0338
G01 X25.8339 Y16.0191
G01 X25.8391 Y15.9852
G01 X25.8485 Y15.9471
G00 Z2.0000
G00 X25.5035 Y13.8971
G01 F60.00
G01 Z-0.3621
G01 F120.00
G01 X25.5064 Y13.8877
G01 X25.5162 Y13.8600
G01 X25.5237 Y13.8418
G01 X25.5386 Y13.8109
G01 X25.5613 Y13.7730
G01 X25.5846 Y13.7414
G01 X25.5941 Y13.7301
G01 X25.6173 Y13.7048
G01 X25.6500 Y13.6751
G01 X25.6814 Y13.6516
G01 X25.6938 Y13.6436
G01 X25.7234 Y13.6261
G01 X25.7633 Y13.6073
G01 X25.8049 Y13.5924
G01 X25.8381 Y13.5838
G01 X25.8525 Y13.5807
G01 X25.8816 Y13.5764
G01 X25.9012 Y13.5744
G01 X25.9355 Y13.5730
G01 X26.8404 Y13.5731
G01 X26.8747 Y13.5747
G01 X26.8894 Y13.5764
G01 X26.9233 Y13.5816
G01 X26.9567 Y13.5898
G01 X26.9708 Y13.5939
G01 X27.0077 Y13.6073
G01 X27.0433 Y13.6239
G01 X27.0562 Y13.6310
G01 X27.0855 Y13.6488
G01 X27.1171 Y13.6721
G01 X27.1284 Y13.6816
G01 X27.1502 Y13.7014
G01 X27.1571 Y13.7083
G01 X27.1834 Y13.7375
G01 X27.2040 Y13.7650
G01 X27.2123 Y13.7771
G01 X27.2324 Y13.8109
G01 X27.2473 Y13.8418
G01 X27.2531 Y13.8554
G01 X27.2661 Y13.8924
G01 X27.2740 Y13.9229
G01 X28.0370 Y13.9229
G01 X28.0449 Y13.8924
G01 X28.0598 Y13.8508
G01 X28.0786 Y13.8109
G01 X28.0961 Y13.7813
G01 X28.1070 Y13.7650
G01 X28.1246 Y13.7414
G01 X28.1308 Y13.7338
G01 X28.1573 Y13.7048
G01 X28.1863 Y13.6783
G01 X28.1939 Y13.6721
G01 X28.2175 Y13.6545
G01 X28.2338 Y13.6436
G01 X28.2634 Y13.6261
G01 X28.3033 Y13.6073
G01 X28.3449 Y13.5924
G01 X28.3781 Y13.5838
G01 X28.3925 Y13.5807
G01 X28.4314 Y13.5752
G01 X28.4755 Y13.5730
G01 X29.3755 Y13.5730
G01 X29.4147 Y13.5747
G01 X29.4245 Y13.5757
G01 X29.4536 Y13.5800
G01 X29.4729 Y13.5838
G01 X29.5061 Y13.5924
G01 X29.5477 Y13.6073
G01 X29.5876 Y13.6261
G01 X29.6172 Y13.6436
G01 X29.6335 Y13.6545
G01 X29.6571 Y13.6721
G01 X29.6647 Y13.6783
G01 X29.6937 Y13.7048
G01 X29.7234 Y13.7375
G01 X29.7497 Y13.7730
G01 X29.7724 Y13.8109
G01 X29.7912 Y13.8508
G01 X29.8061 Y13.8924
G01 X29.8169 Y13.9352
G01 X29.8228 Y13.9740
G01 X29.8241 Y13.9887
G01 X29.8255 Y14.0230
G01 X29.8254 Y14.7279
G01 X29.8233 Y14.7671
G01 X29.8178 Y14.8060
G01 X29.8158 Y14.8156
G01 X29.8087 Y14.8442
G01 X29.8030 Y14.8629
G01 X29.7931 Y14.8906
G01 X29.7893 Y14.8997
G01 X29.7768 Y14.9264
G01 X29.7700 Y14.9394
G01 X29.7549 Y14.9647
G01 X29.7469 Y14.9771
G01 X29.7264 Y15.0046
G01 X29.7169 Y15.0159
G01 X29.6937 Y15.0412
G01 X29.6684 Y15.0644
G01 X29.6571 Y15.0739
G01 X29.6335 Y15.0915
G01 X29.6214 Y15.0998
G01 X29.5919 Y15.1175
G01 X29.5833 Y15.1221
G01 X29.5567 Y15.1348
G01 X29.5385 Y15.1423
G01 X29.5108 Y15.1521
G01 X29.4967 Y15.1562
G01 X29.4633 Y15.1644
G01 X29.4196 Y15.1708
G01 X29.3755 Y15.1730
G01 X29.1431 Y15.1730
G01 X29.1431 Y15.6376
G01 X29.1564 Y15.6410
G01 X29.1658 Y15.6439
G01 X29.1935 Y15.6537
G01 X29.2072 Y15.6592
G01 X29.2426 Y15.6761
G01 X29.2764 Y15.6962
G01 X29.2846 Y15.7016
G01 X29.3082 Y15.7191
G01 X29.3234 Y15.7316
G01 X29.3487 Y15.7548
G01 X29.3752 Y15.7838
G01 X29.3814 Y15.7914
G01 X29.3990 Y15.8150
G01 X29.4099 Y15.8313
G01 X29.4274 Y15.8609
G01 X29.4462 Y15.9008
G01 X29.4611 Y15.9424
G01 X29.4697 Y15.9756
G01 X29.4728 Y15.9900
G01 X29.4783 Y16.0289
G01 X29.4805 Y16.0730
G01 X29.4805 Y17.0230
G01 X29.4788 Y17.0622
G01 X29.4778 Y17.0720
G01 X29.4735 Y17.1011
G01 X29.4697 Y17.1204
G01 X29.4611 Y17.1536
G01 X29.4462 Y17.1952
G01 X29.4274 Y17.2351
G01 X29.4099 Y17.2647
G01 X29.3990 Y17.2810
G01 X29.3814 Y17.3046
G01 X29.3752 Y17.3122
G01 X29.3487 Y17.3412
G01 X29.3160 Y17.3709
G01 X29.2805 Y17.3972
G01 X29.2469 Y17.4175
G01 X29.2339 Y17.4243
G01 X29.2072 Y17.4368
G01 X29.1981 Y17.4406
G01 X29.1704 Y17.4505
G01 X29.1564 Y17.4550
G01 X29.1279 Y17.4622
G01 X29.1086 Y17.4660
G01 X29.0746 Y17.4708
G01 X29.0305 Y17.4730
G01 X28.3555 Y17.4730
G01 X28.3212 Y17.4716
G01 X28.3065 Y17.4703
G01 X28.2677 Y17.4644
G01 X28.2296 Y17.4550
G01 X28.2156 Y17.4505
G01 X28.1833 Y17.4387
G01 X28.1521 Y17.4243
G01 X28.1391 Y17.4175
G01 X28.1055 Y17.3972
G01 X28.0739 Y17.3739
G01 X28.0626 Y17.3644
G01 X28.0373 Y17.3412
G01 X28.0141 Y17.3159
G01 X28.0046 Y17.3046
G01 X27.9813 Y17.2730
G01 X27.9586 Y17.2351
G01 X27.9398 Y17.1952
G01 X27.9264 Y17.1583
G01 X27.9223 Y17.1442
G01 X27.9141 Y17.1108
G01 X27.9089 Y17.0769
G01 X27.9072 Y17.0622
G01 X27.9056 Y17.0279
G01 X27.9055 Y16.0730
G01 X27.9077 Y16.0289
G01 X27.9132 Y15.9900
G01 X27.9152 Y15.9804
G01 X27.9223 Y15.9518
G01 X27.9280 Y15.9331
G01 X27.9398 Y15.9008
G01 X27.9586 Y15.8609
G01 X27.9787 Y15.8271
G01 X27.9870 Y15.8150
G01 X28.0076 Y15.7875
G01 X28.0339 Y15.7583
G01 X28.0408 Y15.7514
G01 X28.0626 Y15.7316
G01 X28.0778 Y15.7191
G01 X28.1055 Y15.6988
G01 X28.1391 Y15.6785
G01 X28.1477 Y15.6739
G01 X28.1743 Y15.6612
G01 X28.1879 Y15.6554
G01 X28.2202 Y15.6439
G01 X28.2296 Y15.6410
G01 X28.2429 Y15.6376
G01 X28.2429 Y15.1079
G01 X28.2296 Y15.0998
G01 X28.2214 Y15.0944
G01 X28.1939 Y15.0739
G01 X28.1826 Y15.0644
G01 X28.1608 Y15.0446
G01 X28.1505 Y15.0341
G01 X28.1308 Y15.0122
G01 X28.1246 Y15.0046
G01 X28.1070 Y14.9810
G01 X28.0987 Y14.9689
G01 X28.0810 Y14.9394
G01 X28.0742 Y14.9264
G01 X28.0617 Y14.8997
G01 X28.0562 Y14.8860
G01 X28.0464 Y14.8583
G01 X28.0435 Y14.8489
G01 X28.0370 Y14.8231
G01 X27.2740 Y14.8231
G01 X27.2661 Y14.8536
G01 X27.2512 Y14.8952
G01 X27.2324 Y14.9351
G01 X27.2149 Y14.9647
G01 X27.2040 Y14.9810
G01 X27.1864 Y15.0046
G01 X27.1802 Y15.0122
G01 X27.1537 Y15.0412
G01 X27.1284 Y15.0644
G01 X27.1132 Y15.0769
G01 X27.0896 Y15.0944
G01 X27.0814 Y15.0998
G01 X27.0476 Y15.1199
G01 X27.0122 Y15.1368
G01 X26.9985 Y15.1423
G01 X26.9708 Y15.1521
G01 X26.9614 Y15.1550
G01 X26.9233 Y15.1644
G01 X26.8894 Y15.1696
G01 X26.8747 Y15.1713
G01 X26.8355 Y15.1730
G01 X25.9306 Y15.1729
G01 X25.8914 Y15.1708
G01 X25.8477 Y15.1644
G01 X25.8049 Y15.1536
G01 X25.7725 Y15.1423
G01 X25.7588 Y15.1368
G01 X25.7234 Y15.1199
G01 X25.6938 Y15.1024
G01 X25.6814 Y15.0944
G01 X25.6539 Y15.0739
G01 X25.6426 Y15.0644
G01 X25.6173 Y15.0412
G01 X25.5908 Y15.0122
G01 X25.5816 Y15.0007
G01 X25.5613 Y14.9730
G01 X25.5410 Y14.9394
G01 X25.5342 Y14.9264
G01 X25.5198 Y14.8952
G01 X25.5080 Y14.8629
G01 X25.5035 Y14.8489
G01 X25.4952 Y14.8156
G01 X25.4925 Y14.8011
G01 X25.4877 Y14.7671
G01 X25.4855 Y14.7230
G01 X25.4855 Y14.0230
G01 X25.4872 Y13.9838
G01 X25.4889 Y13.9691
G01 X25.4941 Y13.9352
G01 X25.5035 Y13.8971
G00 Z2.0000
G00 X25.5035 Y11.8971
G01 F60.00
G01 Z-0.3621
G01 F120.00
G01 X25.5064 Y11.8877
G01 X25.5162 Y11.8600
G01 X25.5237 Y11.8418
G01 X25.5386 Y11.8109
G01 X25.5613 Y11.7730
G01 X25.5876 Y11.7375
G01 X25.6105 Y11.7119
G01 X25.6208 Y11.7014
G01 X25.6426 Y11.6816
G01 X25.6578 Y11.6691
G01 X25.6855 Y11.6488
G01 X25.7234 Y11.6261
G01 X25.7633 Y11.6073
G01 X25.7956 Y11.5955
G01 X25.8096 Y11.5910
G01 X25.8381 Y11.5838
G01 X25.8574 Y11.5800
G01 X25.8914 Y11.5752
G01 X25.9354 Y11.5730
G01 X25.9354 Y10.9617
G01 X25.9296 Y10.9546
G01 X25.9120 Y10.9310
G01 X25.9011 Y10.9147
G01 X25.8836 Y10.8851
G01 X25.8648 Y10.8452
G01 X25.8499 Y10.8036
G01 X25.8413 Y10.7704
G01 X25.8382 Y10.7560
G01 X25.8339 Y10.7269
G01 X25.8319 Y10.7073
G01 X25.8305 Y10.6730
G01 X25.8305 Y9.7230
G01 X25.8327 Y9.6789
G01 X25.8382 Y9.6400
G01 X25.8413 Y9.6256
G01 X25.8499 Y9.5924
G01 X25.8648 Y9.5508
G01 X25.8836 Y9.5109
G01 X25.9011 Y9.4813
G01 X25.9120 Y9.4650
G01 X25.9296 Y9.4414
G01 X25.9358 Y9.4338
G01 X25.9623 Y9.4048
G01 X25.9876 Y9.3816
G01 X26.0028 Y9.3691
G01 X26.0264 Y9.3516
G01 X26.0346 Y9.3462
G01 X26.0684 Y9.3261
G01 X26.1038 Y9.3092
G01 X26.1175 Y9.3037
G01 X26.1452 Y9.2939
G01 X26.1546 Y9.2910
G01 X26.1679 Y9.2876
G01 X26.1679 Y8.7903
G01 X26.1333 Y8.7777
G01 X26.1021 Y8.7633
G01 X26.0891 Y8.7565
G01 X26.0555 Y8.7362
G01 X26.0239 Y8.7129
G01 X26.0126 Y8.7034
G01 X25.9873 Y8.6802
G01 X25.9608 Y8.6512
G01 X25.9516 Y8.6397
G01 X25.9341 Y8.6161
G01 X25.9287 Y8.6079
G01 X25.9086 Y8.5741
G01 X25.8937 Y8.5432
G01 X25.8879 Y8.5296
G01 X25.8749 Y8.4926
G01 X25.8652 Y8.4546
G01 X25.8625 Y8.4401
G01 X25.8577 Y8.4061
G01 X25.8555 Y8.3620
G01 X25.8555 Y7.4620
G01 X25.8577 Y7.4179
G01 X25.8641 Y7.3742
G01 X25.8749 Y7.3314
G01 X25.8898 Y7.2898
G01 X25.9042 Y7.2586
G01 X25.9110 Y7.2456
G01 X25.9287 Y7.2161
G01 X25.9341 Y7.2079
G01 X25.9516 Y7.1843
G01 X25.9608 Y7.1728
G01 X25.9805 Y7.1509
G01 X25.9946 Y7.1369
G01 X25.9644 Y7.1095
G01 X25.9538 Y7.0992
G01 X25.8978 Y7.0374
G01 X25.8886 Y7.0259
G01 X25.8448 Y6.9668
G01 X25.8364 Y6.9547
G01 X25.7960 Y6.8874
G01 X25.7868 Y6.8701
G01 X25.7513 Y6.7945
G01 X25.7214 Y6.7114
G01 X25.7173 Y6.6973
G01 X25.6973 Y6.6163
G01 X25.6848 Y6.5339
G01 X25.6829 Y6.5143
G01 X25.6790 Y6.4310
G01 X25.6829 Y6.3477
G01 X25.6848 Y6.3281
G01 X25.6973 Y6.2457
G01 X25.7199 Y6.1552
G01 X25.7513 Y6.0675
G01 X25.7912 Y5.9832
G01 X25.8391 Y5.9032
G01 X25.8946 Y5.8283
G01 X25.9572 Y5.7592
G01 X26.0263 Y5.6966
G01 X26.1012 Y5.6411
G01 X26.1812 Y5.5932
G01 X26.2655 Y5.5533
G01 X26.3532 Y5.5219
G01 X26.4437 Y5.4993
G01 X26.5359 Y5.4856
G01 X26.6290 Y5.4810
G01 X26.7221 Y5.4856
G01 X26.8143 Y5.4993
G01 X26.9048 Y5.5219
G01 X26.9834 Y5.5498
G01 X27.0015 Y5.5573
G01 X27.0681 Y5.5888
G01 X27.0854 Y5.5980
G01 X27.1568 Y5.6411
G01 X27.2317 Y5.6966
G01 X27.3008 Y5.7592
G01 X27.3569 Y5.8209
G01 X27.3694 Y5.8361
G01 X27.4132 Y5.8952
G01 X27.4241 Y5.9115
G01 X27.4668 Y5.9832
G01 X27.5067 Y6.0675
G01 X27.5381 Y6.1552
G01 X27.5586 Y6.2361
G01 X27.5624 Y6.2553
G01 X27.5732 Y6.3281
G01 X27.5751 Y6.3477
G01 X27.5788 Y6.4212
G01 X27.5788 Y6.4408
G01 X27.5744 Y6.5241
G01 X27.5624 Y6.6067
G01 X27.5586 Y6.6259
G01 X27.5381 Y6.7068
G01 X27.5085 Y6.7900
G01 X27.5027 Y6.8035
G01 X27.4668 Y6.8788
G01 X27.4189 Y6.9588
G01 X27.3634 Y7.0337
G01 X27.3075 Y7.0956
G01 X27.3008 Y7.1028
G01 X27.2897 Y7.1131
G01 X27.2984 Y7.1206
G01 X27.3237 Y7.1438
G01 X27.3534 Y7.1765
G01 X27.3797 Y7.2120
G01 X27.4024 Y7.2499
G01 X27.4212 Y7.2898
G01 X27.4361 Y7.3314
G01 X27.4469 Y7.3742
G01 X27.4528 Y7.4130
G01 X27.4541 Y7.4277
G01 X27.4555 Y7.4620
G01 X27.4555 Y8.3620
G01 X27.4533 Y8.4061
G01 X27.4469 Y8.4498
G01 X27.4361 Y8.4926
G01 X27.4248 Y8.5250
G01 X27.4193 Y8.5387
G01 X27.4024 Y8.5741
G01 X27.3797 Y8.6120
G01 X27.3594 Y8.6397
G01 X27.3469 Y8.6549
G01 X27.3271 Y8.6767
G01 X27.3202 Y8.6836
G01 X27.2910 Y8.7099
G01 X27.2635 Y8.7305
G01 X27.2472 Y8.7414
G01 X27.2219 Y8.7565
G01 X27.2133 Y8.7611
G01 X27.1777 Y8.7777
G01 X27.1408 Y8.7911
G01 X27.1267 Y8.7952
G01 X27.0981 Y8.8023
G01 X27.0885 Y8.8043
G01 X27.0681 Y8.8073
G01 X27.0681 Y9.2876
G01 X27.0814 Y9.2910
G01 X27.0908 Y9.2939
G01 X27.1231 Y9.3054
G01 X27.1367 Y9.3112
G01 X27.1633 Y9.3239
G01 X27.1719 Y9.3285
G01 X27.2055 Y9.3488
G01 X27.2332 Y9.3691
G01 X27.2484 Y9.3816
G01 X27.2702 Y9.4014
G01 X27.2771 Y9.4083
G01 X27.3034 Y9.4375
G01 X27.3240 Y9.4650
G01 X27.3323 Y9.4771
G01 X27.3524 Y9.5109
G01 X27.3712 Y9.5508
G01 X27.3830 Y9.5831
G01 X27.3887 Y9.6018
G01 X27.3958 Y9.6304
G01 X27.3978 Y9.6400
G01 X27.4033 Y9.6789
G01 X27.4055 Y9.7230
G01 X27.4055 Y10.6730
G01 X27.4033 Y10.7171
G01 X27.3985 Y10.7511
G01 X27.3958 Y10.7656
G01 X27.3861 Y10.8036
G01 X27.3712 Y10.8452
G01 X27.3524 Y10.8851
G01 X27.3297 Y10.9230
G01 X27.3034 Y10.9585
G01 X27.2737 Y10.9912
G01 X27.2410 Y11.0209
G01 X27.2055 Y11.0472
G01 X27.1676 Y11.0699
G01 X27.1277 Y11.0887
G01 X27.0861 Y11.1036
G01 X27.0433 Y11.1144
G01 X26.9996 Y11.1208
G01 X26.9653 Y11.1228
G01 X26.8356 Y11.1230
G01 X26.8356 Y11.5730
G01 X26.8796 Y11.5752
G01 X26.9233 Y11.5816
G01 X26.9661 Y11.5924
G01 X26.9985 Y11.6037
G01 X27.0167 Y11.6112
G01 X27.0433 Y11.6239
G01 X27.0562 Y11.6310
G01 X27.0855 Y11.6488
G01 X27.1210 Y11.6751
G01 X27.1537 Y11.7048
G01 X27.1769 Y11.7301
G01 X27.1894 Y11.7453
G01 X27.2069 Y11.7689
G01 X27.2149 Y11.7813
G01 X27.2324 Y11.8109
G01 X27.2512 Y11.8508
G01 X27.2661 Y11.8924
G01 X27.2769 Y11.9352
G01 X27.2833 Y11.9789
G01 X27.2855 Y12.0230
G01 X27.2855 Y12.7230
G01 X27.2838 Y12.7622
G01 X27.2821 Y12.7769
G01 X27.2769 Y12.8108
G01 X27.2675 Y12.8489
G01 X27.2630 Y12.8629
G01 X27.2512 Y12.8952
G01 X27.2368 Y12.9264
G01 X27.2300 Y12.9394
G01 X27.2123 Y12.9689
G01 X27.2040 Y12.9810
G01 X27.1834 Y13.0085
G01 X27.1537 Y13.0412
G01 X27.1210 Y13.0709
G01 X27.0896 Y13.0944
G01 X27.0772 Y13.1024
G01 X27.0476 Y13.1199
G01 X27.0167 Y13.1348
G01 X27.0031 Y13.1406
G01 X26.9708 Y13.1521
G01 X26.9567 Y13.1562
G01 X26.9233 Y13.1644
G01 X26.8894 Y13.1696
G01 X26.8747 Y13.1713
G01 X26.8355 Y13.1730
G01 X25.9355 Y13.1730
G01 X25.9012 Y13.1716
G01 X25.8865 Y13.1703
G01 X25.8477 Y13.1644
G01 X25.8143 Y13.1562
G01 X25.8002 Y13.1521
G01 X25.7679 Y13.1406
G01 X25.7543 Y13.1348
G01 X25.7234 Y13.1199
G01 X25.6896 Y13.0998
G01 X25.6775 Y13.0915
G01 X25.6500 Y13.0709
G01 X25.6173 Y13.0412
G01 X25.5876 Y13.0085
G01 X25.5613 Y12.9730
G01 X25.5386 Y12.9351
G01 X25.5198 Y12.8952
G01 X25.5049 Y12.8536
G01 X25.4952 Y12.8156
G01 X25.4925 Y12.8011
G01 X25.4877 Y12.7671
G01 X25.4855 Y12.7230
G01 X25.4855 Y12.0230
G01 X25.4872 Y11.9838
G01 X25.4889 Y11.9691
G01 X25.4941 Y11.9352
G01 X25.5035 Y11.8971
G00 Z2.0000
G00 X27.8764 Y8.4973
G01 F60.00
G01 Z-0.3621
G01 F120.00
G01 X27.8735 Y8.4879
G01 X27.8663 Y8.4594
G01 X27.8625 Y8.4401
G01 X27.8577 Y8.4061
G01 X27.8556 Y8.3669
G01 X27.8555 Y7.4620
G01 X27.8569 Y7.4277
G01 X27.8582 Y7.4130
G01 X27.8641 Y7.3742
G01 X27.8723 Y7.3408
G01 X27.8780 Y7.3221
G01 X27.8879 Y7.2944
G01 X27.8917 Y7.2853
G01 X27.9086 Y7.2499
G01 X27.9287 Y7.2161
G01 X27.9341 Y7.2079
G01 X27.9516 Y7.1843
G01 X27.9641 Y7.1691
G01 X27.9873 Y7.1438
G01 X28.0163 Y7.1173
G01 X28.0239 Y7.1111
G01 X28.0475 Y7.0935
G01 X28.0638 Y7.0826
G01 X28.0934 Y7.0651
G01 X28.1333 Y7.0463
G01 X28.1749 Y7.0314
G01 X28.2054 Y7.0235
G01 X28.2054 Y5.8696
G01 X28.2075 Y5.8304
G01 X28.2140 Y5.7867
G01 X28.2248 Y5.7438
G01 X28.2378 Y5.7068
G01 X28.2436 Y5.6933
G01 X28.2585 Y5.6623
G01 X28.2812 Y5.6244
G01 X28.3075 Y5.5889
G01 X28.3338 Y5.5597
G01 X29.4749 Y4.4186
G01 X29.4749 Y4.0595
G01 X29.4388 Y4.0424
G01 X29.4257 Y4.0357
G01 X29.3458 Y3.9877
G01 X29.3336 Y3.9794
G01 X29.2627 Y3.9267
G01 X29.2515 Y3.9172
G01 X29.1825 Y3.8545
G01 X29.1165 Y3.7819
G01 X29.1073 Y3.7704
G01 X29.0520 Y3.6953
G01 X28.9990 Y3.6070
G01 X28.9549 Y3.5138
G01 X28.9202 Y3.4168
G01 X28.8952 Y3.3168
G01 X28.8813 Y3.2247
G01 X28.8793 Y3.2051
G01 X28.8752 Y3.1218
G01 X28.8752 Y3.1022
G01 X28.8801 Y3.0091
G01 X28.8952 Y2.9072
G01 X28.9202 Y2.8072
G01 X28.9531 Y2.7147
G01 X28.9589 Y2.7012
G01 X28.9990 Y2.6170
G01 X29.0520 Y2.5287
G01 X29.1133 Y2.4459
G01 X29.1825 Y2.3695
G01 X29.2589 Y2.3003
G01 X29.3417 Y2.2390
G01 X29.4300 Y2.1860
G01 X29.5232 Y2.1419
G01 X29.6202 Y2.1072
G01 X29.7202 Y2.0822
G01 X29.8221 Y2.0671
G01 X29.9250 Y2.0620
G01 X30.0279 Y2.0671
G01 X30.1298 Y2.0822
G01 X30.2298 Y2.1072
G01 X30.3223 Y2.1401
G01 X30.3358 Y2.1459
G01 X30.4200 Y2.1860
G01 X30.5083 Y2.2390
G01 X30.5911 Y2.3003
G01 X30.6604 Y2.3628
G01 X30.6742 Y2.3766
G01 X30.7302 Y2.4385
G01 X30.7427 Y2.4536
G01 X30.7980 Y2.5287
G01 X30.8462 Y2.6085
G01 X30.8554 Y2.6258
G01 X30.8951 Y2.7102
G01 X30.9298 Y2.8072
G01 X30.9548 Y2.9072
G01 X30.9699 Y3.0091
G01 X30.9750 Y3.1120
G01 X30.9699 Y3.2149
G01 X30.9548 Y3.3168
G01 X30.9298 Y3.4168
G01 X30.8951 Y3.5138
G01 X30.8510 Y3.6070
G01 X30.7980 Y3.6953
G01 X30.7427 Y3.7704
G01 X30.7335 Y3.7819
G01 X30.6675 Y3.8545
G01 X30.5985 Y3.9172
G01 X30.5873 Y3.9267
G01 X30.5164 Y3.9794
G01 X30.5042 Y3.9877
G01 X30.4243 Y4.0357
G01 X30.4112 Y4.0424
G01 X30.3751 Y4.0595
G01 X30.3751 Y4.6050
G01 X30.3730 Y4.6491
G01 X30.3674 Y4.6880
G01 X30.3643 Y4.7024
G01 X30.3557 Y4.7357
G01 X30.3444 Y4.7681
G01 X30.3389 Y4.7818
G01 X30.3220 Y4.8172
G01 X30.3045 Y4.8468
G01 X30.2965 Y4.8591
G01 X30.2730 Y4.8906
G01 X30.2433 Y4.9233
G01 X29.1056 Y6.0609
G01 X29.1056 Y7.0235
G01 X29.1361 Y7.0314
G01 X29.1777 Y7.0463
G01 X29.2176 Y7.0651
G01 X29.2514 Y7.0852
G01 X29.2596 Y7.0906
G01 X29.2832 Y7.1081
G01 X29.2984 Y7.1206
G01 X29.3237 Y7.1438
G01 X29.3534 Y7.1765
G01 X29.3797 Y7.2120
G01 X29.3975 Y7.2413
G01 X29.4046 Y7.2542
G01 X29.4173 Y7.2808
G01 X29.4248 Y7.2990
G01 X29.4361 Y7.3314
G01 X29.4469 Y7.3742
G01 X29.4533 Y7.4179
G01 X29.4553 Y7.4522
G01 X29.4555 Y8.3620
G01 X29.4533 Y8.4061
G01 X29.4485 Y8.4401
G01 X29.4458 Y8.4546
G01 X29.4361 Y8.4926
G01 X29.4248 Y8.5250
G01 X29.4193 Y8.5387
G01 X29.4046 Y8.5698
G01 X29.3975 Y8.5827
G01 X29.3797 Y8.6120
G01 X29.3564 Y8.6436
G01 X29.3469 Y8.6549
G01 X29.3237 Y8.6802
G01 X29.2984 Y8.7034
G01 X29.2871 Y8.7129
G01 X29.2555 Y8.7362
G01 X29.2219 Y8.7565
G01 X29.2089 Y8.7633
G01 X29.1777 Y8.7777
G01 X29.1431 Y8.7903
G01 X29.1431 Y9.2876
G01 X29.1564 Y9.2910
G01 X29.1658 Y9.2939
G01 X29.1935 Y9.3037
G01 X29.2072 Y9.3092
G01 X29.2426 Y9.3261
G01 X29.2764 Y9.3462
G01 X29.2846 Y9.3516
G01 X29.3082 Y9.3691
G01 X29.3234 Y9.3816
G01 X29.3487 Y9.4048
G01 X29.3752 Y9.4338
G01 X29.3814 Y9.4414
G01 X29.3990 Y9.4650
G01 X29.4099 Y9.4813
G01 X29.4274 Y9.5109
G01 X29.4462 Y9.5508
G01 X29.4611 Y9.5924
G01 X29.4697 Y9.6256
G01 X29.4735 Y9.6449
G01 X29.4778 Y9.6740
G01 X29.4788 Y9.6838
G01 X29.4805 Y9.7230
G01 X29.4805 Y10.6730
G01 X29.4791 Y10.7073
G01 X29.4771 Y10.7269
G01 X29.4728 Y10.7560
G01 X29.4697 Y10.7704
G01 X29.4611 Y10.8036
G01 X29.4462 Y10.8452
G01 X29.4274 Y10.8851
G01 X29.4099 Y10.9147
G01 X29.3990 Y10.9310
G01 X29.3814 Y10.9546
G01 X29.3756 Y10.9617
G01 X29.3756 Y11.5730
G01 X29.4196 Y11.5752
G01 X29.4633 Y11.5816
G01 X29.5061 Y11.5924
G01 X29.5477 Y11.6073
G01 X29.5876 Y11.6261
G01 X29.6255 Y11.6488
G01 X29.6610 Y11.6751
G01 X29.6866 Y11.6980
G01 X29.6971 Y11.7083
G01 X29.7202 Y11.7338
G01 X29.7294 Y11.7453
G01 X29.7469 Y11.7689
G01 X29.7549 Y11.7813
G01 X29.7700 Y11.8066
G01 X29.7746 Y11.8152
G01 X29.7873 Y11.8418
G01 X29.7931 Y11.8554
G01 X29.8046 Y11.8877
G01 X29.8075 Y11.8971
G01 X29.8147 Y11.9256
G01 X29.8178 Y11.9400
G01 X29.8221 Y11.9691
G01 X29.8241 Y11.9887
G01 X29.8255 Y12.0230
G01 X29.8254 Y12.7279
G01 X29.8238 Y12.7622
G01 X29.8221 Y12.7769
G01 X29.8169 Y12.8108
G01 X29.8075 Y12.8489
G01 X29.8030 Y12.8629
G01 X29.7912 Y12.8952
G01 X29.7746 Y12.9308
G01 X29.7675 Y12.9437
G01 X29.7497 Y12.9730
G01 X29.7294 Y13.0007
G01 X29.7202 Y13.0122
G01 X29.6971 Y13.0377
G01 X29.6866 Y13.0480
G01 X29.6610 Y13.0709
G01 X29.6335 Y13.0915
G01 X29.6214 Y13.0998
G01 X29.5919 Y13.1175
G01 X29.5789 Y13.1243
G01 X29.5477 Y13.1387
G01 X29.5154 Y13.1505
G01 X29.5014 Y13.1550
G01 X29.4729 Y13.1622
G01 X29.4536 Y13.1660
G01 X29.4196 Y13.1708
G01 X29.3755 Y13.1730
G01 X28.4755 Y13.1730
G01 X28.4314 Y13.1708
G01 X28.3877 Y13.1644
G01 X28.3496 Y13.1550
G01 X28.3356 Y13.1505
G01 X28.3033 Y13.1387
G01 X28.2721 Y13.1243
G01 X28.2591 Y13.1175
G01 X28.2255 Y13.0972
G01 X28.1939 Y13.0739
G01 X28.1826 Y13.0644
G01 X28.1573 Y13.0412
G01 X28.1341 Y13.0159
G01 X28.1246 Y13.0046
G01 X28.1013 Y12.9730
G01 X28.0810 Y12.9394
G01 X28.0742 Y12.9264
G01 X28.0598 Y12.8952
G01 X28.0480 Y12.8629
G01 X28.0423 Y12.8442
G01 X28.0352 Y12.8156
G01 X28.0332 Y12.8060
G01 X28.0277 Y12.7671
G01 X28.0256 Y12.7279
G01 X28.0256 Y12.0181
G01 X28.0269 Y11.9887
G01 X28.0282 Y11.9740
G01 X28.0332 Y11.9400
G01 X28.0363 Y11.9256
G01 X28.0449 Y11.8924
G01 X28.0598 Y11.8508
G01 X28.0786 Y11.8109
G01 X28.0961 Y11.7813
G01 X28.1041 Y11.7689
G01 X28.1216 Y11.7453
G01 X28.1341 Y11.7301
G01 X28.1573 Y11.7048
G01 X28.1900 Y11.6751
G01 X28.2255 Y11.6488
G01 X28.2548 Y11.6310
G01 X28.2677 Y11.6239
G01 X28.2943 Y11.6112
G01 X28.3125 Y11.6037
G01 X28.3449 Y11.5924
G01 X28.3877 Y11.5816
G01 X28.4314 Y11.5752
G01 X28.4754 Y11.5730
G01 X28.4754 Y11.1230
G01 X28.3457 Y11.1228
G01 X28.3114 Y11.1208
G01 X28.2677 Y11.1144
G01 X28.2249 Y11.1036
G01 X28.1833 Y11.0887
G01 X28.1434 Y11.0699
G01 X28.1096 Y11.0498
G01 X28.0975 Y11.0415
G01 X28.0700 Y11.0209
G01 X28.0373 Y10.9912
G01 X28.0076 Y10.9585
G01 X27.9813 Y10.9230
G01 X27.9586 Y10.8851
G01 X27.9398 Y10.8452
G01 X27.9249 Y10.8036
G01 X27.9152 Y10.7656
G01 X27.9125 Y10.7511
G01 X27.9077 Y10.7171
G01 X27.9055 Y10.6730
G01 X27.9055 Y9.7230
G01 X27.9077 Y9.6789
G01 X27.9132 Y9.6400
G01 X27.9152 Y9.6304
G01 X27.9223 Y9.6018
G01 X27.9280 Y9.5831
G01 X27.9398 Y9.5508
G01 X27.9586 Y9.5109
G01 X27.9787 Y9.4771
G01 X27.9870 Y9.4650
G01 X28.0076 Y9.4375
G01 X28.0339 Y9.4083
G01 X28.0408 Y9.4014
G01 X28.0626 Y9.3816
G01 X28.0778 Y9.3691
G01 X28.1055 Y9.3488
G01 X28.1391 Y9.3285
G01 X28.1477 Y9.3239
G01 X28.1743 Y9.3112
G01 X28.1879 Y9.3054
G01 X28.2202 Y9.2939
G01 X28.2296 Y9.2910
G01 X28.2429 Y9.2876
G01 X28.2429 Y8.8073
G01 X28.2177 Y8.8034
G01 X28.1796 Y8.7940
G01 X28.1702 Y8.7911
G01 X28.1425 Y8.7813
G01 X28.1288 Y8.7758
G01 X28.0934 Y8.7589
G01 X28.0638 Y8.7414
G01 X28.0475 Y8.7305
G01 X28.0239 Y8.7129
G01 X28.0163 Y8.7067
G01 X27.9873 Y8.6802
G01 X27.9641 Y8.6549
G01 X27.9546 Y8.6436
G01 X27.9313 Y8.6120
G01 X27.9110 Y8.5784
G01 X27.9042 Y8.5654
G01 X27.8898 Y8.5342
G01 X27.8764 Y8.4973
G00 Z2.0000
G00 X30.5835 Y11.8971
G01 F60.00
G01 Z-0.3621
G01 F120.00
G01 X30.5864 Y11.8877
G01 X30.5962 Y11.8600
G01 X30.6037 Y11.8418
G01 X30.6186 Y11.8109
G01 X30.6413 Y11.7730
G01 X30.6676 Y11.7375
G01 X30.6905 Y11.7119
G01 X30.7008 Y11.7014
G01 X30.7226 Y11.6816
G01 X30.7378 Y11.6691
G01 X30.7655 Y11.6488
G01 X30.8034 Y11.6261
G01 X30.8433 Y11.6073
G01 X30.8756 Y11.5955
G01 X30.8896 Y11.5910
G01 X30.9181 Y11.5838
G01 X30.9374 Y11.5800
G01 X30.9714 Y11.5752
G01 X31.0154 Y11.5730
G01 X31.0154 Y10.9617
G01 X31.0096 Y10.9546
G01 X30.9920 Y10.9310
G01 X30.9811 Y10.9147
G01 X30.9636 Y10.8851
G01 X30.9448 Y10.8452
G01 X30.9299 Y10.8036
G01 X30.9213 Y10.7704
G01 X30.9182 Y10.7560
G01 X30.9139 Y10.7269
G01 X30.9119 Y10.7073
G01 X30.9105 Y10.6730
G01 X30.9105 Y9.7230
G01 X30.9127 Y9.6789
G01 X30.9182 Y9.6400
G01 X30.9213 Y9.6256
G01 X30.9299 Y9.5924
G01 X30.9448 Y9.5508
G01 X30.9636 Y9.5109
G01 X30.9811 Y9.4813
G01 X30.9920 Y9.4650
G01 X31.0096 Y9.4414
G01 X31.0158 Y9.4338
G01 X31.0423 Y9.4048
G01 X31.0676 Y9.3816
G01 X31.0828 Y9.3691
G01 X31.1064 Y9.3516
G01 X31.1146 Y9.3462
G01 X31.1484 Y9.3261
G01 X31.1838 Y9.3092
G01 X31.1975 Y9.3037
G01 X31.2252 Y9.2939
G01 X31.2346 Y9.2910
G01 X31.2479 Y9.2876
G01 X31.2479 Y8.7903
G01 X31.2133 Y8.7777
G01 X31.1821 Y8.7633
G01 X31.1691 Y8.7565
G01 X31.1355 Y8.7362
G01 X31.1039 Y8.7129
G01 X31.0926 Y8.7034
G01 X31.0673 Y8.6802
G01 X31.0408 Y8.6512
G01 X31.0316 Y8.6397
G01 X31.0141 Y8.6161
G01 X31.0087 Y8.6079
G01 X30.9886 Y8.5741
G01 X30.9737 Y8.5432
G01 X30.9679 Y8.5296
G01 X30.9549 Y8.4926
G01 X30.9452 Y8.4546
G01 X30.9425 Y8.4401
G01 X30.9377 Y8.4061
G01 X30.9355 Y8.3620
G01 X30.9355 Y7.4620
G01 X30.9377 Y7.4179
G01 X30.9441 Y7.3742
G01 X30.9549 Y7.3314
G01 X30.9698 Y7.2898
G01 X30.9842 Y7.2586
G01 X30.9910 Y7.2456
G01 X31.0087 Y7.2161
G01 X31.0141 Y7.2079
G01 X31.0316 Y7.1843
G01 X31.0408 Y7.1728
G01 X31.0605 Y7.1509
G01 X31.0746 Y7.1369
G01 X31.0444 Y7.1095
G01 X31.0338 Y7.0992
G01 X30.9778 Y7.0374
G01 X30.9686 Y7.0259
G01 X30.9248 Y6.9668
G01 X30.9164 Y6.9547
G01 X30.8760 Y6.8874
G01 X30.8668 Y6.8701
G01 X30.8313 Y6.7945
G01 X30.8014 Y6.7114
G01 X30.7973 Y6.6973
G01 X30.7773 Y6.6163
G01 X30.7648 Y6.5339
G01 X30.7629 Y6.5143
G01 X30.7590 Y6.4310
G01 X30.7629 Y6.3477
G01 X30.7648 Y6.3281
G01 X30.7773 Y6.2457
G01 X30.7999 Y6.1552
G01 X30.8313 Y6.0675
G01 X30.8712 Y5.9832
G01 X30.9191 Y5.9032
G01 X30.9746 Y5.8283
G01 X31.0372 Y5.7592
G01 X31.1063 Y5.6966
G01 X31.1812 Y5.6411
G01 X31.2612 Y5.5932
G01 X31.3455 Y5.5533
G01 X31.4332 Y5.5219
G01 X31.5237 Y5.4993
G01 X31.6159 Y5.4856
G01 X31.7090 Y5.4810
G01 X31.8021 Y5.4856
G01 X31.8943 Y5.4993
G01 X31.9848 Y5.5219
G01 X32.0634 Y5.5498
G01 X32.0815 Y5.5573
G01 X32.1481 Y5.5888
G01 X32.1654 Y5.5980
G01 X32.2368 Y5.6411
G01 X32.3117 Y5.6966
G01 X32.3808 Y5.7592
G01 X32.4369 Y5.8209
G01 X32.4494 Y5.8361
G01 X32.4932 Y5.8952
G01 X32.5041 Y5.9115
G01 X32.5468 Y5.9832
G01 X32.5867 Y6.0675
G01 X32.6181 Y6.1552
G01 X32.6386 Y6.2361
G01 X32.6424 Y6.2553
G01 X32.6532 Y6.3281
G01 X32.6551 Y6.3477
G01 X32.6588 Y6.4212
G01 X32.6588 Y6.4408
G01 X32.6544 Y6.5241
G01 X32.6424 Y6.6067
G01 X32.6386 Y6.6259
G01 X32.6181 Y6.7068
G01 X32.5885 Y6.7900
G01 X32.5827 Y6.8035
G01 X32.5468 Y6.8788
G01 X32.4989 Y6.9588
G01 X32.4434 Y7.0337
G01 X32.3875 Y7.0956
G01 X32.3808 Y7.1028
G01 X32.3697 Y7.1131
G01 X32.3784 Y7.1206
G01 X32.4037 Y7.1438
G01 X32.4334 Y7.1765
G01 X32.4597 Y7.2120
G01 X32.4824 Y7.2499
G01 X32.5012 Y7.2898
G01 X32.5161 Y7.3314
G01 X32.5269 Y7.3742
G01 X32.5328 Y7.4130
G01 X32.5341 Y7.4277
G01 X32.5355 Y7.4620
G01 X32.5355 Y8.3620
G01 X32.5333 Y8.4061
G01 X32.5269 Y8.4498
G01 X32.5161 Y8.4926
G01 X32.5048 Y8.5250
G01 X32.4993 Y8.5387
G01 X32.4824 Y8.5741
G01 X32.4597 Y8.6120
G01 X32.4394 Y8.6397
G01 X32.4269 Y8.6549
G01 X32.4071 Y8.6767
G01 X32.4002 Y8.6836
G01 X32.3710 Y8.7099
G01 X32.3435 Y8.7305
G01 X32.3272 Y8.7414
G01 X32.3019 Y8.7565
G01 X32.2933 Y8.7611
G01 X32.2577 Y8.7777
G01 X32.2208 Y8.7911
G01 X32.2067 Y8.7952
G01 X32.1781 Y8.8023
G01 X32.1685 Y8.8043
G01 X32.1481 Y8.8073
G01 X32.1481 Y9.2876
G01 X32.1614 Y9.2910
G01 X32.1708 Y9.2939
G01 X32.2031 Y9.3054
G01 X32.2167 Y9.3112
G01 X32.2433 Y9.3239
G01 X32.2519 Y9.3285
G01 X32.2855 Y9.3488
G01 X32.3132 Y9.3691
G01 X32.3284 Y9.3816
G01 X32.3502 Y9.4014
G01 X32.3571 Y9.4083
G01 X32.3834 Y9.4375
G01 X32.4040 Y9.4650
G01 X32.4123 Y9.4771
G01 X32.4324 Y9.5109
G01 X32.4512 Y9.5508
G01 X32.4630 Y9.5831
G01 X32.4687 Y9.6018
G01 X32.4758 Y9.6304
G01 X32.4778 Y9.6400
G01 X32.4833 Y9.6789
G01 X32.4855 Y9.7230
G01 X32.4855 Y10.6730
G01 X32.4833 Y10.7171
G01 X32.4785 Y10.7511
G01 X32.4758 Y10.7656
G01 X32.4661 Y10.8036
G01 X32.4512 Y10.8452
G01 X32.4324 Y10.8851
G01 X32.4097 Y10.9230
G01 X32.3834 Y10.9585
G01 X32.3537 Y10.9912
G01 X32.3210 Y11.0209
G01 X32.2855 Y11.0472
G01 X32.2476 Y11.0699
G01 X32.2077 Y11.0887
G01 X32.1661 Y11.1036
G01 X32.1233 Y11.1144
G01 X32.0796 Y11.1208
G01 X32.0453 Y11.1228
G01 X31.9156 Y11.1230
G01 X31.9156 Y11.5730
G01 X31.9596 Y11.5752
G01 X32.0033 Y11.5816
G01 X32.0461 Y11.5924
G01 X32.0785 Y11.6037
G01 X32.0967 Y11.6112
G01 X32.1233 Y11.6239
G01 X32.1362 Y11.6310
G01 X32.1655 Y11.6488
G01 X32.2010 Y11.6751
G01 X32.2337 Y11.7048
G01 X32.2569 Y11.7301
G01 X32.2694 Y11.7453
G01 X32.2869 Y11.7689
G01 X32.2949 Y11.7813
G01 X32.3124 Y11.8109
G01 X32.3312 Y11.8508
G01 X32.3461 Y11.8924
G01 X32.3569 Y11.9352
G01 X32.3633 Y11.9789
G01 X32.3655 Y12.0230
G01 X32.3655 Y12.7230
G01 X32.3638 Y12.7622
G01 X32.3621 Y12.7769
G01 X32.3569 Y12.8108
G01 X32.3475 Y12.8489
G01 X32.3430 Y12.8629
G01 X32.3312 Y12.8952
G01 X32.3168 Y12.9264
G01 X32.3100 Y12.9394
G01 X32.2923 Y12.9689
G01 X32.2840 Y12.9810
G01 X32.2634 Y13.0085
G01 X32.2337 Y13.0412
G01 X32.2010 Y13.0709
G01 X32.1696 Y13.0944
G01 X32.1572 Y13.1024
G01 X32.1276 Y13.1199
G01 X32.0967 Y13.1348
G01 X32.0831 Y13.1406
G01 X32.0508 Y13.1521
G01 X32.0367 Y13.1562
G01 X32.0033 Y13.1644
G01 X31.9694 Y13.1696
G01 X31.9547 Y13.1713
G01 X31.9155 Y13.1730
G01 X31.0155 Y13.1730
G01 X30.9812 Y13.1716
G01 X30.9665 Y13.1703
G01 X30.9277 Y13.1644
G01 X30.8943 Y13.1562
G01 X30.8802 Y13.1521
G01 X30.8479 Y13.1406
G01 X30.8343 Y13.1348
G01 X30.8034 Y13.1199
G01 X30.7696 Y13.0998
G01 X30.7575 Y13.0915
G01 X30.7300 Y13.0709
G01 X30.6973 Y13.0412
G01 X30.6676 Y13.0085
G01 X30.6413 Y12.9730
G01 X30.6186 Y12.9351
G01 X30.5998 Y12.8952
G01 X30.5849 Y12.8536
G01 X30.5752 Y12.8156
G01 X30.5725 Y12.8011
G01 X30.5677 Y12.7671
G01 X30.5655 Y12.7230
G01 X30.5655 Y12.0230
G01 X30.5672 Y11.9838
G01 X30.5689 Y11.9691
G01 X30.5741 Y11.9352
G01 X30.5835 Y11.8971
G00 Z2.0000
G00 X30.5835 Y13.8971
G01 F60.00
G01 Z-0.3621
G01 F120.00
G01 X30.5864 Y13.8877
G01 X30.5962 Y13.8600
G01 X30.6037 Y13.8418
G01 X30.6186 Y13.8109
G01 X30.6413 Y13.7730
G01 X30.6646 Y13.7414
G01 X30.6741 Y13.7301
G01 X30.6973 Y13.7048
G01 X30.7300 Y13.6751
G01 X30.7614 Y13.6516
G01 X30.7738 Y13.6436
G01 X30.8034 Y13.6261
G01 X30.8433 Y13.6073
G01 X30.8849 Y13.5924
G01 X30.9181 Y13.5838
G01 X30.9325 Y13.5807
G01 X30.9616 Y13.5764
G01 X30.9812 Y13.5744
G01 X31.0155 Y13.5730
G01 X31.9204 Y13.5731
G01 X31.9547 Y13.5747
G01 X31.9694 Y13.5764
G01 X32.0033 Y13.5816
G01 X32.0367 Y13.5898
G01 X32.0508 Y13.5939
G01 X32.0877 Y13.6073
G01 X32.1233 Y13.6239
G01 X32.1362 Y13.6310
G01 X32.1655 Y13.6488
G01 X32.1971 Y13.6721
G01 X32.2084 Y13.6816
G01 X32.2302 Y13.7014
G01 X32.2371 Y13.7083
G01 X32.2634 Y13.7375
G01 X32.2840 Y13.7650
G01 X32.2923 Y13.7771
G01 X32.3124 Y13.8109
G01 X32.3273 Y13.8418
G01 X32.3331 Y13.8554
G01 X32.3461 Y13.8924
G01 X32.3540 Y13.9229
G01 X33.1170 Y13.9229
G01 X33.1249 Y13.8924
G01 X33.1398 Y13.8508
G01 X33.1586 Y13.8109
G01 X33.1761 Y13.7813
G01 X33.1870 Y13.7650
G01 X33.2046 Y13.7414
G01 X33.2108 Y13.7338
G01 X33.2373 Y13.7048
G01 X33.2663 Y13.6783
G01 X33.2739 Y13.6721
G01 X33.2975 Y13.6545
G01 X33.3138 Y13.6436
G01 X33.3434 Y13.6261
G01 X33.3833 Y13.6073
G01 X33.4249 Y13.5924
G01 X33.4581 Y13.5838
G01 X33.4725 Y13.5807
G01 X33.5114 Y13.5752
G01 X33.5555 Y13.5730
G01 X34.4555 Y13.5730
G01 X34.4947 Y13.5747
G01 X34.5045 Y13.5757
G01 X34.5336 Y13.5800
G01 X34.5529 Y13.5838
G01 X34.5861 Y13.5924
G01 X34.6277 Y13.6073
G01 X34.6676 Y13.6261
G01 X34.6972 Y13.6436
G01 X34.7135 Y13.6545
G01 X34.7371 Y13.6721
G01 X34.7447 Y13.6783
G01 X34.7737 Y13.7048
G01 X34.8034 Y13.7375
G01 X34.8297 Y13.7730
G01 X34.8524 Y13.8109
G01 X34.8712 Y13.8508
G01 X34.8861 Y13.8924
G01 X34.8969 Y13.9352
G01 X34.9028 Y13.9740
G01 X34.9041 Y13.9887
G01 X34.9055 Y14.0230
G01 X34.9054 Y14.7279
G01 X34.9033 Y14.7671
G01 X34.8978 Y14.8060
G01 X34.8958 Y14.8156
G01 X34.8887 Y14.8442
G01 X34.8830 Y14.8629
G01 X34.8731 Y14.8906
G01 X34.8693 Y14.8997
G01 X34.8568 Y14.9264
G01 X34.8500 Y14.9394
G01 X34.8349 Y14.9647
G01 X34.8269 Y14.9771
G01 X34.8064 Y15.0046
G01 X34.7969 Y15.0159
G01 X34.7737 Y15.0412
G01 X34.7484 Y15.0644
G01 X34.7371 Y15.0739
G01 X34.7135 Y15.0915
G01 X34.7014 Y15.0998
G01 X34.6719 Y15.1175
G01 X34.6633 Y15.1221
G01 X34.6367 Y15.1348
G01 X34.6185 Y15.1423
G01 X34.5908 Y15.1521
G01 X34.5767 Y15.1562
G01 X34.5433 Y15.1644
G01 X34.4996 Y15.1708
G01 X34.4555 Y15.1730
G01 X34.2231 Y15.1730
G01 X34.2231 Y15.6376
G01 X34.2364 Y15.6410
G01 X34.2458 Y15.6439
G01 X34.2735 Y15.6537
G01 X34.2872 Y15.6592
G01 X34.3226 Y15.6761
G01 X34.3564 Y15.6962
G01 X34.3646 Y15.7016
G01 X34.3882 Y15.7191
G01 X34.4034 Y15.7316
G01 X34.4287 Y15.7548
G01 X34.4552 Y15.7838
G01 X34.4614 Y15.7914
G01 X34.4790 Y15.8150
G01 X34.4899 Y15.8313
G01 X34.5074 Y15.8609
G01 X34.5262 Y15.9008
G01 X34.5411 Y15.9424
G01 X34.5497 Y15.9756
G01 X34.5528 Y15.9900
G01 X34.5583 Y16.0289
G01 X34.5605 Y16.0730
G01 X34.5605 Y17.0230
G01 X34.5588 Y17.0622
G01 X34.5578 Y17.0720
G01 X34.5535 Y17.1011
G01 X34.5497 Y17.1204
G01 X34.5411 Y17.1536
G01 X34.5262 Y17.1952
G01 X34.5074 Y17.2351
G01 X34.4899 Y17.2647
G01 X34.4790 Y17.2810
G01 X34.4614 Y17.3046
G01 X34.4552 Y17.3122
G01 X34.4287 Y17.3412
G01 X34.3960 Y17.3709
G01 X34.3605 Y17.3972
G01 X34.3269 Y17.4175
G01 X34.3139 Y17.4243
G01 X34.2872 Y17.4368
G01 X34.2781 Y17.4406
G01 X34.2504 Y17.4505
G01 X34.2364 Y17.4550
G01 X34.2079 Y17.4622
G01 X34.1886 Y17.4660
G01 X34.1546 Y17.4708
G01 X34.1105 Y17.4730
G01 X33.4355 Y17.4730
G01 X33.4012 Y17.4716
G01 X33.3865 Y17.4703
G01 X33.3477 Y17.4644
G01 X33.3096 Y17.4550
G01 X33.2956 Y17.4505
G01 X33.2633 Y17.4387
G01 X33.2321 Y17.4243
G01 X33.2191 Y17.4175
G01 X33.1855 Y17.3972
G01 X33.1539 Y17.3739
G01 X33.1426 Y17.3644
G01 X33.1173 Y17.3412
G01 X33.0941 Y17.3159
G01 X33.0846 Y17.3046
G01 X33.0613 Y17.2730
G01 X33.0386 Y17.2351
G01 X33.0198 Y17.1952
G01 X33.0064 Y17.1583
G01 X33.0023 Y17.1442
G01 X32.9941 Y17.1108
G01 X32.9889 Y17.0769
G01 X32.9872 Y17.0622
G01 X32.9856 Y17.0279
G01 X32.9855 Y16.0730
G01 X32.9877 Y16.0289
G01 X32.9932 Y15.9900
G01 X32.9952 Y15.9804
G01 X33.0023 Y15.9518
G01 X33.0080 Y15.9331
G01 X33.0198 Y15.9008
G01 X33.0386 Y15.8609
G01 X33.0587 Y15.8271
G01 X33.0670 Y15.8150
G01 X33.0876 Y15.7875
G01 X33.1139 Y15.7583
G01 X33.1208 Y15.7514
G01 X33.1426 Y15.7316
G01 X33.1578 Y15.7191
G01 X33.1855 Y15.6988
G01 X33.2191 Y15.6785
G01 X33.2277 Y15.6739
G01 X33.2543 Y15.6612
G01 X33.2679 Y15.6554
G01 X33.3002 Y15.6439
G01 X33.3096 Y15.6410
G01 X33.3229 Y15.6376
G01 X33.3229 Y15.1079
G01 X33.3096 Y15.0998
G01 X33.3014 Y15.0944
G01 X33.2739 Y15.0739
G01 X33.2626 Y15.0644
G01 X33.2408 Y15.0446
G01 X33.2305 Y15.0341
G01 X33.2108 Y15.0122
G01 X33.2046 Y15.0046
G01 X33.1870 Y14.9810
G01 X33.1787 Y14.9689
G01 X33.1610 Y14.9394
G01 X33.1542 Y14.9264
G01 X33.1417 Y14.8997
G01 X33.1362 Y14.8860
G01 X33.1264 Y14.8583
G01 X33.1235 Y14.8489
G01 X33.1170 Y14.8231
G01 X32.3540 Y14.8231
G01 X32.3461 Y14.8536
G01 X32.3312 Y14.8952
G01 X32.3124 Y14.9351
G01 X32.2949 Y14.9647
G01 X32.2840 Y14.9810
G01 X32.2664 Y15.0046
G01 X32.2602 Y15.0122
G01 X32.2337 Y15.0412
G01 X32.2084 Y15.0644
G01 X32.1932 Y15.0769
G01 X32.1696 Y15.0944
G01 X32.1614 Y15.0998
G01 X32.1276 Y15.1199
G01 X32.0922 Y15.1368
G01 X32.0785 Y15.1423
G01 X32.0508 Y15.1521
G01 X32.0414 Y15.1550
G01 X32.0033 Y15.1644
G01 X31.9694 Y15.1696
G01 X31.9547 Y15.1713
G01 X31.9155 Y15.1730
G01 X31.0106 Y15.1729
G01 X30.9714 Y15.1708
G01 X30.9277 Y15.1644
G01 X30.8849 Y15.1536
G01 X30.8525 Y15.1423
G01 X30.8388 Y15.1368
G01 X30.8034 Y15.1199
G01 X30.7738 Y15.1024
G01 X30.7614 Y15.0944
G01 X30.7339 Y15.0739
G01 X30.7226 Y15.0644
G01 X30.6973 Y15.0412
G01 X30.6708 Y15.0122
G01 X30.6616 Y15.0007
G01 X30.6413 Y14.9730
G01 X30.6210 Y14.9394
G01 X30.6142 Y14.9264
G01 X30.5998 Y14.8952
G01 X30.5880 Y14.8629
G01 X30.5835 Y14.8489
G01 X30.5752 Y14.8156
G01 X30.5725 Y14.8011
G01 X30.5677 Y14.7671
G01 X30.5655 Y14.7230
G01 X30.5655 Y14.0230
G01 X30.5672 Y13.9838
G01 X30.5689 Y13.9691
G01 X30.5741 Y13.9352
G01 X30.5835 Y13.8971
G00 Z2.0000
G00 X30.9285 Y15.9471
G01 F60.00
G01 Z-0.3621
G01 F120.00
G01 X30.9314 Y15.9377
G01 X30.9412 Y15.9100
G01 X30.9487 Y15.8918
G01 X30.9636 Y15.8609
G01 X30.9863 Y15.8230
G01 X31.0096 Y15.7914
G01 X31.0191 Y15.7801
G01 X31.0423 Y15.7548
G01 X31.0750 Y15.7251
G01 X31.1064 Y15.7016
G01 X31.1188 Y15.6936
G01 X31.1484 Y15.6761
G01 X31.1883 Y15.6573
G01 X31.2299 Y15.6424
G01 X31.2631 Y15.6338
G01 X31.2775 Y15.6307
G01 X31.3066 Y15.6264
G01 X31.3262 Y15.6244
G01 X31.3605 Y15.6230
G01 X32.0355 Y15.6230
G01 X32.0796 Y15.6252
G01 X32.1233 Y15.6316
G01 X32.1661 Y15.6424
G01 X32.2077 Y15.6573
G01 X32.2476 Y15.6761
G01 X32.2814 Y15.6962
G01 X32.2935 Y15.7045
G01 X32.3171 Y15.7221
G01 X32.3284 Y15.7316
G01 X32.3537 Y15.7548
G01 X32.3769 Y15.7801
G01 X32.3864 Y15.7914
G01 X32.4069 Y15.8189
G01 X32.4149 Y15.8313
G01 X32.4300 Y15.8566
G01 X32.4368 Y15.8696
G01 X32.4512 Y15.9008
G01 X32.4630 Y15.9331
G01 X32.4675 Y15.9471
G01 X32.4758 Y15.9804
G01 X32.4785 Y15.9949
G01 X32.4833 Y16.0289
G01 X32.4853 Y16.0632
G01 X32.4855 Y17.0230
G01 X32.4833 Y17.0671
G01 X32.4769 Y17.1108
G01 X32.4675 Y17.1489
G01 X32.4630 Y17.1629
G01 X32.4512 Y17.1952
G01 X32.4368 Y17.2264
G01 X32.4300 Y17.2394
G01 X32.4123 Y17.2689
G01 X32.4040 Y17.2810
G01 X32.3834 Y17.3085
G01 X32.3537 Y17.3412
G01 X32.3284 Y17.3644
G01 X32.3171 Y17.3739
G01 X32.2896 Y17.3944
G01 X32.2756 Y17.4034
G01 X33.9213 Y19.0491
G01 X33.9445 Y19.0744
G01 X33.9540 Y19.0857
G01 X33.9773 Y19.1173
G01 X33.9951 Y19.1467
G01 X34.0022 Y19.1596
G01 X34.0189 Y19.1951
G01 X34.0323 Y19.2321
G01 X34.0364 Y19.2462
G01 X34.0445 Y19.2796
G01 X34.0498 Y19.3135
G01 X34.0514 Y19.3282
G01 X34.0531 Y19.3674
G01 X34.0531 Y19.7915
G01 X34.0892 Y19.8086
G01 X34.1023 Y19.8153
G01 X34.1822 Y19.8633
G01 X34.1944 Y19.8716
G01 X34.2653 Y19.9243
G01 X34.2765 Y19.9338
G01 X34.3455 Y19.9965
G01 X34.4115 Y20.0691
G01 X34.4207 Y20.0806
G01 X34.4760 Y20.1557
G01 X34.5290 Y20.2440
G01 X34.5731 Y20.3372
G01 X34.6047 Y20.4249
G01 X34.6092 Y20.4389
G01 X34.6328 Y20.5342
G01 X34.6479 Y20.6361
G01 X34.6530 Y20.7390
G01 X34.6487 Y20.8321
G01 X34.6467 Y20.8517
G01 X34.6345 Y20.9342
G01 X34.6307 Y20.9534
G01 X34.6078 Y21.0438
G01 X34.5731 Y21.1408
G01 X34.5290 Y21.2340
G01 X34.4813 Y21.3141
G01 X34.4704 Y21.3304
G01 X34.4207 Y21.3974
G01 X34.4082 Y21.4125
G01 X34.3455 Y21.4815
G01 X34.2691 Y21.5507
G01 X34.1863 Y21.6120
G01 X34.1023 Y21.6627
G01 X34.0892 Y21.6694
G01 X34.0048 Y21.7091
G01 X33.9078 Y21.7438
G01 X33.8078 Y21.7688
G01 X33.7059 Y21.7839
G01 X33.6030 Y21.7890
G01 X33.5001 Y21.7839
G01 X33.3982 Y21.7688
G01 X33.2982 Y21.7438
G01 X33.2012 Y21.7091
G01 X33.1080 Y21.6650
G01 X33.0197 Y21.6120
G01 X32.9369 Y21.5507
G01 X32.8605 Y21.4815
G01 X32.7913 Y21.4051
G01 X32.7300 Y21.3223
G01 X32.6793 Y21.2383
G01 X32.6726 Y21.2252
G01 X32.6329 Y21.1408
G01 X32.5982 Y21.0438
G01 X32.5732 Y20.9438
G01 X32.5581 Y20.8419
G01 X32.5530 Y20.7390
G01 X32.5581 Y20.6361
G01 X32.5732 Y20.5342
G01 X32.5968 Y20.4389
G01 X32.6013 Y20.4249
G01 X32.6329 Y20.3372
G01 X32.6770 Y20.2440
G01 X32.7300 Y20.1557
G01 X32.7853 Y20.0806
G01 X32.7945 Y20.0691
G01 X32.8605 Y19.9965
G01 X32.9295 Y19.9338
G01 X32.9407 Y19.9243
G01 X33.0116 Y19.8716
G01 X33.0238 Y19.8633
G01 X33.1037 Y19.8153
G01 X33.1168 Y19.8086
G01 X33.1529 Y19.7915
G01 X33.1529 Y19.5538
G01 X31.3763 Y17.7772
G01 X31.3500 Y17.7480
G01 X31.3237 Y17.7125
G01 X31.3010 Y17.6746
G01 X31.2821 Y17.6347
G01 X31.2673 Y17.5931
G01 X31.2565 Y17.5502
G01 X31.2500 Y17.5065
G01 X31.2481 Y17.4722
G01 X31.2479 Y17.4584
G01 X31.2346 Y17.4550
G01 X31.2252 Y17.4521
G01 X31.1975 Y17.4423
G01 X31.1838 Y17.4368
G01 X31.1484 Y17.4199
G01 X31.1188 Y17.4024
G01 X31.1064 Y17.3944
G01 X31.0750 Y17.3709
G01 X31.0423 Y17.3412
G01 X31.0126 Y17.3085
G01 X30.9920 Y17.2810
G01 X30.9837 Y17.2689
G01 X30.9636 Y17.2351
G01 X30.9487 Y17.2042
G01 X30.9429 Y17.1906
G01 X30.9299 Y17.1536
G01 X30.9202 Y17.1156
G01 X30.9175 Y17.1011
G01 X30.9127 Y17.0671
