(G-CODE GENERATED BY FLATCAM v8.991 - www.flatcam.org - Version Date: 2019/12/27)

(Name: contour.svg_iso_cnc)
(Type: G-code from Geometry)
(Units: MM)

(Created on Saturday, 21 March 2020 at 15:48)

(TOOL DIAMETER: 1.0 mm)
(Feedrate: 90.0 mm/min)
(Feedrate_Z: 60.0 mm/min)
(Feedrate rapids 1500.0 mm/min)

(Z_Cut: -2.4 mm)
(Z_Move: 2.0 mm)
(Z Toolchange: 15.0 mm)
(X,Y Toolchange: 0.0000, 0.0000 mm)
(Z Start: None mm)
(Z End: 15.0 mm)
(Steps per circle: 64)
(Preprocessor Geometry: default)

(X range:   -0.0487 ...  104.7200  mm)
(Y range:   -0.5000 ...  280.5000  mm)

(Spindle Speed: None RPM)
G21
G90
G94




G01 F90.00
G00 Z2.0000

M03
G00 X104.7200 Y6.2673
G01 F60.00
G01 Z-2.4000
G01 F90.00
G01 X102.0490 Y217.0063
G01 X102.0460 Y217.0549
G01 X102.0383 Y217.1030
G01 X102.0260 Y217.1501
G01 X102.0091 Y217.1957
G01 X101.9879 Y217.2395
G01 X101.9625 Y217.2811
G01 X101.9332 Y217.3199
G01 X101.9003 Y217.3558
G01 X101.8640 Y217.3883
G01 X101.8248 Y217.4171
G01 X101.7830 Y217.4419
G01 X101.7389 Y217.4625
G01 X101.6930 Y217.4788
G01 X101.6458 Y217.4905
G01 X101.5976 Y217.4976
G01 X101.5490 Y217.5000
G01 X51.4513 Y217.5000
G01 X51.4027 Y217.4976
G01 X51.3545 Y217.4905
G01 X51.3073 Y217.4788
G01 X51.2614 Y217.4625
G01 X51.2173 Y217.4419
G01 X51.1755 Y217.4171
G01 X51.1363 Y217.3883
G01 X51.1000 Y217.3558
G01 X51.0671 Y217.3199
G01 X51.0378 Y217.2811
G01 X51.0124 Y217.2395
G01 X50.9912 Y217.1957
G01 X50.9743 Y217.1501
G01 X50.9620 Y217.1030
G01 X50.9543 Y217.0549
G01 X50.9513 Y217.0063
G01 X48.2804 Y6.2673
G01 X48.2804 Y0.2610
G01 X48.2828 Y0.2120
G01 X48.2900 Y0.1635
G01 X48.3019 Y0.1159
G01 X48.3185 Y0.0697
G01 X48.3394 Y0.0253
G01 X48.3647 Y-0.0168
G01 X48.3939 Y-0.0562
G01 X48.4268 Y-0.0926
G01 X48.4632 Y-0.1255
G01 X48.5026 Y-0.1547
G01 X48.5447 Y-0.1800
G01 X48.5891 Y-0.2009
G01 X48.6353 Y-0.2175
G01 X48.6829 Y-0.2294
G01 X48.7314 Y-0.2366
G01 X48.7804 Y-0.2390
G01 X104.2200 Y-0.2390
G01 X104.2690 Y-0.2366
G01 X104.3175 Y-0.2294
G01 X104.3651 Y-0.2175
G01 X104.4113 Y-0.2009
G01 X104.4557 Y-0.1800
G01 X104.4978 Y-0.1547
G01 X104.5372 Y-0.1255
G01 X104.5736 Y-0.0926
G01 X104.6065 Y-0.0562
G01 X104.6357 Y-0.0168
G01 X104.6610 Y0.0253
G01 X104.6819 Y0.0697
G01 X104.6985 Y0.1159
G01 X104.7104 Y0.1635
G01 X104.7176 Y0.2120
G01 X104.7200 Y0.2610
G01 X104.7200 Y6.2673
G00 Z2.0000
G00 X51.0487 Y279.9937
G01 F60.00
G01 Z-2.4000
G01 F90.00
G01 X51.0468 Y280.0431
G01 X51.0401 Y280.0921
G01 X51.0286 Y280.1402
G01 X51.0124 Y280.1869
G01 X50.9917 Y280.2318
G01 X50.9666 Y280.2745
G01 X50.9375 Y280.3144
G01 X50.9045 Y280.3513
G01 X50.8680 Y280.3847
G01 X50.8285 Y280.4144
G01 X50.7861 Y280.4400
G01 X50.7415 Y280.4613
G01 X50.6950 Y280.4781
G01 X50.6470 Y280.4902
G01 X50.5981 Y280.4976
G01 X50.5487 Y280.5000
G01 X0.4513 Y280.5000
G01 X0.4019 Y280.4976
G01 X0.3530 Y280.4902
G01 X0.3050 Y280.4781
G01 X0.2585 Y280.4613
G01 X0.2139 Y280.4400
G01 X0.1715 Y280.4144
G01 X0.1320 Y280.3847
G01 X0.0955 Y280.3513
G01 X0.0625 Y280.3144
G01 X0.0334 Y280.2745
G01 X0.0083 Y280.2318
G01 X-0.0124 Y280.1869
G01 X-0.0286 Y280.1402
G01 X-0.0402 Y280.0921
G01 X-0.0468 Y280.0431
G01 X-0.0487 Y279.9937
G01 X3.5000 Y-0.0063
G01 X3.5030 Y-0.0549
G01 X3.5107 Y-0.1030
G01 X3.5230 Y-0.1501
G01 X3.5399 Y-0.1957
G01 X3.5611 Y-0.2395
G01 X3.5865 Y-0.2811
G01 X3.6158 Y-0.3199
G01 X3.6487 Y-0.3558
G01 X3.6850 Y-0.3883
G01 X3.7242 Y-0.4171
G01 X3.7660 Y-0.4419
G01 X3.8101 Y-0.4625
G01 X3.8560 Y-0.4788
G01 X3.9032 Y-0.4905
G01 X3.9514 Y-0.4976
G01 X4.0000 Y-0.5000
G01 X47.0000 Y-0.5000
G01 X47.0486 Y-0.4976
G01 X47.0968 Y-0.4905
G01 X47.1440 Y-0.4788
G01 X47.1899 Y-0.4625
G01 X47.2340 Y-0.4419
G01 X47.2758 Y-0.4171
G01 X47.3150 Y-0.3883
G01 X47.3513 Y-0.3558
G01 X47.3842 Y-0.3199
G01 X47.4135 Y-0.2811
G01 X47.4389 Y-0.2395
G01 X47.4601 Y-0.1957
G01 X47.4770 Y-0.1501
G01 X47.4893 Y-0.1030
G01 X47.4970 Y-0.0549
G01 X47.5000 Y-0.0063
G01 X51.0487 Y279.9937
G00 Z2.0000
M05
G00 Z2.0000
G00 Z15.00
G00 X0.0 Y0.0

