(G-CODE GENERATED BY FLATCAM v8.991 - www.flatcam.org - Version Date: 2019/12/27)

(Name: holes.svg_cnc)
(Type: G-code from Geometry)
(Units: MM)

(Created on Wednesday, 18 March 2020 at 21:34)

(TOOL DIAMETER: 1.0 mm)
(Feedrate: 120.0 mm/min)
(Feedrate_Z: 60.0 mm/min)
(Feedrate rapids 1500.0 mm/min)

(Z_Cut: -2.4 mm)
(Z_Move: 2.0 mm)
(Z Toolchange: 15.0 mm)
(X,Y Toolchange: 0.0000, 0.0000 mm)
(Z Start: None mm)
(Z End: 15.0 mm)
(Steps per circle: 64)
(Preprocessor Geometry: default)

(X range:   19.5872 ...   19.5963  mm)
(Y range:  271.0159 ...  271.0254  mm)

(Spindle Speed: None RPM)
G21
G90
G94




G01 F120.00
G00 Z2.0000

M03
G00 X20.2550 Y0.0050
G01 F60.00
G01 Z-2.4000
G01 F120.00
G01 X20.2515 Y0.0100
G01 X20.2460 Y0.0080
G01 X20.2460 Y0.0020
G01 X20.2515 Y0.0000
G01 X20.2550 Y0.0050
G00 Z2.0000
G00 X27.2550 Y9.4500
G01 F60.00
G01 Z-2.4000
G01 F120.00
G01 X27.2515 Y9.4550
G01 X27.2459 Y9.4530
G01 X27.2459 Y9.4470
G01 X27.2515 Y9.4450
G01 X27.2550 Y9.4500
G00 Z2.0000
G00 X25.5050 Y36.1990
G01 F60.00
G01 Z-2.4000
G01 F120.00
G01 X25.5015 Y36.2040
G01 X25.4960 Y36.2020
G01 X25.4960 Y36.1960
G01 X25.5015 Y36.1950
G01 X25.5050 Y36.1990
G00 Z2.0000
G00 X20.1638 Y45.7490
G01 F60.00
G01 Z-2.4000
G01 F120.00
G01 X20.1603 Y45.7540
G01 X20.1548 Y45.7520
G01 X20.1548 Y45.7460
G01 X20.1603 Y45.7450
G01 X20.1638 Y45.7490
G00 Z2.0000
G00 X25.5050 Y70.3670
G01 F60.00
G01 Z-2.4000
G01 F120.00
G01 X25.5015 Y70.3720
G01 X25.4960 Y70.3700
G01 X25.4960 Y70.3640
G01 X25.5015 Y70.3620
G01 X25.5050 Y70.3670
G00 Z2.0000
G00 X27.4323 Y79.8170
G01 F60.00
G01 Z-2.4000
G01 F120.00
G01 X27.4288 Y79.8220
G01 X27.4232 Y79.8200
G01 X27.4232 Y79.8140
G01 X27.4288 Y79.8120
G01 X27.4323 Y79.8170
G00 Z2.0000
G00 X25.5050 Y102.6170
G01 F60.00
G01 Z-2.4000
G01 F120.00
G01 X25.5015 Y102.6220
G01 X25.4960 Y102.6200
G01 X25.4960 Y102.6140
G01 X25.5015 Y102.6120
G01 X25.5050 Y102.6170
G00 Z2.0000
G00 X19.9965 Y112.1670
G01 F60.00
G01 Z-2.4000
G01 F120.00
G01 X19.9930 Y112.1720
G01 X19.9874 Y112.1700
G01 X19.9874 Y112.1640
G01 X19.9930 Y112.1620
G01 X19.9965 Y112.1670
G00 Z2.0000
G00 X25.5050 Y133.0570
G01 F60.00
G01 Z-2.4000
G01 F120.00
G01 X25.5015 Y133.0620
G01 X25.4960 Y133.0600
G01 X25.4960 Y133.0540
G01 X25.5015 Y133.0520
G01 X25.5050 Y133.0570
G00 Z2.0000
G00 X27.5902 Y142.5070
G01 F60.00
G01 Z-2.4000
G01 F120.00
G01 X27.5868 Y142.5120
G01 X27.5812 Y142.5100
G01 X27.5812 Y142.5040
G01 X27.5868 Y142.5020
G01 X27.5902 Y142.5070
G00 Z2.0000
G00 X25.5050 Y161.7890
G01 F60.00
G01 Z-2.4000
G01 F120.00
G01 X25.5015 Y161.7940
G01 X25.4960 Y161.7920
G01 X25.4960 Y161.7860
G01 X25.5015 Y161.7840
G01 X25.5050 Y161.7890
G00 Z2.0000
G00 X19.8474 Y171.3390
G01 F60.00
G01 Z-2.4000
G01 F120.00
G01 X19.8439 Y171.3440
G01 X19.8383 Y171.3420
G01 X19.8383 Y171.3360
G01 X19.8439 Y171.3340
G01 X19.8474 Y171.3390
G00 Z2.0000
G00 X25.5050 Y188.9081
G01 F60.00
G01 Z-2.4000
G01 F120.00
G01 X25.5015 Y188.9129
G01 X25.4960 Y188.9111
G01 X25.4960 Y188.9052
G01 X25.5015 Y188.9034
G01 X25.5050 Y188.9081
G00 Z2.0000
G00 X27.7309 Y198.3581
G01 F60.00
G01 Z-2.4000
G01 F120.00
G01 X27.7275 Y198.3629
G01 X27.7219 Y198.3611
G01 X27.7219 Y198.3552
G01 X27.7275 Y198.3534
G01 X27.7309 Y198.3581
G00 Z2.0000
G00 X25.5050 Y214.5054
G01 F60.00
G01 Z-2.4000
G01 F120.00
G01 X25.5015 Y214.5101
G01 X25.4960 Y214.5083
G01 X25.4960 Y214.5024
G01 X25.5015 Y214.5006
G01 X25.5050 Y214.5054
G00 Z2.0000
G00 X19.7146 Y224.0553
G01 F60.00
G01 Z-2.4000
G01 F120.00
G01 X19.7111 Y224.0601
G01 X19.7055 Y224.0583
G01 X19.7055 Y224.0524
G01 X19.7111 Y224.0506
G01 X19.7146 Y224.0553
G00 Z2.0000
G00 X25.5050 Y238.6660
G01 F60.00
G01 Z-2.4000
G01 F120.00
G01 X25.5015 Y238.6707
G01 X25.4960 Y238.6689
G01 X25.4960 Y238.6630
G01 X25.5015 Y238.6612
G01 X25.5050 Y238.6660
G00 Z2.0000
G00 X27.8563 Y248.1160
G01 F60.00
G01 Z-2.4000
G01 F120.00
G01 X27.8528 Y248.1207
G01 X27.8472 Y248.1189
G01 X27.8472 Y248.1130
G01 X27.8528 Y248.1112
G01 X27.8563 Y248.1160
G00 Z2.0000
G00 X25.5050 Y261.4706
G01 F60.00
G01 Z-2.4000
G01 F120.00
G01 X25.5015 Y261.4754
G01 X25.4960 Y261.4736
G01 X25.4960 Y261.4677
G01 X25.5015 Y261.4659
G01 X25.5050 Y261.4706
G00 Z2.0000
G00 X19.5963 Y271.0206
G01 F60.00
G01 Z-2.4000
G01 F120.00
G01 X19.5928 Y271.0254
G01 X19.5872 Y271.0236
G01 X19.5872 Y271.0177
G01 X19.5928 Y271.0159
G01 X19.5963 Y271.0206
G00 Z2.0000
G00 X76.5040 Y214.0016
G01 F60.00
G01 Z-2.4000
G01 F120.00
G01 X76.5040 Y214.0075
G01 X76.4985 Y214.0093
G01 X76.4950 Y214.0046
G01 X76.4985 Y213.9998
G01 X76.5040 Y214.0016
G00 Z2.0000
G00 X74.0411 Y204.5517
G01 F60.00
G01 Z-2.4000
G01 F120.00
G01 X74.0411 Y204.5575
G01 X74.0355 Y204.5593
G01 X74.0320 Y204.5546
G01 X74.0355 Y204.5498
G01 X74.0411 Y204.5517
G00 Z2.0000
G00 X76.5040 Y193.6849
G01 F60.00
G01 Z-2.4000
G01 F120.00
G01 X76.5040 Y193.6908
G01 X76.4985 Y193.6926
G01 X76.4950 Y193.6878
G01 X76.4985 Y193.6831
G01 X76.5040 Y193.6849
G00 Z2.0000
G00 X82.5182 Y184.1349
G01 F60.00
G01 Z-2.4000
G01 F120.00
G01 X82.5182 Y184.1408
G01 X82.5126 Y184.1426
G01 X82.5092 Y184.1378
G01 X82.5126 Y184.1331
G01 X82.5182 Y184.1349
G00 Z2.0000
G00 X76.5040 Y174.5080
G01 F60.00
G01 Z-2.4000
G01 F120.00
G01 X76.5040 Y174.5140
G01 X76.4985 Y174.5160
G01 X76.4950 Y174.5110
G01 X76.4985 Y174.5070
G01 X76.5040 Y174.5080
G00 Z2.0000
G00 X73.9416 Y165.0580
G01 F60.00
G01 Z-2.4000
G01 F120.00
G01 X73.9416 Y165.0640
G01 X73.9360 Y165.0660
G01 X73.9325 Y165.0610
G01 X73.9360 Y165.0570
G01 X73.9416 Y165.0580
G00 Z2.0000
G00 X76.5040 Y156.4080
G01 F60.00
G01 Z-2.4000
G01 F120.00
G01 X76.5040 Y156.4140
G01 X76.4985 Y156.4160
G01 X76.4950 Y156.4110
G01 X76.4985 Y156.4060
G01 X76.5040 Y156.4080
G00 Z2.0000
G00 X82.6121 Y146.8580
G01 F60.00
G01 Z-2.4000
G01 F120.00
G01 X82.6121 Y146.8640
G01 X82.6065 Y146.8660
G01 X82.6031 Y146.8610
G01 X82.6065 Y146.8560
G01 X82.6121 Y146.8580
G00 Z2.0000
G00 X76.5040 Y139.3240
G01 F60.00
G01 Z-2.4000
G01 F120.00
G01 X76.5040 Y139.3300
G01 X76.4985 Y139.3310
G01 X76.4950 Y139.3270
G01 X76.4985 Y139.3220
G01 X76.5040 Y139.3240
G00 Z2.0000
G00 X73.8529 Y129.8740
G01 F60.00
G01 Z-2.4000
G01 F120.00
G01 X73.8529 Y129.8800
G01 X73.8473 Y129.8810
G01 X73.8439 Y129.8770
G01 X73.8473 Y129.8720
G01 X73.8529 Y129.8740
G00 Z2.0000
G00 X76.5040 Y123.1980
G01 F60.00
G01 Z-2.4000
G01 F120.00
G01 X76.5040 Y123.2040
G01 X76.4985 Y123.2060
G01 X76.4950 Y123.2010
G01 X76.4985 Y123.1960
G01 X76.5040 Y123.1980
G00 Z2.0000
G00 X82.6958 Y113.6480
G01 F60.00
G01 Z-2.4000
G01 F120.00
G01 X82.6958 Y113.6540
G01 X82.6902 Y113.6560
G01 X82.6867 Y113.6510
G01 X82.6902 Y113.6460
G01 X82.6958 Y113.6480
G00 Z2.0000
G00 X76.5040 Y107.9770
G01 F60.00
G01 Z-2.4000
G01 F120.00
G01 X76.5040 Y107.9830
G01 X76.4985 Y107.9850
G01 X76.4950 Y107.9800
G01 X76.4985 Y107.9760
G01 X76.5040 Y107.9770
G00 Z2.0000
G00 X73.7740 Y98.5270
G01 F60.00
G01 Z-2.4000
G01 F120.00
G01 X73.7740 Y98.5330
G01 X73.7684 Y98.5350
G01 X73.7649 Y98.5300
G01 X73.7684 Y98.5260
G01 X73.7740 Y98.5270
G00 Z2.0000
G00 X76.5040 Y93.6110
G01 F60.00
G01 Z-2.4000
G01 F120.00
G01 X76.5040 Y93.6170
G01 X76.4985 Y93.6190
G01 X76.4950 Y93.6140
G01 X76.4985 Y93.6090
G01 X76.5040 Y93.6110
G00 Z2.0000
G00 X82.7703 Y84.0610
G01 F60.00
G01 Z-2.4000
G01 F120.00
G01 X82.7703 Y84.0670
G01 X82.7647 Y84.0690
G01 X82.7613 Y84.0640
G01 X82.7647 Y84.0590
G01 X82.7703 Y84.0610
G00 Z2.0000
G00 X76.5040 Y80.0510
G01 F60.00
G01 Z-2.4000
G01 F120.00
G01 X76.5040 Y80.0570
G01 X76.4985 Y80.0590
G01 X76.4950 Y80.0540
G01 X76.4985 Y80.0490
G01 X76.5040 Y80.0510
G00 Z2.0000
G00 X73.7036 Y70.6010
G01 F60.00
G01 Z-2.4000
G01 F120.00
G01 X73.7036 Y70.6070
G01 X73.6980 Y70.6090
G01 X73.6945 Y70.6040
G01 X73.6980 Y70.5990
G01 X73.7036 Y70.6010
G00 Z2.0000
G00 X76.5040 Y67.2520
G01 F60.00
G01 Z-2.4000
G01 F120.00
G01 X76.5040 Y67.2580
G01 X76.4985 Y67.2600
G01 X76.4950 Y67.2550
G01 X76.4985 Y67.2500
G01 X76.5040 Y67.2520
G00 Z2.0000
G00 X82.8367 Y57.7020
G01 F60.00
G01 Z-2.4000
G01 F120.00
G01 X82.8367 Y57.7080
G01 X82.8311 Y57.7100
G01 X82.8277 Y57.7050
G01 X82.8311 Y57.7000
G01 X82.8367 Y57.7020
G00 Z2.0000
G00 X76.5040 Y55.1710
G01 F60.00
G01 Z-2.4000
G01 F120.00
G01 X76.5040 Y55.1770
G01 X76.4985 Y55.1790
G01 X76.4950 Y55.1740
G01 X76.4985 Y55.1690
G01 X76.5040 Y55.1710
G00 Z2.0000
G00 X73.6409 Y45.7210
G01 F60.00
G01 Z-2.4000
G01 F120.00
G01 X73.6409 Y45.7270
G01 X73.6353 Y45.7290
G01 X73.6319 Y45.7240
G01 X73.6353 Y45.7190
G01 X73.6409 Y45.7210
G00 Z2.0000
G00 X76.5040 Y43.7680
G01 F60.00
G01 Z-2.4000
G01 F120.00
G01 X76.5040 Y43.7740
G01 X76.4985 Y43.7760
G01 X76.4950 Y43.7710
G01 X76.4985 Y43.7670
G01 X76.5040 Y43.7680
G00 Z2.0000
G00 X76.5040 Y33.0060
G01 F60.00
G01 Z-2.4000
G01 F120.00
G01 X76.5040 Y33.0120
G01 X76.4985 Y33.0130
G01 X76.4950 Y33.0090
G01 X76.4985 Y33.0040
G01 X76.5040 Y33.0060
G00 Z2.0000
G00 X82.8959 Y34.2180
G01 F60.00
G01 Z-2.4000
G01 F120.00
G01 X82.8959 Y34.2240
G01 X82.8903 Y34.2260
G01 X82.8869 Y34.2210
G01 X82.8903 Y34.2170
G01 X82.8959 Y34.2180
G00 Z2.0000
G00 X73.5851 Y23.5560
G01 F60.00
G01 Z-2.4000
G01 F120.00
G01 X73.5851 Y23.5620
G01 X73.5795 Y23.5630
G01 X73.5760 Y23.5590
G01 X73.5795 Y23.5540
G01 X73.5851 Y23.5560
G00 Z2.0000
G00 X82.9486 Y13.2970
G01 F60.00
G01 Z-2.4000
G01 F120.00
G01 X82.9486 Y13.3030
G01 X82.9430 Y13.3050
G01 X82.9396 Y13.3000
G01 X82.9430 Y13.2950
G01 X82.9486 Y13.2970
G00 Z2.0000
G00 X76.5040 Y1.8830
G01 F60.00
G01 Z-2.4000
G01 F120.00
G01 X76.5040 Y1.8890
G01 X76.4985 Y1.8910
G01 X76.4950 Y1.8860
G01 X76.4985 Y1.8820
G01 X76.5040 Y1.8830
G00 Z2.0000
G00 X73.5353 Y3.8080
G01 F60.00
G01 Z-2.4000
G01 F120.00
G01 X73.5353 Y3.8140
G01 X73.5297 Y3.8160
G01 X73.5263 Y3.8110
G01 X73.5297 Y3.8070
G01 X73.5353 Y3.8080
G00 Z2.0000
M05
G00 Z2.0000
G00 Z15.00
G00 X0.0 Y0.0

