(G-CODE GENERATED BY FLATCAM v8.991 - www.flatcam.org - Version Date: 2019/12/27)

(Name: traces.svg_iso_cnc)
(Type: G-code from Geometry)
(Units: MM)

(Created on Wednesday, 18 March 2020 at 21:38)

(TOOL DIAMETER: 0.4 mm)
(Feedrate: 120.0 mm/min)
(Feedrate_Z: 60.0 mm/min)
(Feedrate rapids 1500.0 mm/min)

(Z_Cut: -0.15 mm)
(Z_Move: 2.0 mm)
(Z Toolchange: 15.0 mm)
(X,Y Toolchange: 0.0000, 0.0000 mm)
(Z Start: None mm)
(Z End: 15.0 mm)
(Steps per circle: 64)
(Preprocessor Geometry: default)

(X range:    0.6308 ...  104.2270  mm)
(Y range:   -0.2000 ...  280.2000  mm)

(Spindle Speed: None RPM)
G21
G90
G94




G01 F120.00
G00 Z2.0000

M03
G00 X5.6147 Y3.2000
G01 F60.00
G01 Z-0.1500
G01 F120.00
G01 X5.5000 Y3.2000
G01 X5.4804 Y3.1990
G01 X5.4610 Y3.1962
G01 X5.4419 Y3.1914
G01 X5.4235 Y3.1848
G01 X5.4057 Y3.1764
G01 X5.3889 Y3.1663
G01 X5.3731 Y3.1546
G01 X5.3586 Y3.1414
G01 X5.3454 Y3.1269
G01 X5.3337 Y3.1111
G01 X5.3236 Y3.0943
G01 X5.3152 Y3.0765
G01 X5.3086 Y3.0581
G01 X5.3038 Y3.0390
G01 X5.3010 Y3.0196
G01 X5.3000 Y3.0000
G01 X5.3000 Y0.7500
G01 X5.3010 Y0.7304
G01 X5.3038 Y0.7110
G01 X5.3086 Y0.6919
G01 X5.3152 Y0.6734
G01 X5.5349 Y0.1434
G01 X5.5433 Y0.1257
G01 X5.5533 Y0.1089
G01 X5.5650 Y0.0932
G01 X5.5781 Y0.0787
G01 X5.5926 Y0.0655
G01 X5.6084 Y0.0538
G01 X5.6251 Y0.0437
G01 X5.6428 Y0.0353
G01 X5.9066 Y-0.0744
G01 X5.9158 Y-0.0943
G01 X5.9259 Y-0.1111
G01 X5.9375 Y-0.1269
G01 X5.9507 Y-0.1414
G01 X5.9653 Y-0.1546
G01 X5.9810 Y-0.1663
G01 X5.9979 Y-0.1764
G01 X6.0156 Y-0.1848
G01 X6.0341 Y-0.1914
G01 X6.0531 Y-0.1962
G01 X6.0725 Y-0.1990
G01 X6.0922 Y-0.2000
G01 X44.8176 Y-0.2000
G01 X44.8372 Y-0.1990
G01 X44.8566 Y-0.1962
G01 X44.8757 Y-0.1914
G01 X44.8941 Y-0.1848
G01 X44.9119 Y-0.1764
G01 X44.9287 Y-0.1663
G01 X44.9445 Y-0.1546
G01 X44.9590 Y-0.1414
G01 X44.9722 Y-0.1269
G01 X44.9839 Y-0.1111
G01 X44.9940 Y-0.0943
G01 X45.0024 Y-0.0765
G01 X45.0090 Y-0.0581
G01 X45.0138 Y-0.0390
G01 X45.0166 Y-0.0196
G01 X45.0176 Y0.0000
G01 X45.0176 Y0.7500
G01 X45.0166 Y0.7696
G01 X45.0138 Y0.7890
G01 X45.0090 Y0.8081
G01 X45.0024 Y0.8265
G01 X44.9940 Y0.8443
G01 X44.9839 Y0.8611
G01 X44.9722 Y0.8769
G01 X44.9590 Y0.8914
G01 X44.9445 Y0.9046
G01 X44.9287 Y0.9163
G01 X44.9119 Y0.9264
G01 X44.8941 Y0.9348
G01 X44.8757 Y0.9414
G01 X44.8566 Y0.9462
G01 X44.8372 Y0.9490
G01 X44.8176 Y0.9500
G01 X42.2000 Y0.9500
G01 X42.2000 Y3.0000
G01 X42.1990 Y3.0196
G01 X42.1962 Y3.0390
G01 X42.1914 Y3.0581
G01 X42.1848 Y3.0765
G01 X42.1764 Y3.0943
G01 X42.1663 Y3.1111
G01 X42.1546 Y3.1269
G01 X42.1414 Y3.1414
G01 X42.1269 Y3.1546
G01 X42.1111 Y3.1663
G01 X42.0943 Y3.1764
G01 X42.0765 Y3.1848
G01 X42.0581 Y3.1914
G01 X42.0390 Y3.1962
G01 X42.0196 Y3.1990
G01 X42.0000 Y3.2000
G01 X41.8852 Y3.2000
G01 X41.8746 Y3.2064
G01 X41.8569 Y3.2147
G01 X41.3266 Y3.4347
G01 X41.3081 Y3.4414
G01 X41.2891 Y3.4461
G01 X41.2696 Y3.4490
G01 X41.2500 Y3.4500
G01 X41.2304 Y3.4490
G01 X41.2109 Y3.4461
G01 X41.1919 Y3.4414
G01 X41.1734 Y3.4347
G01 X40.6431 Y3.2147
G01 X40.6254 Y3.2064
G01 X40.6148 Y3.2000
G01 X40.5000 Y3.2000
G01 X40.4804 Y3.1990
G01 X40.4610 Y3.1962
G01 X40.4419 Y3.1914
G01 X40.4235 Y3.1848
G01 X40.4057 Y3.1764
G01 X40.3889 Y3.1663
G01 X40.3731 Y3.1546
G01 X40.3586 Y3.1414
G01 X40.3454 Y3.1269
G01 X40.3337 Y3.1111
G01 X40.3236 Y3.0943
G01 X40.3152 Y3.0765
G01 X40.3086 Y3.0581
G01 X40.3038 Y3.0390
G01 X40.3010 Y3.0196
G01 X40.3000 Y3.0000
G01 X40.3000 Y0.9500
G01 X35.2000 Y0.9500
G01 X35.2000 Y3.0000
G01 X35.1990 Y3.0196
G01 X35.1962 Y3.0390
G01 X35.1914 Y3.0581
G01 X35.1848 Y3.0765
G01 X35.1764 Y3.0943
G01 X35.1663 Y3.1111
G01 X35.1546 Y3.1269
G01 X35.1414 Y3.1414
G01 X35.1269 Y3.1546
G01 X35.1111 Y3.1663
G01 X35.0943 Y3.1764
G01 X35.0765 Y3.1848
G01 X35.0581 Y3.1914
G01 X35.0390 Y3.1962
G01 X35.0196 Y3.1990
G01 X35.0000 Y3.2000
G01 X34.8852 Y3.2000
G01 X34.8746 Y3.2064
G01 X34.8569 Y3.2147
G01 X34.3266 Y3.4347
G01 X34.3081 Y3.4414
G01 X34.2891 Y3.4461
G01 X34.2696 Y3.4490
G01 X34.2500 Y3.4500
G01 X34.2304 Y3.4490
G01 X34.2109 Y3.4461
G01 X34.1919 Y3.4414
G01 X34.1734 Y3.4347
G01 X33.6431 Y3.2147
G01 X33.6254 Y3.2064
G01 X33.6148 Y3.2000
G01 X33.5000 Y3.2000
G01 X33.4804 Y3.1990
G01 X33.4610 Y3.1962
G01 X33.4419 Y3.1914
G01 X33.4235 Y3.1848
G01 X33.4057 Y3.1764
G01 X33.3889 Y3.1663
G01 X33.3731 Y3.1546
G01 X33.3586 Y3.1414
G01 X33.3454 Y3.1269
G01 X33.3337 Y3.1111
G01 X33.3236 Y3.0943
G01 X33.3152 Y3.0765
G01 X33.3086 Y3.0581
G01 X33.3038 Y3.0390
G01 X33.3010 Y3.0196
G01 X33.3000 Y3.0000
G01 X33.3000 Y0.9500
G01 X28.2000 Y0.9500
G01 X28.2000 Y3.0000
G01 X28.1990 Y3.0196
G01 X28.1962 Y3.0390
G01 X28.1914 Y3.0581
G01 X28.1848 Y3.0765
G01 X28.1764 Y3.0943
G01 X28.1663 Y3.1111
G01 X28.1546 Y3.1269
G01 X28.1414 Y3.1414
G01 X28.1269 Y3.1546
G01 X28.1111 Y3.1663
G01 X28.0943 Y3.1764
G01 X28.0765 Y3.1848
G01 X28.0581 Y3.1914
G01 X28.0390 Y3.1962
G01 X28.0196 Y3.1990
G01 X28.0000 Y3.2000
G01 X27.8852 Y3.2000
G01 X27.8746 Y3.2064
G01 X27.8569 Y3.2147
G01 X27.3266 Y3.4347
G01 X27.3081 Y3.4414
G01 X27.2891 Y3.4461
G01 X27.2696 Y3.4490
G01 X27.2500 Y3.4500
G01 X27.2304 Y3.4490
G01 X27.2109 Y3.4461
G01 X27.1919 Y3.4414
G01 X27.1734 Y3.4347
G01 X26.6431 Y3.2147
G01 X26.6254 Y3.2064
G01 X26.6148 Y3.2000
G01 X26.5000 Y3.2000
G01 X26.4804 Y3.1990
G01 X26.4610 Y3.1962
G01 X26.4419 Y3.1914
G01 X26.4235 Y3.1848
G01 X26.4057 Y3.1764
G01 X26.3889 Y3.1663
G01 X26.3731 Y3.1546
G01 X26.3586 Y3.1414
G01 X26.3454 Y3.1269
G01 X26.3337 Y3.1111
G01 X26.3236 Y3.0943
G01 X26.3152 Y3.0765
G01 X26.3086 Y3.0581
G01 X26.3038 Y3.0390
G01 X26.3010 Y3.0196
G01 X26.3000 Y3.0000
G01 X26.3000 Y0.9500
G01 X21.2000 Y0.9500
G01 X21.2000 Y3.0000
G01 X21.1990 Y3.0196
G01 X21.1962 Y3.0390
G01 X21.1914 Y3.0581
G01 X21.1848 Y3.0765
G01 X21.1764 Y3.0943
G01 X21.1663 Y3.1111
G01 X21.1546 Y3.1269
G01 X21.1414 Y3.1414
G01 X21.1269 Y3.1546
G01 X21.1111 Y3.1663
G01 X21.0943 Y3.1764
G01 X21.0765 Y3.1848
G01 X21.0581 Y3.1914
G01 X21.0390 Y3.1962
G01 X21.0196 Y3.1990
G01 X21.0000 Y3.2000
G01 X20.8852 Y3.2000
G01 X20.8746 Y3.2064
G01 X20.8569 Y3.2147
G01 X20.3266 Y3.4347
G01 X20.3081 Y3.4414
G01 X20.2891 Y3.4461
G01 X20.2696 Y3.4490
G01 X20.2500 Y3.4500
G01 X20.2304 Y3.4490
G01 X20.2109 Y3.4461
G01 X20.1919 Y3.4414
G01 X20.1734 Y3.4347
G01 X19.6431 Y3.2147
G01 X19.6254 Y3.2064
G01 X19.6148 Y3.2000
G01 X19.5000 Y3.2000
G01 X19.4804 Y3.1990
G01 X19.4610 Y3.1962
G01 X19.4419 Y3.1914
G01 X19.4235 Y3.1848
G01 X19.4057 Y3.1764
G01 X19.3889 Y3.1663
G01 X19.3731 Y3.1546
G01 X19.3586 Y3.1414
G01 X19.3454 Y3.1269
G01 X19.3337 Y3.1111
G01 X19.3236 Y3.0943
G01 X19.3152 Y3.0765
G01 X19.3086 Y3.0581
G01 X19.3038 Y3.0390
G01 X19.3010 Y3.0196
G01 X19.3000 Y3.0000
G01 X19.3000 Y0.9500
G01 X14.2000 Y0.9500
G01 X14.2000 Y3.0000
G01 X14.1990 Y3.0196
G01 X14.1962 Y3.0390
G01 X14.1914 Y3.0581
G01 X14.1848 Y3.0765
G01 X14.1764 Y3.0943
G01 X14.1663 Y3.1111
G01 X14.1546 Y3.1269
G01 X14.1414 Y3.1414
G01 X14.1269 Y3.1546
G01 X14.1111 Y3.1663
G01 X14.0943 Y3.1764
G01 X14.0765 Y3.1848
G01 X14.0581 Y3.1914
G01 X14.0390 Y3.1962
G01 X14.0196 Y3.1990
G01 X14.0000 Y3.2000
G01 X13.8852 Y3.2000
G01 X13.8746 Y3.2064
G01 X13.8569 Y3.2147
G01 X13.3266 Y3.4347
G01 X13.3081 Y3.4414
G01 X13.2891 Y3.4461
G01 X13.2696 Y3.4490
G01 X13.2500 Y3.4500
G01 X13.2304 Y3.4490
G01 X13.2109 Y3.4461
G01 X13.1919 Y3.4414
G01 X13.1734 Y3.4347
G01 X12.6431 Y3.2147
G01 X12.6254 Y3.2064
G01 X12.6148 Y3.2000
G01 X12.5000 Y3.2000
G01 X12.4804 Y3.1990
G01 X12.4610 Y3.1962
G01 X12.4419 Y3.1914
G01 X12.4235 Y3.1848
G01 X12.4057 Y3.1764
G01 X12.3889 Y3.1663
G01 X12.3731 Y3.1546
G01 X12.3586 Y3.1414
G01 X12.3454 Y3.1269
G01 X12.3337 Y3.1111
G01 X12.3236 Y3.0943
G01 X12.3152 Y3.0765
G01 X12.3086 Y3.0581
G01 X12.3038 Y3.0390
G01 X12.3010 Y3.0196
G01 X12.3000 Y3.0000
G01 X12.3000 Y0.9500
G01 X7.2000 Y0.9500
G01 X7.2000 Y3.0000
G01 X7.1990 Y3.0196
G01 X7.1962 Y3.0390
G01 X7.1914 Y3.0581
G01 X7.1848 Y3.0765
G01 X7.1764 Y3.0943
G01 X7.1663 Y3.1111
G01 X7.1546 Y3.1269
G01 X7.1414 Y3.1414
G01 X7.1269 Y3.1546
G01 X7.1111 Y3.1663
G01 X7.0943 Y3.1764
G01 X7.0765 Y3.1848
G01 X7.0581 Y3.1914
G01 X7.0390 Y3.1962
G01 X7.0196 Y3.1990
G01 X7.0000 Y3.2000
G01 X6.8853 Y3.2000
G01 X6.8746 Y3.2064
G01 X6.8570 Y3.2147
G01 X6.3266 Y3.4347
G01 X6.3081 Y3.4414
G01 X6.2891 Y3.4461
G01 X6.2696 Y3.4490
G01 X6.2500 Y3.4500
G01 X6.2304 Y3.4490
G01 X6.2109 Y3.4461
G01 X6.1919 Y3.4414
G01 X6.1734 Y3.4347
G01 X5.6430 Y3.2147
G01 X5.6254 Y3.2064
G01 X5.6147 Y3.2000
G00 Z2.0000
G00 X4.4586 Y6.8044
G01 F60.00
G01 Z-0.1500
G01 F120.00
G01 X4.4804 Y6.8010
G01 X4.5000 Y6.8000
G01 X5.3000 Y6.8000
G01 X5.3000 Y6.0000
G01 X5.3010 Y5.9804
G01 X5.3038 Y5.9610
G01 X5.3086 Y5.9419
G01 X5.3152 Y5.9235
G01 X5.3236 Y5.9057
G01 X5.3337 Y5.8889
G01 X5.3454 Y5.8731
G01 X5.3586 Y5.8586
G01 X5.3731 Y5.8454
G01 X5.3889 Y5.8337
G01 X5.4057 Y5.8236
G01 X5.4235 Y5.8152
G01 X5.4419 Y5.8086
G01 X5.4610 Y5.8038
G01 X5.4804 Y5.8010
G01 X5.5000 Y5.8000
G01 X7.0000 Y5.8000
G01 X7.0196 Y5.8010
G01 X7.0390 Y5.8038
G01 X7.0581 Y5.8086
G01 X7.0765 Y5.8152
G01 X7.0943 Y5.8236
G01 X7.1111 Y5.8337
G01 X7.1269 Y5.8454
G01 X7.1414 Y5.8586
G01 X7.1546 Y5.8731
G01 X7.1663 Y5.8889
G01 X7.1764 Y5.9057
G01 X7.1848 Y5.9235
G01 X7.1914 Y5.9419
G01 X7.1962 Y5.9610
G01 X7.1990 Y5.9804
G01 X7.2000 Y6.0000
G01 X7.2000 Y7.7500
G01 X7.1990 Y7.7696
G01 X7.1962 Y7.7890
G01 X7.1914 Y7.8081
G01 X7.1848 Y7.8265
G01 X7.1764 Y7.8443
G01 X7.1663 Y7.8611
G01 X7.1546 Y7.8769
G01 X7.1414 Y7.8914
G01 X7.1269 Y7.9046
G01 X7.1111 Y7.9163
G01 X7.0943 Y7.9264
G01 X7.0765 Y7.9348
G01 X7.0581 Y7.9414
G01 X7.0390 Y7.9462
G01 X7.0196 Y7.9490
G01 X7.0000 Y7.9500
G01 X5.0635 Y7.9500
G01 X4.6352 Y42.9990
G01 X4.8440 Y42.9990
G01 X4.8440 Y42.1990
G01 X4.8450 Y42.1794
G01 X4.8478 Y42.1600
G01 X4.8526 Y42.1409
G01 X4.8592 Y42.1225
G01 X4.8676 Y42.1047
G01 X4.8777 Y42.0879
G01 X4.8894 Y42.0721
G01 X4.9026 Y42.0576
G01 X4.9171 Y42.0444
G01 X4.9329 Y42.0327
G01 X4.9497 Y42.0226
G01 X4.9675 Y42.0142
G01 X4.9859 Y42.0076
G01 X5.0050 Y42.0028
G01 X5.0244 Y42.0000
G01 X5.0440 Y41.9990
G01 X6.5440 Y41.9990
G01 X6.5636 Y42.0000
G01 X6.5830 Y42.0028
G01 X6.6020 Y42.0076
G01 X6.6205 Y42.0142
G01 X6.6383 Y42.0226
G01 X6.6551 Y42.0327
G01 X6.6709 Y42.0444
G01 X6.6854 Y42.0576
G01 X6.6986 Y42.0721
G01 X6.7103 Y42.0879
G01 X6.7204 Y42.1047
G01 X6.7288 Y42.1225
G01 X6.7354 Y42.1409
G01 X6.7401 Y42.1600
G01 X6.7430 Y42.1794
G01 X6.7440 Y42.1990
G01 X6.7440 Y43.9490
G01 X6.7430 Y43.9686
G01 X6.7401 Y43.9880
G01 X6.7354 Y44.0071
G01 X6.7288 Y44.0255
G01 X6.7204 Y44.0433
G01 X6.7103 Y44.0601
G01 X6.6986 Y44.0759
G01 X6.6854 Y44.0904
G01 X6.6709 Y44.1036
G01 X6.6551 Y44.1153
G01 X6.6383 Y44.1254
G01 X6.6205 Y44.1338
G01 X6.6020 Y44.1404
G01 X6.5830 Y44.1452
G01 X6.5636 Y44.1480
G01 X6.5440 Y44.1490
G01 X4.4754 Y44.1490
G01 X4.4602 Y44.1526
G01 X4.4407 Y44.1553
G01 X4.4211 Y44.1560
G01 X3.6712 Y44.1470
G01 X3.6516 Y44.1458
G01 X3.6322 Y44.1427
G01 X3.6132 Y44.1377
G01 X3.5948 Y44.1308
G01 X3.5772 Y44.1222
G01 X3.5605 Y44.1119
G01 X3.5448 Y44.1001
G01 X3.5305 Y44.0867
G01 X3.5175 Y44.0720
G01 X3.5059 Y44.0561
G01 X3.4961 Y44.0391
G01 X3.4879 Y44.0213
G01 X3.4815 Y44.0027
G01 X3.4770 Y43.9836
G01 X3.4743 Y43.9642
G01 X3.4736 Y43.9446
G01 X3.9250 Y6.9976
G01 X3.9262 Y6.9780
G01 X3.9293 Y6.9586
G01 X3.9343 Y6.9396
G01 X3.9412 Y6.9212
G01 X3.9498 Y6.9035
G01 X3.9601 Y6.8868
G01 X3.9720 Y6.8712
G01 X3.9854 Y6.8568
G01 X4.0001 Y6.8438
G01 X4.0160 Y6.8323
G01 X4.0330 Y6.8224
G01 X4.0509 Y6.8142
G01 X4.0695 Y6.8079
G01 X4.0886 Y6.8033
G01 X4.1080 Y6.8007
G01 X4.1277 Y6.8000
G01 X4.4586 Y6.8044
G00 Z2.0000
G00 X12.0750 Y6.8000
G01 F60.00
G01 Z-0.1500
G01 F120.00
G01 X12.3000 Y6.8000
G01 X12.3000 Y6.0000
G01 X12.3010 Y5.9804
G01 X12.3038 Y5.9610
G01 X12.3086 Y5.9419
G01 X12.3152 Y5.9235
G01 X12.3236 Y5.9057
G01 X12.3337 Y5.8889
G01 X12.3454 Y5.8731
G01 X12.3586 Y5.8586
G01 X12.3731 Y5.8454
G01 X12.3889 Y5.8337
G01 X12.4057 Y5.8236
G01 X12.4235 Y5.8152
G01 X12.4419 Y5.8086
G01 X12.4610 Y5.8038
G01 X12.4804 Y5.8010
G01 X12.5000 Y5.8000
G01 X14.0000 Y5.8000
G01 X14.0196 Y5.8010
G01 X14.0390 Y5.8038
G01 X14.0581 Y5.8086
G01 X14.0765 Y5.8152
G01 X14.0943 Y5.8236
G01 X14.1111 Y5.8337
G01 X14.1269 Y5.8454
G01 X14.1414 Y5.8586
G01 X14.1546 Y5.8731
G01 X14.1663 Y5.8889
G01 X14.1764 Y5.9057
G01 X14.1848 Y5.9235
G01 X14.1914 Y5.9419
G01 X14.1962 Y5.9610
G01 X14.1990 Y5.9804
G01 X14.2000 Y6.0000
G01 X14.2000 Y7.7500
G01 X14.1990 Y7.7696
G01 X14.1962 Y7.7890
G01 X14.1914 Y7.8081
G01 X14.1848 Y7.8265
G01 X14.1764 Y7.8443
G01 X14.1663 Y7.8611
G01 X14.1546 Y7.8769
G01 X14.1414 Y7.8914
G01 X14.1269 Y7.9046
G01 X14.1111 Y7.9163
G01 X14.0943 Y7.9264
G01 X14.0765 Y7.9348
G01 X14.0581 Y7.9414
G01 X14.0390 Y7.9462
G01 X14.0196 Y7.9490
G01 X14.0000 Y7.9500
G01 X11.1250 Y7.9500
G01 X11.1054 Y7.9490
G01 X11.0860 Y7.9462
G01 X11.0669 Y7.9414
G01 X11.0485 Y7.9348
G01 X11.0307 Y7.9264
G01 X11.0139 Y7.9163
G01 X10.9981 Y7.9046
G01 X10.9836 Y7.8914
G01 X10.9704 Y7.8769
G01 X10.9587 Y7.8611
G01 X10.9486 Y7.8443
G01 X10.9402 Y7.8265
G01 X10.9336 Y7.8081
G01 X10.9288 Y7.7890
G01 X10.9260 Y7.7696
G01 X10.9250 Y7.7500
G01 X10.9250 Y2.2000
G01 X10.7000 Y2.2000
G01 X10.7000 Y3.0000
G01 X10.6990 Y3.0196
G01 X10.6962 Y3.0390
G01 X10.6914 Y3.0581
G01 X10.6848 Y3.0765
G01 X10.6764 Y3.0943
G01 X10.6663 Y3.1111
G01 X10.6546 Y3.1269
G01 X10.6414 Y3.1414
G01 X10.6269 Y3.1546
G01 X10.6111 Y3.1663
G01 X10.5943 Y3.1764
G01 X10.5765 Y3.1848
G01 X10.5581 Y3.1914
G01 X10.5390 Y3.1962
G01 X10.5196 Y3.1990
G01 X10.5000 Y3.2000
G01 X9.0000 Y3.2000
G01 X8.9804 Y3.1990
G01 X8.9610 Y3.1962
G01 X8.9419 Y3.1914
G01 X8.9235 Y3.1848
G01 X8.9057 Y3.1764
G01 X8.8889 Y3.1663
G01 X8.8731 Y3.1546
G01 X8.8586 Y3.1414
G01 X8.8454 Y3.1269
G01 X8.8337 Y3.1111
G01 X8.8236 Y3.0943
G01 X8.8152 Y3.0765
G01 X8.8086 Y3.0581
G01 X8.8038 Y3.0390
G01 X8.8010 Y3.0196
G01 X8.8000 Y3.0000
G01 X8.8000 Y1.2500
G01 X8.8010 Y1.2304
G01 X8.8038 Y1.2110
G01 X8.8086 Y1.1919
G01 X8.8152 Y1.1735
G01 X8.8236 Y1.1557
G01 X8.8337 Y1.1389
G01 X8.8454 Y1.1231
G01 X8.8586 Y1.1086
G01 X8.8731 Y1.0954
G01 X8.8889 Y1.0837
G01 X8.9057 Y1.0736
G01 X8.9235 Y1.0652
G01 X8.9419 Y1.0586
G01 X8.9610 Y1.0538
G01 X8.9804 Y1.0510
G01 X9.0000 Y1.0500
G01 X11.8750 Y1.0500
G01 X11.8946 Y1.0510
G01 X11.9140 Y1.0538
G01 X11.9331 Y1.0586
G01 X11.9515 Y1.0652
G01 X11.9693 Y1.0736
G01 X11.9861 Y1.0837
G01 X12.0019 Y1.0954
G01 X12.0164 Y1.1086
G01 X12.0296 Y1.1231
G01 X12.0413 Y1.1389
G01 X12.0514 Y1.1557
G01 X12.0598 Y1.1735
G01 X12.0664 Y1.1919
G01 X12.0712 Y1.2110
G01 X12.0740 Y1.2304
G01 X12.0750 Y1.2500
G01 X12.0750 Y6.8000
G00 Z2.0000
G00 X19.0750 Y6.8000
G01 F60.00
G01 Z-0.1500
G01 F120.00
G01 X19.3000 Y6.8000
G01 X19.3000 Y6.0000
G01 X19.3010 Y5.9804
G01 X19.3038 Y5.9610
G01 X19.3086 Y5.9419
G01 X19.3152 Y5.9235
G01 X19.3236 Y5.9057
G01 X19.3337 Y5.8889
G01 X19.3454 Y5.8731
G01 X19.3586 Y5.8586
G01 X19.3731 Y5.8454
G01 X19.3889 Y5.8337
G01 X19.4057 Y5.8236
G01 X19.4235 Y5.8152
G01 X19.4419 Y5.8086
G01 X19.4610 Y5.8038
G01 X19.4804 Y5.8010
G01 X19.5000 Y5.8000
G01 X21.0000 Y5.8000
G01 X21.0196 Y5.8010
G01 X21.0390 Y5.8038
G01 X21.0581 Y5.8086
G01 X21.0765 Y5.8152
G01 X21.0943 Y5.8236
G01 X21.1111 Y5.8337
G01 X21.1269 Y5.8454
G01 X21.1414 Y5.8586
G01 X21.1546 Y5.8731
G01 X21.1663 Y5.8889
G01 X21.1764 Y5.9057
G01 X21.1848 Y5.9235
G01 X21.1914 Y5.9419
G01 X21.1962 Y5.9610
G01 X21.1990 Y5.9804
G01 X21.2000 Y6.0000
G01 X21.2000 Y7.7500
G01 X21.1990 Y7.7696
G01 X21.1962 Y7.7890
G01 X21.1914 Y7.8081
G01 X21.1848 Y7.8265
G01 X21.1764 Y7.8443
G01 X21.1663 Y7.8611
G01 X21.1546 Y7.8769
G01 X21.1414 Y7.8914
G01 X21.1269 Y7.9046
G01 X21.1111 Y7.9163
G01 X21.0943 Y7.9264
G01 X21.0765 Y7.9348
G01 X21.0581 Y7.9414
G01 X21.0390 Y7.9462
G01 X21.0196 Y7.9490
G01 X21.0000 Y7.9500
G01 X18.1250 Y7.9500
G01 X18.1054 Y7.9490
G01 X18.0860 Y7.9462
G01 X18.0669 Y7.9414
G01 X18.0485 Y7.9348
G01 X18.0307 Y7.9264
G01 X18.0139 Y7.9163
G01 X17.9981 Y7.9046
G01 X17.9836 Y7.8914
G01 X17.9704 Y7.8769
G01 X17.9587 Y7.8611
G01 X17.9486 Y7.8443
G01 X17.9402 Y7.8265
G01 X17.9336 Y7.8081
G01 X17.9288 Y7.7890
G01 X17.9260 Y7.7696
G01 X17.9250 Y7.7500
G01 X17.9250 Y2.2000
G01 X17.7000 Y2.2000
G01 X17.7000 Y3.0000
G01 X17.6990 Y3.0196
G01 X17.6962 Y3.0390
G01 X17.6914 Y3.0581
G01 X17.6848 Y3.0765
G01 X17.6764 Y3.0943
G01 X17.6663 Y3.1111
G01 X17.6546 Y3.1269
G01 X17.6414 Y3.1414
G01 X17.6269 Y3.1546
G01 X17.6111 Y3.1663
G01 X17.5943 Y3.1764
G01 X17.5765 Y3.1848
G01 X17.5581 Y3.1914
G01 X17.5390 Y3.1962
G01 X17.5196 Y3.1990
G01 X17.5000 Y3.2000
G01 X16.0000 Y3.2000
G01 X15.9804 Y3.1990
G01 X15.9610 Y3.1962
G01 X15.9419 Y3.1914
G01 X15.9235 Y3.1848
G01 X15.9057 Y3.1764
G01 X15.8889 Y3.1663
G01 X15.8731 Y3.1546
G01 X15.8586 Y3.1414
G01 X15.8454 Y3.1269
G01 X15.8337 Y3.1111
G01 X15.8236 Y3.0943
G01 X15.8152 Y3.0765
G01 X15.8086 Y3.0581
G01 X15.8038 Y3.0390
G01 X15.8010 Y3.0196
G01 X15.8000 Y3.0000
G01 X15.8000 Y1.2500
G01 X15.8010 Y1.2304
G01 X15.8038 Y1.2110
G01 X15.8086 Y1.1919
G01 X15.8152 Y1.1735
G01 X15.8236 Y1.1557
G01 X15.8337 Y1.1389
G01 X15.8454 Y1.1231
G01 X15.8586 Y1.1086
G01 X15.8731 Y1.0954
G01 X15.8889 Y1.0837
G01 X15.9057 Y1.0736
G01 X15.9235 Y1.0652
G01 X15.9419 Y1.0586
G01 X15.9610 Y1.0538
G01 X15.9804 Y1.0510
G01 X16.0000 Y1.0500
G01 X18.8750 Y1.0500
G01 X18.8946 Y1.0510
G01 X18.9140 Y1.0538
G01 X18.9331 Y1.0586
G01 X18.9515 Y1.0652
G01 X18.9693 Y1.0736
G01 X18.9861 Y1.0837
G01 X19.0019 Y1.0954
G01 X19.0164 Y1.1086
G01 X19.0296 Y1.1231
G01 X19.0413 Y1.1389
G01 X19.0514 Y1.1557
G01 X19.0598 Y1.1735
G01 X19.0664 Y1.1919
G01 X19.0712 Y1.2110
G01 X19.0740 Y1.2304
G01 X19.0750 Y1.2500
G01 X19.0750 Y6.8000
G00 Z2.0000
G00 X26.0750 Y6.8000
G01 F60.00
G01 Z-0.1500
G01 F120.00
G01 X26.3000 Y6.8000
G01 X26.3000 Y6.0000
G01 X26.3010 Y5.9804
G01 X26.3038 Y5.9610
G01 X26.3086 Y5.9419
G01 X26.3152 Y5.9235
G01 X26.3236 Y5.9057
G01 X26.3337 Y5.8889
G01 X26.3454 Y5.8731
G01 X26.3586 Y5.8586
G01 X26.3731 Y5.8454
G01 X26.3889 Y5.8337
G01 X26.4057 Y5.8236
G01 X26.4235 Y5.8152
G01 X26.4419 Y5.8086
G01 X26.4610 Y5.8038
G01 X26.4804 Y5.8010
G01 X26.5000 Y5.8000
G01 X28.0000 Y5.8000
G01 X28.0196 Y5.8010
G01 X28.0390 Y5.8038
G01 X28.0581 Y5.8086
G01 X28.0765 Y5.8152
G01 X28.0943 Y5.8236
G01 X28.1111 Y5.8337
G01 X28.1269 Y5.8454
G01 X28.1414 Y5.8586
G01 X28.1546 Y5.8731
G01 X28.1663 Y5.8889
G01 X28.1764 Y5.9057
G01 X28.1848 Y5.9235
G01 X28.1914 Y5.9419
G01 X28.1962 Y5.9610
G01 X28.1990 Y5.9804
G01 X28.2000 Y6.0000
G01 X28.2000 Y7.7500
G01 X28.1990 Y7.7696
G01 X28.1962 Y7.7890
G01 X28.1914 Y7.8081
G01 X28.1848 Y7.8265
G01 X28.1764 Y7.8443
G01 X28.1663 Y7.8611
G01 X28.1546 Y7.8769
G01 X28.1414 Y7.8914
G01 X28.1269 Y7.9046
G01 X28.1111 Y7.9163
G01 X28.0943 Y7.9264
G01 X28.0765 Y7.9348
G01 X28.0581 Y7.9414
G01 X28.0390 Y7.9462
G01 X28.0196 Y7.9490
G01 X28.0000 Y7.9500
G01 X25.1250 Y7.9500
G01 X25.1054 Y7.9490
G01 X25.0860 Y7.9462
G01 X25.0669 Y7.9414
G01 X25.0485 Y7.9348
G01 X25.0307 Y7.9264
G01 X25.0139 Y7.9163
G01 X24.9981 Y7.9046
G01 X24.9836 Y7.8914
G01 X24.9704 Y7.8769
G01 X24.9587 Y7.8611
G01 X24.9486 Y7.8443
G01 X24.9402 Y7.8265
G01 X24.9336 Y7.8081
G01 X24.9288 Y7.7890
G01 X24.9260 Y7.7696
G01 X24.9250 Y7.7500
G01 X24.9250 Y2.2000
G01 X24.7000 Y2.2000
G01 X24.7000 Y3.0000
G01 X24.6990 Y3.0196
G01 X24.6962 Y3.0390
G01 X24.6914 Y3.0581
G01 X24.6848 Y3.0765
G01 X24.6764 Y3.0943
G01 X24.6663 Y3.1111
G01 X24.6546 Y3.1269
G01 X24.6414 Y3.1414
G01 X24.6269 Y3.1546
G01 X24.6111 Y3.1663
G01 X24.5943 Y3.1764
G01 X24.5765 Y3.1848
G01 X24.5581 Y3.1914
G01 X24.5390 Y3.1962
G01 X24.5196 Y3.1990
G01 X24.5000 Y3.2000
G01 X23.0000 Y3.2000
G01 X22.9804 Y3.1990
G01 X22.9610 Y3.1962
G01 X22.9419 Y3.1914
G01 X22.9235 Y3.1848
G01 X22.9057 Y3.1764
G01 X22.8889 Y3.1663
G01 X22.8731 Y3.1546
G01 X22.8586 Y3.1414
G01 X22.8454 Y3.1269
G01 X22.8337 Y3.1111
G01 X22.8236 Y3.0943
G01 X22.8152 Y3.0765
G01 X22.8086 Y3.0581
G01 X22.8038 Y3.0390
G01 X22.8010 Y3.0196
G01 X22.8000 Y3.0000
G01 X22.8000 Y1.2500
G01 X22.8010 Y1.2304
G01 X22.8038 Y1.2110
G01 X22.8086 Y1.1919
G01 X22.8152 Y1.1735
G01 X22.8236 Y1.1557
G01 X22.8337 Y1.1389
G01 X22.8454 Y1.1231
G01 X22.8586 Y1.1086
G01 X22.8731 Y1.0954
G01 X22.8889 Y1.0837
G01 X22.9057 Y1.0736
G01 X22.9235 Y1.0652
G01 X22.9419 Y1.0586
G01 X22.9610 Y1.0538
G01 X22.9804 Y1.0510
G01 X23.0000 Y1.0500
G01 X25.8750 Y1.0500
G01 X25.8946 Y1.0510
G01 X25.9140 Y1.0538
G01 X25.9331 Y1.0586
G01 X25.9515 Y1.0652
G01 X25.9693 Y1.0736
G01 X25.9861 Y1.0837
G01 X26.0019 Y1.0954
G01 X26.0164 Y1.1086
G01 X26.0296 Y1.1231
G01 X26.0413 Y1.1389
G01 X26.0514 Y1.1557
G01 X26.0598 Y1.1735
G01 X26.0664 Y1.1919
G01 X26.0712 Y1.2110
G01 X26.0740 Y1.2304
G01 X26.0750 Y1.2500
G01 X26.0750 Y6.8000
G00 Z2.0000
G00 X33.0750 Y6.8000
G01 F60.00
G01 Z-0.1500
G01 F120.00
G01 X33.3000 Y6.8000
G01 X33.3000 Y6.0000
G01 X33.3010 Y5.9804
G01 X33.3038 Y5.9610
G01 X33.3086 Y5.9419
G01 X33.3152 Y5.9235
G01 X33.3236 Y5.9057
G01 X33.3337 Y5.8889
G01 X33.3454 Y5.8731
G01 X33.3586 Y5.8586
G01 X33.3731 Y5.8454
G01 X33.3889 Y5.8337
G01 X33.4057 Y5.8236
G01 X33.4235 Y5.8152
G01 X33.4419 Y5.8086
G01 X33.4610 Y5.8038
G01 X33.4804 Y5.8010
G01 X33.5000 Y5.8000
G01 X35.0000 Y5.8000
G01 X35.0196 Y5.8010
G01 X35.0390 Y5.8038
G01 X35.0581 Y5.8086
G01 X35.0765 Y5.8152
G01 X35.0943 Y5.8236
G01 X35.1111 Y5.8337
G01 X35.1269 Y5.8454
G01 X35.1414 Y5.8586
G01 X35.1546 Y5.8731
G01 X35.1663 Y5.8889
G01 X35.1764 Y5.9057
G01 X35.1848 Y5.9235
G01 X35.1914 Y5.9419
G01 X35.1962 Y5.9610
G01 X35.1990 Y5.9804
G01 X35.2000 Y6.0000
G01 X35.2000 Y7.7500
G01 X35.1990 Y7.7696
G01 X35.1962 Y7.7890
G01 X35.1914 Y7.8081
G01 X35.1848 Y7.8265
G01 X35.1764 Y7.8443
G01 X35.1663 Y7.8611
G01 X35.1546 Y7.8769
G01 X35.1414 Y7.8914
G01 X35.1269 Y7.9046
G01 X35.1111 Y7.9163
G01 X35.0943 Y7.9264
G01 X35.0765 Y7.9348
G01 X35.0581 Y7.9414
G01 X35.0390 Y7.9462
G01 X35.0196 Y7.9490
G01 X35.0000 Y7.9500
G01 X32.1250 Y7.9500
G01 X32.1054 Y7.9490
G01 X32.0860 Y7.9462
G01 X32.0669 Y7.9414
G01 X32.0485 Y7.9348
G01 X32.0307 Y7.9264
G01 X32.0139 Y7.9163
G01 X31.9981 Y7.9046
G01 X31.9836 Y7.8914
G01 X31.9704 Y7.8769
G01 X31.9587 Y7.8611
G01 X31.9486 Y7.8443
G01 X31.9402 Y7.8265
G01 X31.9336 Y7.8081
G01 X31.9288 Y7.7890
G01 X31.9260 Y7.7696
G01 X31.9250 Y7.7500
G01 X31.9250 Y2.2000
G01 X31.7000 Y2.2000
G01 X31.7000 Y3.0000
G01 X31.6990 Y3.0196
G01 X31.6962 Y3.0390
G01 X31.6914 Y3.0581
G01 X31.6848 Y3.0765
G01 X31.6764 Y3.0943
G01 X31.6663 Y3.1111
G01 X31.6546 Y3.1269
G01 X31.6414 Y3.1414
G01 X31.6269 Y3.1546
G01 X31.6111 Y3.1663
G01 X31.5943 Y3.1764
G01 X31.5765 Y3.1848
G01 X31.5581 Y3.1914
G01 X31.5390 Y3.1962
G01 X31.5196 Y3.1990
G01 X31.5000 Y3.2000
G01 X30.0000 Y3.2000
G01 X29.9804 Y3.1990
G01 X29.9610 Y3.1962
G01 X29.9419 Y3.1914
G01 X29.9235 Y3.1848
G01 X29.9057 Y3.1764
G01 X29.8889 Y3.1663
G01 X29.8731 Y3.1546
G01 X29.8586 Y3.1414
G01 X29.8454 Y3.1269
G01 X29.8337 Y3.1111
G01 X29.8236 Y3.0943
G01 X29.8152 Y3.0765
G01 X29.8086 Y3.0581
G01 X29.8038 Y3.0390
G01 X29.8010 Y3.0196
G01 X29.8000 Y3.0000
G01 X29.8000 Y1.2500
G01 X29.8010 Y1.2304
G01 X29.8038 Y1.2110
G01 X29.8086 Y1.1919
G01 X29.8152 Y1.1735
G01 X29.8236 Y1.1557
G01 X29.8337 Y1.1389
G01 X29.8454 Y1.1231
G01 X29.8586 Y1.1086
G01 X29.8731 Y1.0954
G01 X29.8889 Y1.0837
G01 X29.9057 Y1.0736
G01 X29.9235 Y1.0652
G01 X29.9419 Y1.0586
G01 X29.9610 Y1.0538
G01 X29.9804 Y1.0510
G01 X30.0000 Y1.0500
G01 X32.8750 Y1.0500
G01 X32.8946 Y1.0510
G01 X32.9140 Y1.0538
G01 X32.9331 Y1.0586
G01 X32.9515 Y1.0652
G01 X32.9693 Y1.0736
G01 X32.9861 Y1.0837
G01 X33.0019 Y1.0954
G01 X33.0164 Y1.1086
G01 X33.0296 Y1.1231
G01 X33.0413 Y1.1389
G01 X33.0514 Y1.1557
G01 X33.0598 Y1.1735
G01 X33.0664 Y1.1919
G01 X33.0712 Y1.2110
G01 X33.0740 Y1.2304
G01 X33.0750 Y1.2500
G01 X33.0750 Y6.8000
G00 Z2.0000
G00 X40.0750 Y6.8000
G01 F60.00
G01 Z-0.1500
G01 F120.00
G01 X40.3000 Y6.8000
G01 X40.3000 Y6.0000
G01 X40.3010 Y5.9804
G01 X40.3038 Y5.9610
G01 X40.3086 Y5.9419
G01 X40.3152 Y5.9235
G01 X40.3236 Y5.9057
G01 X40.3337 Y5.8889
G01 X40.3454 Y5.8731
G01 X40.3586 Y5.8586
G01 X40.3731 Y5.8454
G01 X40.3889 Y5.8337
G01 X40.4057 Y5.8236
G01 X40.4235 Y5.8152
G01 X40.4419 Y5.8086
G01 X40.4610 Y5.8038
G01 X40.4804 Y5.8010
G01 X40.5000 Y5.8000
G01 X42.0000 Y5.8000
G01 X42.0196 Y5.8010
G01 X42.0390 Y5.8038
G01 X42.0581 Y5.8086
G01 X42.0765 Y5.8152
G01 X42.0943 Y5.8236
G01 X42.1111 Y5.8337
G01 X42.1269 Y5.8454
G01 X42.1414 Y5.8586
G01 X42.1546 Y5.8731
G01 X42.1663 Y5.8889
G01 X42.1764 Y5.9057
G01 X42.1848 Y5.9235
G01 X42.1914 Y5.9419
G01 X42.1962 Y5.9610
G01 X42.1990 Y5.9804
G01 X42.2000 Y6.0000
G01 X42.2000 Y7.7500
G01 X42.1990 Y7.7696
G01 X42.1962 Y7.7890
G01 X42.1914 Y7.8081
G01 X42.1848 Y7.8265
G01 X42.1764 Y7.8443
G01 X42.1663 Y7.8611
G01 X42.1546 Y7.8769
G01 X42.1414 Y7.8914
G01 X42.1269 Y7.9046
G01 X42.1111 Y7.9163
G01 X42.0943 Y7.9264
G01 X42.0765 Y7.9348
G01 X42.0581 Y7.9414
G01 X42.0390 Y7.9462
G01 X42.0196 Y7.9490
G01 X42.0000 Y7.9500
G01 X39.1250 Y7.9500
G01 X39.1054 Y7.9490
G01 X39.0860 Y7.9462
G01 X39.0669 Y7.9414
G01 X39.0485 Y7.9348
G01 X39.0307 Y7.9264
G01 X39.0139 Y7.9163
G01 X38.9981 Y7.9046
G01 X38.9836 Y7.8914
G01 X38.9704 Y7.8769
G01 X38.9587 Y7.8611
G01 X38.9486 Y7.8443
G01 X38.9402 Y7.8265
G01 X38.9336 Y7.8081
G01 X38.9288 Y7.7890
G01 X38.9260 Y7.7696
G01 X38.9250 Y7.7500
G01 X38.9250 Y2.2000
G01 X38.7000 Y2.2000
G01 X38.7000 Y3.0000
G01 X38.6990 Y3.0196
G01 X38.6962 Y3.0390
G01 X38.6914 Y3.0581
G01 X38.6848 Y3.0765
G01 X38.6764 Y3.0943
G01 X38.6663 Y3.1111
G01 X38.6546 Y3.1269
G01 X38.6414 Y3.1414
G01 X38.6269 Y3.1546
G01 X38.6111 Y3.1663
G01 X38.5943 Y3.1764
G01 X38.5765 Y3.1848
G01 X38.5581 Y3.1914
G01 X38.5390 Y3.1962
G01 X38.5196 Y3.1990
G01 X38.5000 Y3.2000
G01 X37.0000 Y3.2000
G01 X36.9804 Y3.1990
G01 X36.9610 Y3.1962
G01 X36.9419 Y3.1914
G01 X36.9235 Y3.1848
G01 X36.9057 Y3.1764
G01 X36.8889 Y3.1663
G01 X36.8731 Y3.1546
G01 X36.8586 Y3.1414
G01 X36.8454 Y3.1269
G01 X36.8337 Y3.1111
G01 X36.8236 Y3.0943
G01 X36.8152 Y3.0765
G01 X36.8086 Y3.0581
G01 X36.8038 Y3.0390
G01 X36.8010 Y3.0196
G01 X36.8000 Y3.0000
G01 X36.8000 Y1.2500
G01 X36.8010 Y1.2304
G01 X36.8038 Y1.2110
G01 X36.8086 Y1.1919
G01 X36.8152 Y1.1735
G01 X36.8236 Y1.1557
G01 X36.8337 Y1.1389
G01 X36.8454 Y1.1231
G01 X36.8586 Y1.1086
G01 X36.8731 Y1.0954
G01 X36.8889 Y1.0837
G01 X36.9057 Y1.0736
G01 X36.9235 Y1.0652
G01 X36.9419 Y1.0586
G01 X36.9610 Y1.0538
G01 X36.9804 Y1.0510
G01 X37.0000 Y1.0500
G01 X39.8750 Y1.0500
G01 X39.8946 Y1.0510
G01 X39.9140 Y1.0538
G01 X39.9331 Y1.0586
G01 X39.9515 Y1.0652
G01 X39.9693 Y1.0736
G01 X39.9861 Y1.0837
G01 X40.0019 Y1.0954
G01 X40.0164 Y1.1086
G01 X40.0296 Y1.1231
G01 X40.0413 Y1.1389
G01 X40.0514 Y1.1557
G01 X40.0598 Y1.1735
G01 X40.0664 Y1.1919
G01 X40.0712 Y1.2110
G01 X40.0740 Y1.2304
G01 X40.0750 Y1.2500
G01 X40.0750 Y6.8000
G00 Z2.0000
G00 X45.5000 Y3.2000
G01 F60.00
G01 Z-0.1500
G01 F120.00
G01 X44.0000 Y3.2000
G01 X43.9804 Y3.1990
G01 X43.9610 Y3.1962
G01 X43.9419 Y3.1914
G01 X43.9235 Y3.1848
G01 X43.9057 Y3.1764
G01 X43.8889 Y3.1663
G01 X43.8731 Y3.1546
G01 X43.8586 Y3.1414
G01 X43.8454 Y3.1269
G01 X43.8337 Y3.1111
G01 X43.8236 Y3.0943
G01 X43.8152 Y3.0765
G01 X43.8086 Y3.0581
G01 X43.8038 Y3.0390
G01 X43.8010 Y3.0196
G01 X43.8000 Y3.0000
G01 X43.8000 Y1.2500
G01 X43.8010 Y1.2304
G01 X43.8038 Y1.2110
G01 X43.8086 Y1.1919
G01 X43.8152 Y1.1735
G01 X43.8236 Y1.1557
G01 X43.8337 Y1.1389
G01 X43.8454 Y1.1231
G01 X43.8586 Y1.1086
G01 X43.8731 Y1.0954
G01 X43.8889 Y1.0837
G01 X43.9057 Y1.0736
G01 X43.9235 Y1.0652
G01 X43.9419 Y1.0586
G01 X43.9610 Y1.0538
G01 X43.9804 Y1.0510
G01 X44.0000 Y1.0500
G01 X45.5000 Y1.0500
G01 X45.5196 Y1.0510
G01 X45.5390 Y1.0538
G01 X45.5581 Y1.0586
G01 X45.5765 Y1.0652
G01 X45.5943 Y1.0736
G01 X45.6111 Y1.0837
G01 X45.6269 Y1.0954
G01 X45.6414 Y1.1086
G01 X45.6546 Y1.1231
G01 X45.6663 Y1.1389
G01 X45.6764 Y1.1557
G01 X45.6848 Y1.1735
G01 X45.6914 Y1.1919
G01 X45.6962 Y1.2110
G01 X45.6990 Y1.2304
G01 X45.7000 Y1.2500
G01 X45.7000 Y3.0000
G01 X45.6990 Y3.0196
G01 X45.6962 Y3.0390
G01 X45.6914 Y3.0581
G01 X45.6848 Y3.0765
G01 X45.6764 Y3.0943
G01 X45.6663 Y3.1111
G01 X45.6546 Y3.1269
G01 X45.6414 Y3.1414
G01 X45.6269 Y3.1546
G01 X45.6111 Y3.1663
G01 X45.5943 Y3.1764
G01 X45.5765 Y3.1848
G01 X45.5581 Y3.1914
G01 X45.5390 Y3.1962
G01 X45.5196 Y3.1990
G01 X45.5000 Y3.2000
G00 Z2.0000
G00 X50.9314 Y3.4377
G01 F60.00
G01 Z-0.1500
G01 F120.00
G01 X50.9341 Y3.4341
G01 X50.9473 Y3.4196
G01 X50.9618 Y3.4064
G01 X50.9776 Y3.3947
G01 X50.9944 Y3.3846
G01 X51.0122 Y3.3762
G01 X51.0306 Y3.3696
G01 X51.0497 Y3.3648
G01 X51.0691 Y3.3620
G01 X51.0887 Y3.3610
G01 X72.2512 Y3.3610
G01 X72.4626 Y2.8505
G01 X72.4710 Y2.8327
G01 X72.4811 Y2.8159
G01 X72.4928 Y2.8001
G01 X72.5060 Y2.7856
G01 X72.5205 Y2.7724
G01 X72.5363 Y2.7607
G01 X72.5531 Y2.7506
G01 X72.5709 Y2.7422
G01 X73.4548 Y2.3762
G01 X73.4733 Y2.3696
G01 X73.4923 Y2.3648
G01 X73.5117 Y2.3620
G01 X73.5313 Y2.3610
G01 X73.5509 Y2.3620
G01 X73.5703 Y2.3648
G01 X73.5893 Y2.3696
G01 X73.6078 Y2.3762
G01 X74.4917 Y2.7422
G01 X74.5095 Y2.7506
G01 X74.5263 Y2.7607
G01 X74.5421 Y2.7724
G01 X74.5566 Y2.7856
G01 X74.5698 Y2.8001
G01 X74.5815 Y2.8159
G01 X74.5916 Y2.8327
G01 X74.6000 Y2.8505
G01 X74.8114 Y3.3610
G01 X102.0010 Y3.3610
G01 X102.0206 Y3.3620
G01 X102.0400 Y3.3648
G01 X102.0591 Y3.3696
G01 X102.0775 Y3.3762
G01 X102.0953 Y3.3846
G01 X102.1121 Y3.3947
G01 X102.1279 Y3.4064
G01 X102.1424 Y3.4196
G01 X102.1556 Y3.4341
G01 X102.1673 Y3.4499
G01 X102.1774 Y3.4667
G01 X102.1858 Y3.4845
G01 X102.1924 Y3.5029
G01 X102.1972 Y3.5220
G01 X102.2000 Y3.5414
G01 X102.2010 Y3.5610
G01 X102.2010 Y5.0610
G01 X102.2000 Y5.0806
G01 X102.1972 Y5.1000
G01 X102.1924 Y5.1191
G01 X102.1858 Y5.1375
G01 X102.1774 Y5.1553
G01 X102.1673 Y5.1721
G01 X102.1556 Y5.1879
G01 X102.1424 Y5.2024
G01 X102.1279 Y5.2156
G01 X102.1121 Y5.2273
G01 X102.0953 Y5.2374
G01 X102.0775 Y5.2458
G01 X102.0591 Y5.2524
G01 X102.0400 Y5.2572
G01 X102.0206 Y5.2600
G01 X102.0010 Y5.2610
G01 X99.2936 Y5.2610
G01 X99.2936 Y7.2610
G01 X99.2926 Y7.2806
G01 X99.2898 Y7.3000
G01 X99.2850 Y7.3191
G01 X99.2784 Y7.3375
G01 X99.2700 Y7.3553
G01 X99.2599 Y7.3721
G01 X99.2482 Y7.3879
G01 X99.2350 Y7.4024
G01 X99.2205 Y7.4156
G01 X99.2047 Y7.4273
G01 X99.1879 Y7.4374
G01 X99.1701 Y7.4458
G01 X99.1517 Y7.4524
G01 X99.1326 Y7.4572
G01 X99.1132 Y7.4600
G01 X99.0936 Y7.4610
G01 X97.5936 Y7.4610
G01 X97.5740 Y7.4600
G01 X97.5546 Y7.4572
G01 X97.5355 Y7.4524
G01 X97.5171 Y7.4458
G01 X97.4993 Y7.4374
G01 X97.4825 Y7.4273
G01 X97.4667 Y7.4156
G01 X97.4522 Y7.4024
G01 X97.4390 Y7.3879
G01 X97.4273 Y7.3721
G01 X97.4172 Y7.3553
G01 X97.4088 Y7.3375
G01 X97.4022 Y7.3191
G01 X97.3974 Y7.3000
G01 X97.3946 Y7.2806
G01 X97.3936 Y7.2610
G01 X97.3936 Y5.2610
G01 X89.8562 Y5.2610
G01 X89.8562 Y7.2610
G01 X89.8552 Y7.2806
G01 X89.8524 Y7.3000
G01 X89.8476 Y7.3191
G01 X89.8410 Y7.3375
G01 X89.8326 Y7.3553
G01 X89.8225 Y7.3721
G01 X89.8108 Y7.3879
G01 X89.7976 Y7.4024
G01 X89.7831 Y7.4156
G01 X89.7673 Y7.4273
G01 X89.7505 Y7.4374
G01 X89.7327 Y7.4458
G01 X89.7143 Y7.4524
G01 X89.6952 Y7.4572
G01 X89.6758 Y7.4600
G01 X89.6562 Y7.4610
G01 X88.1562 Y7.4610
G01 X88.1366 Y7.4600
G01 X88.1172 Y7.4572
G01 X88.0981 Y7.4524
G01 X88.0797 Y7.4458
G01 X88.0619 Y7.4374
G01 X88.0451 Y7.4273
G01 X88.0293 Y7.4156
G01 X88.0148 Y7.4024
G01 X88.0016 Y7.3879
G01 X87.9899 Y7.3721
G01 X87.9798 Y7.3553
G01 X87.9714 Y7.3375
G01 X87.9648 Y7.3191
G01 X87.9600 Y7.3000
G01 X87.9572 Y7.2806
G01 X87.9562 Y7.2610
G01 X87.9562 Y5.2610
G01 X80.4187 Y5.2610
G01 X80.4187 Y7.2610
G01 X80.4177 Y7.2806
G01 X80.4149 Y7.3000
G01 X80.4101 Y7.3191
G01 X80.4035 Y7.3375
G01 X80.3951 Y7.3553
G01 X80.3850 Y7.3721
G01 X80.3733 Y7.3879
G01 X80.3601 Y7.4024
G01 X80.3456 Y7.4156
G01 X80.3298 Y7.4273
G01 X80.3130 Y7.4374
G01 X80.2952 Y7.4458
G01 X80.2768 Y7.4524
G01 X80.2577 Y7.4572
G01 X80.2383 Y7.4600
G01 X80.2187 Y7.4610
G01 X78.7187 Y7.4610
G01 X78.6991 Y7.4600
G01 X78.6797 Y7.4572
G01 X78.6606 Y7.4524
G01 X78.6422 Y7.4458
G01 X78.6244 Y7.4374
G01 X78.6076 Y7.4273
G01 X78.5918 Y7.4156
G01 X78.5773 Y7.4024
G01 X78.5641 Y7.3879
G01 X78.5524 Y7.3721
G01 X78.5423 Y7.3553
G01 X78.5339 Y7.3375
G01 X78.5273 Y7.3191
G01 X78.5225 Y7.3000
G01 X78.5197 Y7.2806
G01 X78.5187 Y7.2610
G01 X78.5187 Y5.2610
G01 X70.9813 Y5.2610
G01 X70.9813 Y7.2610
G01 X70.9803 Y7.2806
G01 X70.9775 Y7.3000
G01 X70.9727 Y7.3191
G01 X70.9661 Y7.3375
G01 X70.9577 Y7.3553
G01 X70.9476 Y7.3721
G01 X70.9359 Y7.3879
G01 X70.9227 Y7.4024
G01 X70.9082 Y7.4156
G01 X70.8924 Y7.4273
G01 X70.8756 Y7.4374
G01 X70.8578 Y7.4458
G01 X70.8394 Y7.4524
G01 X70.8203 Y7.4572
G01 X70.8009 Y7.4600
G01 X70.7813 Y7.4610
G01 X69.2813 Y7.4610
G01 X69.2617 Y7.4600
G01 X69.2423 Y7.4572
G01 X69.2232 Y7.4524
G01 X69.2048 Y7.4458
G01 X69.1870 Y7.4374
G01 X69.1702 Y7.4273
G01 X69.1544 Y7.4156
G01 X69.1399 Y7.4024
G01 X69.1267 Y7.3879
G01 X69.1150 Y7.3721
G01 X69.1049 Y7.3553
G01 X69.0965 Y7.3375
G01 X69.0899 Y7.3191
G01 X69.0851 Y7.3000
G01 X69.0823 Y7.2806
G01 X69.0813 Y7.2610
G01 X69.0813 Y5.2610
G01 X61.5438 Y5.2610
G01 X61.5438 Y7.2610
G01 X61.5428 Y7.2806
G01 X61.5400 Y7.3000
G01 X61.5352 Y7.3191
G01 X61.5286 Y7.3375
G01 X61.5202 Y7.3553
G01 X61.5101 Y7.3721
G01 X61.4984 Y7.3879
G01 X61.4852 Y7.4024
G01 X61.4707 Y7.4156
G01 X61.4549 Y7.4273
G01 X61.4381 Y7.4374
G01 X61.4203 Y7.4458
G01 X61.4019 Y7.4524
G01 X61.3828 Y7.4572
G01 X61.3634 Y7.4600
G01 X61.3438 Y7.4610
G01 X59.8438 Y7.4610
G01 X59.8242 Y7.4600
G01 X59.8048 Y7.4572
G01 X59.7857 Y7.4524
G01 X59.7673 Y7.4458
G01 X59.7495 Y7.4374
G01 X59.7327 Y7.4273
G01 X59.7169 Y7.4156
G01 X59.7024 Y7.4024
G01 X59.6892 Y7.3879
G01 X59.6775 Y7.3721
G01 X59.6674 Y7.3553
G01 X59.6590 Y7.3375
G01 X59.6524 Y7.3191
G01 X59.6476 Y7.3000
G01 X59.6448 Y7.2806
G01 X59.6438 Y7.2610
G01 X59.6438 Y5.2610
G01 X52.1064 Y5.2610
G01 X52.1064 Y7.2610
G01 X52.1054 Y7.2806
G01 X52.1026 Y7.3000
G01 X52.0978 Y7.3191
G01 X52.0912 Y7.3375
G01 X52.0828 Y7.3553
G01 X52.0727 Y7.3721
G01 X52.0610 Y7.3879
G01 X52.0478 Y7.4024
G01 X52.0333 Y7.4156
G01 X52.0175 Y7.4273
G01 X52.0007 Y7.4374
G01 X51.9829 Y7.4458
G01 X51.9645 Y7.4524
G01 X51.9454 Y7.4572
G01 X51.9260 Y7.4600
G01 X51.9064 Y7.4610
G01 X50.4064 Y7.4610
G01 X50.3868 Y7.4600
G01 X50.3674 Y7.4572
G01 X50.3483 Y7.4524
G01 X50.3299 Y7.4458
G01 X50.3121 Y7.4374
G01 X50.2953 Y7.4273
G01 X50.2795 Y7.4156
G01 X50.2650 Y7.4024
G01 X50.2518 Y7.3879
G01 X50.2401 Y7.3721
G01 X50.2300 Y7.3553
G01 X50.2216 Y7.3375
G01 X50.2150 Y7.3191
G01 X50.2102 Y7.3000
G01 X50.2074 Y7.2806
G01 X50.2064 Y7.2610
G01 X50.2064 Y4.3110
G01 X50.2074 Y4.2914
G01 X50.2102 Y4.2720
G01 X50.2150 Y4.2529
G01 X50.2216 Y4.2344
G01 X50.4413 Y3.7044
G01 X50.4497 Y3.6867
G01 X50.4598 Y3.6699
G01 X50.4715 Y3.6541
G01 X50.4846 Y3.6396
G01 X50.4992 Y3.6264
G01 X50.5149 Y3.6148
G01 X50.5317 Y3.6047
G01 X50.5494 Y3.5963
G01 X50.9314 Y3.4377
G00 Z2.0000
G00 X48.8281 Y11.2433
G01 F60.00
G01 Z-0.1500
G01 F120.00
G01 X48.8310 Y11.2220
G01 X48.8358 Y11.2029
G01 X48.8424 Y11.1845
G01 X48.8508 Y11.1667
G01 X48.8609 Y11.1499
G01 X48.8726 Y11.1341
G01 X48.8858 Y11.1196
G01 X48.9003 Y11.1064
G01 X48.9161 Y11.0947
G01 X48.9329 Y11.0846
G01 X48.9507 Y11.0762
G01 X48.9691 Y11.0696
G01 X48.9882 Y11.0648
G01 X49.0076 Y11.0620
G01 X49.0272 Y11.0610
G01 X50.2064 Y11.0610
G01 X50.2064 Y10.2610
G01 X50.2074 Y10.2414
G01 X50.2102 Y10.2220
G01 X50.2150 Y10.2029
G01 X50.2216 Y10.1845
G01 X50.2300 Y10.1667
G01 X50.2401 Y10.1499
G01 X50.2518 Y10.1341
G01 X50.2650 Y10.1196
G01 X50.2795 Y10.1064
G01 X50.2953 Y10.0947
G01 X50.3121 Y10.0846
G01 X50.3299 Y10.0762
G01 X50.3483 Y10.0696
G01 X50.3674 Y10.0648
G01 X50.3868 Y10.0620
G01 X50.4064 Y10.0610
G01 X51.9064 Y10.0610
G01 X51.9260 Y10.0620
G01 X51.9454 Y10.0648
G01 X51.9645 Y10.0696
G01 X51.9829 Y10.0762
G01 X52.0007 Y10.0846
G01 X52.0175 Y10.0947
G01 X52.0333 Y10.1064
G01 X52.0478 Y10.1196
G01 X52.0610 Y10.1341
G01 X52.0727 Y10.1499
G01 X52.0828 Y10.1667
G01 X52.0912 Y10.1845
G01 X52.0978 Y10.2029
G01 X52.1026 Y10.2220
G01 X52.1054 Y10.2414
G01 X52.1064 Y10.2610
G01 X52.1064 Y12.0110
G01 X52.1054 Y12.0306
G01 X52.1026 Y12.0500
G01 X52.0978 Y12.0691
G01 X52.0912 Y12.0875
G01 X52.0828 Y12.1053
G01 X52.0727 Y12.1221
G01 X52.0610 Y12.1379
G01 X52.0478 Y12.1524
G01 X52.0333 Y12.1656
G01 X52.0175 Y12.1773
G01 X52.0007 Y12.1874
G01 X51.9829 Y12.1958
G01 X51.9645 Y12.2024
G01 X51.9454 Y12.2072
G01 X51.9260 Y12.2100
G01 X51.9064 Y12.2110
G01 X49.9875 Y12.2110
G01 X50.0906 Y20.6500
G01 X50.3272 Y20.6500
G01 X50.3272 Y19.8500
G01 X50.3282 Y19.8304
G01 X50.3310 Y19.8110
G01 X50.3358 Y19.7919
G01 X50.3424 Y19.7735
G01 X50.3508 Y19.7557
G01 X50.3609 Y19.7389
G01 X50.3726 Y19.7231
G01 X50.3858 Y19.7086
G01 X50.4003 Y19.6954
G01 X50.4161 Y19.6837
G01 X50.4329 Y19.6736
G01 X50.4507 Y19.6652
G01 X50.4691 Y19.6586
G01 X50.4882 Y19.6538
G01 X50.5076 Y19.6510
G01 X50.5272 Y19.6500
G01 X52.0272 Y19.6500
G01 X52.0468 Y19.6510
G01 X52.0662 Y19.6538
G01 X52.0853 Y19.6586
G01 X52.1037 Y19.6652
G01 X52.1215 Y19.6736
G01 X52.1383 Y19.6837
G01 X52.1541 Y19.6954
G01 X52.1686 Y19.7086
G01 X52.1818 Y19.7231
G01 X52.1935 Y19.7389
G01 X52.2036 Y19.7557
G01 X52.2120 Y19.7735
G01 X52.2186 Y19.7919
G01 X52.2234 Y19.8110
G01 X52.2262 Y19.8304
G01 X52.2272 Y19.8500
G01 X52.2272 Y21.6000
G01 X52.2262 Y21.6196
G01 X52.2234 Y21.6390
G01 X52.2186 Y21.6581
G01 X52.2120 Y21.6765
G01 X52.2036 Y21.6943
G01 X52.1935 Y21.7111
G01 X52.1818 Y21.7269
G01 X52.1686 Y21.7414
G01 X52.1541 Y21.7546
G01 X52.1383 Y21.7663
G01 X52.1215 Y21.7764
G01 X52.1037 Y21.7848
G01 X52.0853 Y21.7914
G01 X52.0662 Y21.7962
G01 X52.0468 Y21.7990
G01 X52.0272 Y21.8000
G01 X49.9034 Y21.8000
G01 X49.1546 Y21.8090
G01 X49.1350 Y21.8083
G01 X49.1155 Y21.8056
G01 X49.0965 Y21.8011
G01 X49.0779 Y21.7947
G01 X49.0601 Y21.7865
G01 X49.0431 Y21.7766
G01 X49.0272 Y21.7651
G01 X49.0125 Y21.7521
G01 X48.9991 Y21.7377
G01 X48.9873 Y21.7221
G01 X48.9770 Y21.7054
G01 X48.9684 Y21.6878
G01 X48.9615 Y21.6694
G01 X48.9565 Y21.6504
G01 X48.9534 Y21.6310
G01 X48.9522 Y21.6114
G01 X48.8357 Y12.0686
G01 X48.8310 Y12.0500
G01 X48.8282 Y12.0306
G01 X48.8272 Y12.0110
G01 X48.8272 Y11.3753
G01 X48.8259 Y11.2735
G01 X48.8266 Y11.2538
G01 X48.8281 Y11.2433
G00 Z2.0000
G00 X51.0522 Y13.0267
G01 F60.00
G01 Z-0.1500
G01 F120.00
G01 X51.0549 Y13.0231
G01 X51.0681 Y13.0086
G01 X51.0826 Y12.9954
G01 X51.0984 Y12.9837
G01 X51.1152 Y12.9736
G01 X51.1330 Y12.9652
G01 X51.1514 Y12.9586
G01 X51.1705 Y12.9538
G01 X51.1899 Y12.9510
G01 X51.2095 Y12.9500
G01 X53.7115 Y12.9500
G01 X53.7088 Y12.0402
G01 X53.7074 Y12.0306
G01 X53.7064 Y12.0110
G01 X53.7064 Y10.2610
G01 X53.7074 Y10.2414
G01 X53.7102 Y10.2220
G01 X53.7150 Y10.2029
G01 X53.7216 Y10.1845
G01 X53.7300 Y10.1667
G01 X53.7401 Y10.1499
G01 X53.7518 Y10.1341
G01 X53.7650 Y10.1196
G01 X53.7795 Y10.1064
G01 X53.7953 Y10.0947
G01 X53.8121 Y10.0846
G01 X53.8299 Y10.0762
G01 X53.8483 Y10.0696
G01 X53.8674 Y10.0648
G01 X53.8868 Y10.0620
G01 X53.9064 Y10.0610
G01 X55.4064 Y10.0610
G01 X55.4260 Y10.0620
G01 X55.4454 Y10.0648
G01 X55.4645 Y10.0696
G01 X55.4829 Y10.0762
G01 X55.5007 Y10.0846
G01 X55.5175 Y10.0947
G01 X55.5333 Y10.1064
G01 X55.5478 Y10.1196
G01 X55.5610 Y10.1341
G01 X55.5727 Y10.1499
G01 X55.5828 Y10.1667
G01 X55.5912 Y10.1845
G01 X55.5978 Y10.2029
G01 X55.6026 Y10.2220
G01 X55.6054 Y10.2414
G01 X55.6064 Y10.2610
G01 X55.6064 Y11.2607
G01 X55.6115 Y12.9500
G01 X63.1467 Y12.9500
G01 X63.1438 Y12.0110
G01 X63.1438 Y10.2610
G01 X63.1448 Y10.2414
G01 X63.1476 Y10.2220
G01 X63.1524 Y10.2029
G01 X63.1590 Y10.1845
G01 X63.1674 Y10.1667
G01 X63.1775 Y10.1499
G01 X63.1892 Y10.1341
G01 X63.2024 Y10.1196
G01 X63.2169 Y10.1064
G01 X63.2327 Y10.0947
G01 X63.2495 Y10.0846
G01 X63.2673 Y10.0762
G01 X63.2857 Y10.0696
G01 X63.3048 Y10.0648
G01 X63.3242 Y10.0620
G01 X63.3438 Y10.0610
G01 X64.8438 Y10.0610
G01 X64.8634 Y10.0620
G01 X64.8828 Y10.0648
G01 X64.9019 Y10.0696
G01 X64.9203 Y10.0762
G01 X64.9381 Y10.0846
G01 X64.9549 Y10.0947
G01 X64.9707 Y10.1064
G01 X64.9852 Y10.1196
G01 X64.9984 Y10.1341
G01 X65.0101 Y10.1499
G01 X65.0202 Y10.1667
G01 X65.0286 Y10.1845
G01 X65.0352 Y10.2029
G01 X65.0400 Y10.2220
G01 X65.0428 Y10.2414
G01 X65.0438 Y10.2610
G01 X65.0438 Y11.2608
G01 X65.0469 Y12.9500
G01 X72.5822 Y12.9500
G01 X72.5813 Y12.0110
G01 X72.5813 Y10.2610
G01 X72.5823 Y10.2414
G01 X72.5851 Y10.2220
G01 X72.5899 Y10.2029
G01 X72.5965 Y10.1845
G01 X72.6049 Y10.1667
G01 X72.6150 Y10.1499
G01 X72.6267 Y10.1341
G01 X72.6399 Y10.1196
G01 X72.6544 Y10.1064
G01 X72.6702 Y10.0947
G01 X72.6870 Y10.0846
G01 X72.7048 Y10.0762
G01 X72.7232 Y10.0696
G01 X72.7423 Y10.0648
G01 X72.7617 Y10.0620
G01 X72.7813 Y10.0610
G01 X74.2813 Y10.0610
G01 X74.3009 Y10.0620
G01 X74.3203 Y10.0648
G01 X74.3394 Y10.0696
G01 X74.3578 Y10.0762
G01 X74.3756 Y10.0846
G01 X74.3924 Y10.0947
G01 X74.4082 Y10.1064
G01 X74.4227 Y10.1196
G01 X74.4359 Y10.1341
G01 X74.4476 Y10.1499
G01 X74.4577 Y10.1667
G01 X74.4661 Y10.1845
G01 X74.4727 Y10.2029
G01 X74.4775 Y10.2220
G01 X74.4803 Y10.2414
G01 X74.4813 Y10.2610
G01 X74.4813 Y11.2609
G01 X74.4823 Y12.9500
G01 X81.6231 Y12.9500
G01 X81.8759 Y12.3395
G01 X81.8843 Y12.3217
G01 X81.8944 Y12.3049
G01 X81.9061 Y12.2891
G01 X81.9193 Y12.2745
G01 X81.9339 Y12.2613
G01 X81.9497 Y12.2496
G01 X81.9666 Y12.2395
G01 X81.9843 Y12.2312
G01 X82.0181 Y12.2172
G01 X82.0187 Y11.2609
G01 X82.0187 Y10.2610
G01 X82.0197 Y10.2414
G01 X82.0225 Y10.2220
G01 X82.0273 Y10.2029
G01 X82.0339 Y10.1845
G01 X82.0423 Y10.1667
G01 X82.0524 Y10.1499
G01 X82.0641 Y10.1341
G01 X82.0773 Y10.1196
G01 X82.0918 Y10.1064
G01 X82.1076 Y10.0947
G01 X82.1244 Y10.0846
G01 X82.1422 Y10.0762
G01 X82.1606 Y10.0696
G01 X82.1797 Y10.0648
G01 X82.1991 Y10.0620
G01 X82.2187 Y10.0610
G01 X83.7187 Y10.0610
G01 X83.7383 Y10.0620
G01 X83.7577 Y10.0648
G01 X83.7768 Y10.0696
G01 X83.7952 Y10.0762
G01 X83.8130 Y10.0846
G01 X83.8298 Y10.0947
G01 X83.8456 Y10.1064
G01 X83.8601 Y10.1196
G01 X83.8733 Y10.1341
G01 X83.8850 Y10.1499
G01 X83.8951 Y10.1667
G01 X83.9035 Y10.1845
G01 X83.9101 Y10.2029
G01 X83.9149 Y10.2220
G01 X83.9177 Y10.2414
G01 X83.9187 Y10.2610
G01 X83.9187 Y12.0110
G01 X83.9183 Y12.0193
G01 X83.9181 Y12.2375
G01 X83.9230 Y12.2398
G01 X83.9398 Y12.2499
G01 X83.9555 Y12.2616
G01 X83.9700 Y12.2747
G01 X83.9831 Y12.2892
G01 X83.9948 Y12.3050
G01 X84.0048 Y12.3218
G01 X84.0132 Y12.3395
G01 X84.2660 Y12.9500
G01 X91.4531 Y12.9500
G01 X91.4562 Y11.2608
G01 X91.4562 Y10.2610
G01 X91.4572 Y10.2414
G01 X91.4600 Y10.2220
G01 X91.4648 Y10.2029
G01 X91.4714 Y10.1845
G01 X91.4798 Y10.1667
G01 X91.4899 Y10.1499
G01 X91.5016 Y10.1341
G01 X91.5148 Y10.1196
G01 X91.5293 Y10.1064
G01 X91.5451 Y10.0947
G01 X91.5619 Y10.0846
G01 X91.5797 Y10.0762
G01 X91.5981 Y10.0696
G01 X91.6172 Y10.0648
G01 X91.6366 Y10.0620
G01 X91.6562 Y10.0610
G01 X93.1562 Y10.0610
G01 X93.1758 Y10.0620
G01 X93.1952 Y10.0648
G01 X93.2143 Y10.0696
G01 X93.2327 Y10.0762
G01 X93.2505 Y10.0846
G01 X93.2673 Y10.0947
G01 X93.2831 Y10.1064
G01 X93.2976 Y10.1196
G01 X93.3108 Y10.1341
G01 X93.3225 Y10.1499
G01 X93.3326 Y10.1667
G01 X93.3410 Y10.1845
G01 X93.3476 Y10.2029
G01 X93.3524 Y10.2220
G01 X93.3552 Y10.2414
G01 X93.3562 Y10.2610
G01 X93.3562 Y12.0110
G01 X93.3552 Y12.0306
G01 X93.3548 Y12.0338
G01 X93.3531 Y12.9500
G01 X100.8886 Y12.9500
G01 X100.8940 Y11.2607
G01 X100.8940 Y10.2610
G01 X100.8950 Y10.2414
G01 X100.8978 Y10.2220
G01 X100.9026 Y10.2029
G01 X100.9092 Y10.1845
G01 X100.9176 Y10.1667
G01 X100.9277 Y10.1499
G01 X100.9394 Y10.1341
G01 X100.9526 Y10.1196
G01 X100.9671 Y10.1064
G01 X100.9829 Y10.0947
G01 X100.9997 Y10.0846
G01 X101.0175 Y10.0762
G01 X101.0359 Y10.0696
G01 X101.0550 Y10.0648
G01 X101.0744 Y10.0620
G01 X101.0940 Y10.0610
G01 X102.5940 Y10.0610
G01 X102.6136 Y10.0620
G01 X102.6330 Y10.0648
G01 X102.6521 Y10.0696
G01 X102.6705 Y10.0762
G01 X102.6883 Y10.0846
G01 X102.7051 Y10.0947
G01 X102.7209 Y10.1064
G01 X102.7354 Y10.1196
G01 X102.7486 Y10.1341
G01 X102.7603 Y10.1499
G01 X102.7704 Y10.1667
G01 X102.7788 Y10.1845
G01 X102.7854 Y10.2029
G01 X102.7902 Y10.2220
G01 X102.7930 Y10.2414
G01 X102.7940 Y10.2610
G01 X102.7940 Y12.0110
G01 X102.7930 Y12.0306
G01 X102.7909 Y12.0449
G01 X102.7860 Y13.9005
G01 X102.7850 Y13.9200
G01 X102.7821 Y13.9394
G01 X102.7773 Y13.9583
G01 X102.7707 Y13.9767
G01 X102.5507 Y14.5067
G01 X102.5423 Y14.5244
G01 X102.5322 Y14.5412
G01 X102.5206 Y14.5569
G01 X102.5074 Y14.5715
G01 X102.4929 Y14.5846
G01 X102.4771 Y14.5963
G01 X102.4603 Y14.6064
G01 X102.4426 Y14.6148
G01 X102.0261 Y14.7874
G01 X102.0224 Y14.7914
G01 X102.0079 Y14.8046
G01 X101.9921 Y14.8163
G01 X101.9753 Y14.8264
G01 X101.9575 Y14.8348
G01 X101.9391 Y14.8414
G01 X101.9200 Y14.8462
G01 X101.9006 Y14.8490
G01 X101.8810 Y14.8500
G01 X99.1728 Y14.8500
G01 X99.1728 Y16.8500
G01 X99.1718 Y16.8696
G01 X99.1690 Y16.8890
G01 X99.1642 Y16.9081
G01 X99.1576 Y16.9265
G01 X99.1492 Y16.9443
G01 X99.1391 Y16.9611
G01 X99.1274 Y16.9769
G01 X99.1142 Y16.9914
G01 X99.0997 Y17.0046
G01 X99.0839 Y17.0163
G01 X99.0671 Y17.0264
G01 X99.0493 Y17.0348
G01 X99.0309 Y17.0414
G01 X99.0118 Y17.0462
G01 X98.9924 Y17.0490
G01 X98.9728 Y17.0500
G01 X97.4728 Y17.0500
G01 X97.4532 Y17.0490
G01 X97.4338 Y17.0462
G01 X97.4147 Y17.0414
G01 X97.3963 Y17.0348
G01 X97.3785 Y17.0264
G01 X97.3617 Y17.0163
G01 X97.3459 Y17.0046
G01 X97.3314 Y16.9914
G01 X97.3182 Y16.9769
G01 X97.3065 Y16.9611
G01 X97.2964 Y16.9443
G01 X97.2880 Y16.9265
G01 X97.2814 Y16.9081
G01 X97.2766 Y16.8890
G01 X97.2738 Y16.8696
G01 X97.2728 Y16.8500
G01 X97.2728 Y14.8500
G01 X89.7837 Y14.8500
G01 X89.7837 Y16.8500
G01 X89.7827 Y16.8696
G01 X89.7799 Y16.8890
G01 X89.7751 Y16.9081
G01 X89.7685 Y16.9265
G01 X89.7601 Y16.9443
G01 X89.7500 Y16.9611
G01 X89.7383 Y16.9769
G01 X89.7251 Y16.9914
G01 X89.7106 Y17.0046
G01 X89.6948 Y17.0163
G01 X89.6780 Y17.0264
G01 X89.6602 Y17.0348
G01 X89.6418 Y17.0414
G01 X89.6227 Y17.0462
G01 X89.6033 Y17.0490
G01 X89.5837 Y17.0500
G01 X88.0837 Y17.0500
G01 X88.0641 Y17.0490
G01 X88.0447 Y17.0462
G01 X88.0256 Y17.0414
G01 X88.0072 Y17.0348
G01 X87.9894 Y17.0264
G01 X87.9726 Y17.0163
G01 X87.9568 Y17.0046
G01 X87.9423 Y16.9914
G01 X87.9291 Y16.9769
G01 X87.9174 Y16.9611
G01 X87.9073 Y16.9443
G01 X87.8989 Y16.9265
G01 X87.8923 Y16.9081
G01 X87.8875 Y16.8890
G01 X87.8847 Y16.8696
G01 X87.8837 Y16.8500
G01 X87.8837 Y14.8500
G01 X80.3946 Y14.8500
G01 X80.3946 Y16.8500
G01 X80.3936 Y16.8696
G01 X80.3908 Y16.8890
G01 X80.3860 Y16.9081
G01 X80.3794 Y16.9265
G01 X80.3710 Y16.9443
G01 X80.3609 Y16.9611
G01 X80.3492 Y16.9769
G01 X80.3360 Y16.9914
G01 X80.3215 Y17.0046
G01 X80.3057 Y17.0163
G01 X80.2889 Y17.0264
G01 X80.2711 Y17.0348
G01 X80.2527 Y17.0414
G01 X80.2336 Y17.0462
G01 X80.2142 Y17.0490
G01 X80.1946 Y17.0500
G01 X78.6946 Y17.0500
G01 X78.6750 Y17.0490
G01 X78.6556 Y17.0462
G01 X78.6365 Y17.0414
G01 X78.6181 Y17.0348
G01 X78.6003 Y17.0264
G01 X78.5835 Y17.0163
G01 X78.5677 Y17.0046
G01 X78.5532 Y16.9914
G01 X78.5400 Y16.9769
G01 X78.5283 Y16.9611
G01 X78.5182 Y16.9443
G01 X78.5098 Y16.9265
G01 X78.5032 Y16.9081
G01 X78.4984 Y16.8890
G01 X78.4956 Y16.8696
G01 X78.4946 Y16.8500
G01 X78.4946 Y14.8500
G01 X71.0054 Y14.8500
G01 X71.0054 Y16.8500
G01 X71.0044 Y16.8696
G01 X71.0016 Y16.8890
G01 X70.9968 Y16.9081
G01 X70.9902 Y16.9265
G01 X70.9818 Y16.9443
G01 X70.9717 Y16.9611
G01 X70.9600 Y16.9769
G01 X70.9468 Y16.9914
G01 X70.9323 Y17.0046
G01 X70.9165 Y17.0163
G01 X70.8997 Y17.0264
G01 X70.8819 Y17.0348
G01 X70.8635 Y17.0414
G01 X70.8444 Y17.0462
G01 X70.8250 Y17.0490
G01 X70.8054 Y17.0500
G01 X69.3054 Y17.0500
G01 X69.2858 Y17.0490
G01 X69.2664 Y17.0462
G01 X69.2473 Y17.0414
G01 X69.2289 Y17.0348
G01 X69.2111 Y17.0264
G01 X69.1943 Y17.0163
G01 X69.1785 Y17.0046
G01 X69.1640 Y16.9914
G01 X69.1508 Y16.9769
G01 X69.1391 Y16.9611
G01 X69.1290 Y16.9443
G01 X69.1206 Y16.9265
G01 X69.1140 Y16.9081
G01 X69.1092 Y16.8890
G01 X69.1064 Y16.8696
G01 X69.1054 Y16.8500
G01 X69.1054 Y14.8500
G01 X61.6163 Y14.8500
G01 X61.6163 Y16.8500
G01 X61.6153 Y16.8696
G01 X61.6125 Y16.8890
G01 X61.6077 Y16.9081
G01 X61.6011 Y16.9265
G01 X61.5927 Y16.9443
G01 X61.5826 Y16.9611
G01 X61.5709 Y16.9769
G01 X61.5577 Y16.9914
G01 X61.5432 Y17.0046
G01 X61.5274 Y17.0163
G01 X61.5106 Y17.0264
G01 X61.4928 Y17.0348
G01 X61.4744 Y17.0414
G01 X61.4553 Y17.0462
G01 X61.4359 Y17.0490
G01 X61.4163 Y17.0500
G01 X59.9163 Y17.0500
G01 X59.8967 Y17.0490
G01 X59.8773 Y17.0462
G01 X59.8582 Y17.0414
G01 X59.8398 Y17.0348
G01 X59.8220 Y17.0264
G01 X59.8052 Y17.0163
G01 X59.7894 Y17.0046
G01 X59.7749 Y16.9914
G01 X59.7617 Y16.9769
G01 X59.7500 Y16.9611
G01 X59.7399 Y16.9443
G01 X59.7315 Y16.9265
G01 X59.7249 Y16.9081
G01 X59.7201 Y16.8890
G01 X59.7173 Y16.8696
G01 X59.7163 Y16.8500
G01 X59.7163 Y14.8500
G01 X52.2272 Y14.8500
G01 X52.2272 Y16.8500
G01 X52.2262 Y16.8696
G01 X52.2234 Y16.8890
G01 X52.2186 Y16.9081
G01 X52.2120 Y16.9265
G01 X52.2036 Y16.9443
G01 X52.1935 Y16.9611
G01 X52.1818 Y16.9769
G01 X52.1686 Y16.9914
G01 X52.1541 Y17.0046
G01 X52.1383 Y17.0163
G01 X52.1215 Y17.0264
G01 X52.1037 Y17.0348
G01 X52.0853 Y17.0414
G01 X52.0662 Y17.0462
G01 X52.0468 Y17.0490
G01 X52.0272 Y17.0500
G01 X50.5272 Y17.0500
G01 X50.5076 Y17.0490
G01 X50.4882 Y17.0462
G01 X50.4691 Y17.0414
G01 X50.4507 Y17.0348
G01 X50.4329 Y17.0264
G01 X50.4161 Y17.0163
G01 X50.4003 Y17.0046
G01 X50.3858 Y16.9914
G01 X50.3726 Y16.9769
G01 X50.3609 Y16.9611
G01 X50.3508 Y16.9443
G01 X50.3424 Y16.9265
G01 X50.3358 Y16.9081
G01 X50.3310 Y16.8890
G01 X50.3282 Y16.8696
G01 X50.3272 Y16.8500
G01 X50.3272 Y13.9000
G01 X50.3282 Y13.8804
G01 X50.3310 Y13.8610
G01 X50.3358 Y13.8419
G01 X50.3424 Y13.8234
G01 X50.5620 Y13.2934
G01 X50.5704 Y13.2757
G01 X50.5805 Y13.2589
G01 X50.5922 Y13.2431
G01 X50.6053 Y13.2286
G01 X50.6199 Y13.2154
G01 X50.6356 Y13.2038
G01 X50.6524 Y13.1937
G01 X50.6701 Y13.1853
G01 X51.0522 Y13.0267
G00 Z2.0000
G00 X58.2001 Y11.0610
G01 F60.00
G01 Z-0.1500
G01 F120.00
G01 X59.6438 Y11.0610
G01 X59.6438 Y10.2610
G01 X59.6448 Y10.2414
G01 X59.6476 Y10.2220
G01 X59.6524 Y10.2029
G01 X59.6590 Y10.1845
G01 X59.6674 Y10.1667
G01 X59.6775 Y10.1499
G01 X59.6892 Y10.1341
G01 X59.7024 Y10.1196
G01 X59.7169 Y10.1064
G01 X59.7327 Y10.0947
G01 X59.7495 Y10.0846
G01 X59.7673 Y10.0762
G01 X59.7857 Y10.0696
G01 X59.8048 Y10.0648
G01 X59.8242 Y10.0620
G01 X59.8438 Y10.0610
G01 X61.3438 Y10.0610
G01 X61.3634 Y10.0620
G01 X61.3828 Y10.0648
G01 X61.4019 Y10.0696
G01 X61.4203 Y10.0762
G01 X61.4381 Y10.0846
G01 X61.4549 Y10.0947
G01 X61.4707 Y10.1064
G01 X61.4852 Y10.1196
G01 X61.4984 Y10.1341
G01 X61.5101 Y10.1499
G01 X61.5202 Y10.1667
G01 X61.5286 Y10.1845
G01 X61.5352 Y10.2029
G01 X61.5400 Y10.2220
G01 X61.5428 Y10.2414
G01 X61.5438 Y10.2610
G01 X61.5438 Y12.0110
G01 X61.5428 Y12.0306
G01 X61.5400 Y12.0500
G01 X61.5352 Y12.0691
G01 X61.5286 Y12.0875
G01 X61.5202 Y12.1053
G01 X61.5101 Y12.1221
G01 X61.4984 Y12.1379
G01 X61.4852 Y12.1524
G01 X61.4707 Y12.1656
G01 X61.4549 Y12.1773
G01 X61.4381 Y12.1874
G01 X61.4203 Y12.1958
G01 X61.4019 Y12.2024
G01 X61.3828 Y12.2072
G01 X61.3634 Y12.2100
G01 X61.3438 Y12.2110
G01 X57.2501 Y12.2110
G01 X57.2305 Y12.2100
G01 X57.2111 Y12.2072
G01 X57.1920 Y12.2024
G01 X57.1736 Y12.1958
G01 X57.1558 Y12.1874
G01 X57.1390 Y12.1773
G01 X57.1232 Y12.1656
G01 X57.1087 Y12.1524
G01 X57.0955 Y12.1379
G01 X57.0838 Y12.1221
G01 X57.0737 Y12.1053
G01 X57.0653 Y12.0875
G01 X57.0587 Y12.0691
G01 X57.0539 Y12.0500
G01 X57.0511 Y12.0306
G01 X57.0501 Y12.0110
G01 X57.0501 Y6.4610
G01 X55.6064 Y6.4610
G01 X55.6064 Y7.2610
G01 X55.6054 Y7.2806
G01 X55.6026 Y7.3000
G01 X55.5978 Y7.3191
G01 X55.5912 Y7.3375
G01 X55.5828 Y7.3553
G01 X55.5727 Y7.3721
G01 X55.5610 Y7.3879
G01 X55.5478 Y7.4024
G01 X55.5333 Y7.4156
G01 X55.5175 Y7.4273
G01 X55.5007 Y7.4374
G01 X55.4829 Y7.4458
G01 X55.4645 Y7.4524
G01 X55.4454 Y7.4572
G01 X55.4260 Y7.4600
G01 X55.4064 Y7.4610
G01 X53.9064 Y7.4610
G01 X53.8868 Y7.4600
G01 X53.8674 Y7.4572
G01 X53.8483 Y7.4524
G01 X53.8299 Y7.4458
G01 X53.8121 Y7.4374
G01 X53.7953 Y7.4273
G01 X53.7795 Y7.4156
G01 X53.7650 Y7.4024
G01 X53.7518 Y7.3879
G01 X53.7401 Y7.3721
G01 X53.7300 Y7.3553
G01 X53.7216 Y7.3375
G01 X53.7150 Y7.3191
G01 X53.7102 Y7.3000
G01 X53.7074 Y7.2806
G01 X53.7064 Y7.2610
G01 X53.7064 Y5.5110
G01 X53.7074 Y5.4914
G01 X53.7102 Y5.4720
G01 X53.7150 Y5.4529
G01 X53.7216 Y5.4345
G01 X53.7300 Y5.4167
G01 X53.7401 Y5.3999
G01 X53.7518 Y5.3841
G01 X53.7650 Y5.3696
G01 X53.7795 Y5.3564
G01 X53.7953 Y5.3447
G01 X53.8121 Y5.3346
G01 X53.8299 Y5.3262
G01 X53.8483 Y5.3196
G01 X53.8674 Y5.3148
G01 X53.8868 Y5.3120
G01 X53.9064 Y5.3110
G01 X58.0001 Y5.3110
G01 X58.0197 Y5.3120
G01 X58.0391 Y5.3148
G01 X58.0582 Y5.3196
G01 X58.0766 Y5.3262
G01 X58.0944 Y5.3346
G01 X58.1112 Y5.3447
G01 X58.1270 Y5.3564
G01 X58.1415 Y5.3696
G01 X58.1547 Y5.3841
G01 X58.1664 Y5.3999
G01 X58.1765 Y5.4167
G01 X58.1849 Y5.4345
G01 X58.1915 Y5.4529
G01 X58.1963 Y5.4720
G01 X58.1991 Y5.4914
G01 X58.2001 Y5.5110
G01 X58.2001 Y11.0610
G00 Z2.0000
G00 X67.6375 Y11.0610
G01 F60.00
G01 Z-0.1500
G01 F120.00
G01 X69.0813 Y11.0610
G01 X69.0813 Y10.2610
G01 X69.0823 Y10.2414
G01 X69.0851 Y10.2220
G01 X69.0899 Y10.2029
G01 X69.0965 Y10.1845
G01 X69.1049 Y10.1667
G01 X69.1150 Y10.1499
G01 X69.1267 Y10.1341
G01 X69.1399 Y10.1196
G01 X69.1544 Y10.1064
G01 X69.1702 Y10.0947
G01 X69.1870 Y10.0846
G01 X69.2048 Y10.0762
G01 X69.2232 Y10.0696
G01 X69.2423 Y10.0648
G01 X69.2617 Y10.0620
G01 X69.2813 Y10.0610
G01 X70.7813 Y10.0610
G01 X70.8009 Y10.0620
G01 X70.8203 Y10.0648
G01 X70.8394 Y10.0696
G01 X70.8578 Y10.0762
G01 X70.8756 Y10.0846
G01 X70.8924 Y10.0947
G01 X70.9082 Y10.1064
G01 X70.9227 Y10.1196
G01 X70.9359 Y10.1341
G01 X70.9476 Y10.1499
G01 X70.9577 Y10.1667
G01 X70.9661 Y10.1845
G01 X70.9727 Y10.2029
G01 X70.9775 Y10.2220
G01 X70.9803 Y10.2414
G01 X70.9813 Y10.2610
G01 X70.9813 Y12.0110
G01 X70.9803 Y12.0306
G01 X70.9775 Y12.0500
G01 X70.9727 Y12.0691
G01 X70.9661 Y12.0875
G01 X70.9577 Y12.1053
G01 X70.9476 Y12.1221
G01 X70.9359 Y12.1379
G01 X70.9227 Y12.1524
G01 X70.9082 Y12.1656
G01 X70.8924 Y12.1773
G01 X70.8756 Y12.1874
G01 X70.8578 Y12.1958
G01 X70.8394 Y12.2024
G01 X70.8203 Y12.2072
G01 X70.8009 Y12.2100
G01 X70.7813 Y12.2110
G01 X66.6875 Y12.2110
G01 X66.6679 Y12.2100
G01 X66.6485 Y12.2072
G01 X66.6294 Y12.2024
G01 X66.6110 Y12.1958
G01 X66.5932 Y12.1874
G01 X66.5764 Y12.1773
G01 X66.5606 Y12.1656
G01 X66.5461 Y12.1524
G01 X66.5329 Y12.1379
G01 X66.5212 Y12.1221
G01 X66.5111 Y12.1053
G01 X66.5027 Y12.0875
G01 X66.4961 Y12.0691
G01 X66.4913 Y12.0500
G01 X66.4885 Y12.0306
G01 X66.4875 Y12.0110
G01 X66.4875 Y6.4610
G01 X65.0438 Y6.4610
G01 X65.0438 Y7.2610
G01 X65.0428 Y7.2806
G01 X65.0400 Y7.3000
G01 X65.0352 Y7.3191
G01 X65.0286 Y7.3375
G01 X65.0202 Y7.3553
G01 X65.0101 Y7.3721
G01 X64.9984 Y7.3879
G01 X64.9852 Y7.4024
G01 X64.9707 Y7.4156
G01 X64.9549 Y7.4273
G01 X64.9381 Y7.4374
G01 X64.9203 Y7.4458
G01 X64.9019 Y7.4524
G01 X64.8828 Y7.4572
G01 X64.8634 Y7.4600
G01 X64.8438 Y7.4610
G01 X63.3438 Y7.4610
G01 X63.3242 Y7.4600
G01 X63.3048 Y7.4572
G01 X63.2857 Y7.4524
G01 X63.2673 Y7.4458
G01 X63.2495 Y7.4374
G01 X63.2327 Y7.4273
G01 X63.2169 Y7.4156
G01 X63.2024 Y7.4024
G01 X63.1892 Y7.3879
G01 X63.1775 Y7.3721
G01 X63.1674 Y7.3553
G01 X63.1590 Y7.3375
G01 X63.1524 Y7.3191
G01 X63.1476 Y7.3000
G01 X63.1448 Y7.2806
G01 X63.1438 Y7.2610
G01 X63.1438 Y5.5110
G01 X63.1448 Y5.4914
G01 X63.1476 Y5.4720
G01 X63.1524 Y5.4529
G01 X63.1590 Y5.4345
G01 X63.1674 Y5.4167
G01 X63.1775 Y5.3999
G01 X63.1892 Y5.3841
G01 X63.2024 Y5.3696
G01 X63.2169 Y5.3564
G01 X63.2327 Y5.3447
G01 X63.2495 Y5.3346
G01 X63.2673 Y5.3262
G01 X63.2857 Y5.3196
G01 X63.3048 Y5.3148
G01 X63.3242 Y5.3120
G01 X63.3438 Y5.3110
G01 X67.4375 Y5.3110
G01 X67.4571 Y5.3120
G01 X67.4765 Y5.3148
G01 X67.4956 Y5.3196
G01 X67.5140 Y5.3262
G01 X67.5318 Y5.3346
G01 X67.5486 Y5.3447
G01 X67.5644 Y5.3564
G01 X67.5789 Y5.3696
G01 X67.5921 Y5.3841
G01 X67.6038 Y5.3999
G01 X67.6139 Y5.4167
G01 X67.6223 Y5.4345
G01 X67.6289 Y5.4529
G01 X67.6337 Y5.4720
G01 X67.6365 Y5.4914
G01 X67.6375 Y5.5110
G01 X67.6375 Y11.0610
G00 Z2.0000
G00 X77.0750 Y11.0610
G01 F60.00
G01 Z-0.1500
G01 F120.00
G01 X78.5187 Y11.0610
G01 X78.5187 Y10.2610
G01 X78.5197 Y10.2414
G01 X78.5225 Y10.2220
G01 X78.5273 Y10.2029
G01 X78.5339 Y10.1845
G01 X78.5423 Y10.1667
G01 X78.5524 Y10.1499
G01 X78.5641 Y10.1341
G01 X78.5773 Y10.1196
G01 X78.5918 Y10.1064
G01 X78.6076 Y10.0947
G01 X78.6244 Y10.0846
G01 X78.6422 Y10.0762
G01 X78.6606 Y10.0696
G01 X78.6797 Y10.0648
G01 X78.6991 Y10.0620
G01 X78.7187 Y10.0610
G01 X80.2187 Y10.0610
G01 X80.2383 Y10.0620
G01 X80.2577 Y10.0648
G01 X80.2768 Y10.0696
G01 X80.2952 Y10.0762
G01 X80.3130 Y10.0846
G01 X80.3298 Y10.0947
G01 X80.3456 Y10.1064
G01 X80.3601 Y10.1196
G01 X80.3733 Y10.1341
G01 X80.3850 Y10.1499
G01 X80.3951 Y10.1667
G01 X80.4035 Y10.1845
G01 X80.4101 Y10.2029
G01 X80.4149 Y10.2220
G01 X80.4177 Y10.2414
G01 X80.4187 Y10.2610
G01 X80.4187 Y12.0110
G01 X80.4177 Y12.0306
G01 X80.4149 Y12.0500
G01 X80.4101 Y12.0691
G01 X80.4035 Y12.0875
G01 X80.3951 Y12.1053
G01 X80.3850 Y12.1221
G01 X80.3733 Y12.1379
G01 X80.3601 Y12.1524
G01 X80.3456 Y12.1656
G01 X80.3298 Y12.1773
G01 X80.3130 Y12.1874
G01 X80.2952 Y12.1958
G01 X80.2768 Y12.2024
G01 X80.2577 Y12.2072
G01 X80.2383 Y12.2100
G01 X80.2187 Y12.2110
G01 X76.1250 Y12.2110
G01 X76.1054 Y12.2100
G01 X76.0860 Y12.2072
G01 X76.0669 Y12.2024
G01 X76.0485 Y12.1958
G01 X76.0307 Y12.1874
G01 X76.0139 Y12.1773
G01 X75.9981 Y12.1656
G01 X75.9836 Y12.1524
G01 X75.9704 Y12.1379
G01 X75.9587 Y12.1221
G01 X75.9486 Y12.1053
G01 X75.9402 Y12.0875
G01 X75.9336 Y12.0691
G01 X75.9288 Y12.0500
G01 X75.9260 Y12.0306
G01 X75.9250 Y12.0110
G01 X75.9250 Y6.4610
G01 X74.4813 Y6.4610
G01 X74.4813 Y7.2610
G01 X74.4803 Y7.2806
G01 X74.4775 Y7.3000
G01 X74.4727 Y7.3191
G01 X74.4661 Y7.3375
G01 X74.4577 Y7.3553
G01 X74.4476 Y7.3721
G01 X74.4359 Y7.3879
G01 X74.4227 Y7.4024
G01 X74.4082 Y7.4156
G01 X74.3924 Y7.4273
G01 X74.3756 Y7.4374
G01 X74.3578 Y7.4458
G01 X74.3394 Y7.4524
G01 X74.3203 Y7.4572
G01 X74.3009 Y7.4600
G01 X74.2813 Y7.4610
G01 X72.7813 Y7.4610
G01 X72.7617 Y7.4600
G01 X72.7423 Y7.4572
G01 X72.7232 Y7.4524
G01 X72.7048 Y7.4458
G01 X72.6870 Y7.4374
G01 X72.6702 Y7.4273
G01 X72.6544 Y7.4156
G01 X72.6399 Y7.4024
G01 X72.6267 Y7.3879
G01 X72.6150 Y7.3721
G01 X72.6049 Y7.3553
G01 X72.5965 Y7.3375
G01 X72.5899 Y7.3191
G01 X72.5851 Y7.3000
G01 X72.5823 Y7.2806
G01 X72.5813 Y7.2610
G01 X72.5813 Y5.5110
G01 X72.5823 Y5.4914
G01 X72.5851 Y5.4720
G01 X72.5899 Y5.4529
G01 X72.5965 Y5.4345
G01 X72.6049 Y5.4167
G01 X72.6150 Y5.3999
G01 X72.6267 Y5.3841
G01 X72.6399 Y5.3696
G01 X72.6544 Y5.3564
G01 X72.6702 Y5.3447
G01 X72.6870 Y5.3346
G01 X72.7048 Y5.3262
G01 X72.7232 Y5.3196
G01 X72.7423 Y5.3148
G01 X72.7617 Y5.3120
G01 X72.7813 Y5.3110
G01 X76.8750 Y5.3110
G01 X76.8946 Y5.3120
G01 X76.9140 Y5.3148
G01 X76.9331 Y5.3196
G01 X76.9515 Y5.3262
G01 X76.9693 Y5.3346
G01 X76.9861 Y5.3447
G01 X77.0019 Y5.3564
G01 X77.0164 Y5.3696
G01 X77.0296 Y5.3841
G01 X77.0413 Y5.3999
G01 X77.0514 Y5.4167
G01 X77.0598 Y5.4345
G01 X77.0664 Y5.4529
G01 X77.0712 Y5.4720
G01 X77.0740 Y5.4914
G01 X77.0750 Y5.5110
G01 X77.0750 Y11.0610
G00 Z2.0000
G00 X86.5124 Y11.0610
G01 F60.00
G01 Z-0.1500
G01 F120.00
G01 X87.9562 Y11.0610
G01 X87.9562 Y10.2610
G01 X87.9572 Y10.2414
G01 X87.9600 Y10.2220
G01 X87.9648 Y10.2029
G01 X87.9714 Y10.1845
G01 X87.9798 Y10.1667
G01 X87.9899 Y10.1499
G01 X88.0016 Y10.1341
G01 X88.0148 Y10.1196
G01 X88.0293 Y10.1064
G01 X88.0451 Y10.0947
G01 X88.0619 Y10.0846
G01 X88.0797 Y10.0762
G01 X88.0981 Y10.0696
G01 X88.1172 Y10.0648
G01 X88.1366 Y10.0620
G01 X88.1562 Y10.0610
G01 X89.6562 Y10.0610
G01 X89.6758 Y10.0620
G01 X89.6952 Y10.0648
G01 X89.7143 Y10.0696
G01 X89.7327 Y10.0762
G01 X89.7505 Y10.0846
G01 X89.7673 Y10.0947
G01 X89.7831 Y10.1064
G01 X89.7976 Y10.1196
G01 X89.8108 Y10.1341
G01 X89.8225 Y10.1499
G01 X89.8326 Y10.1667
G01 X89.8410 Y10.1845
G01 X89.8476 Y10.2029
G01 X89.8524 Y10.2220
G01 X89.8552 Y10.2414
G01 X89.8562 Y10.2610
G01 X89.8562 Y12.0110
G01 X89.8552 Y12.0306
G01 X89.8524 Y12.0500
G01 X89.8476 Y12.0691
G01 X89.8410 Y12.0875
G01 X89.8326 Y12.1053
G01 X89.8225 Y12.1221
G01 X89.8108 Y12.1379
G01 X89.7976 Y12.1524
G01 X89.7831 Y12.1656
G01 X89.7673 Y12.1773
G01 X89.7505 Y12.1874
G01 X89.7327 Y12.1958
G01 X89.7143 Y12.2024
G01 X89.6952 Y12.2072
G01 X89.6758 Y12.2100
G01 X89.6562 Y12.2110
G01 X85.5624 Y12.2110
G01 X85.5428 Y12.2100
G01 X85.5234 Y12.2072
G01 X85.5043 Y12.2024
G01 X85.4859 Y12.1958
G01 X85.4681 Y12.1874
G01 X85.4513 Y12.1773
G01 X85.4355 Y12.1656
G01 X85.4210 Y12.1524
G01 X85.4078 Y12.1379
G01 X85.3961 Y12.1221
G01 X85.3860 Y12.1053
G01 X85.3776 Y12.0875
G01 X85.3710 Y12.0691
G01 X85.3662 Y12.0500
G01 X85.3634 Y12.0306
G01 X85.3624 Y12.0110
G01 X85.3624 Y6.4610
G01 X83.9187 Y6.4610
G01 X83.9187 Y7.2610
G01 X83.9177 Y7.2806
G01 X83.9149 Y7.3000
G01 X83.9101 Y7.3191
G01 X83.9035 Y7.3375
G01 X83.8951 Y7.3553
G01 X83.8850 Y7.3721
G01 X83.8733 Y7.3879
G01 X83.8601 Y7.4024
G01 X83.8456 Y7.4156
G01 X83.8298 Y7.4273
G01 X83.8130 Y7.4374
G01 X83.7952 Y7.4458
G01 X83.7768 Y7.4524
G01 X83.7577 Y7.4572
G01 X83.7383 Y7.4600
G01 X83.7187 Y7.4610
G01 X82.2187 Y7.4610
G01 X82.1991 Y7.4600
G01 X82.1797 Y7.4572
G01 X82.1606 Y7.4524
G01 X82.1422 Y7.4458
G01 X82.1244 Y7.4374
G01 X82.1076 Y7.4273
G01 X82.0918 Y7.4156
G01 X82.0773 Y7.4024
G01 X82.0641 Y7.3879
G01 X82.0524 Y7.3721
G01 X82.0423 Y7.3553
G01 X82.0339 Y7.3375
G01 X82.0273 Y7.3191
G01 X82.0225 Y7.3000
G01 X82.0197 Y7.2806
G01 X82.0187 Y7.2610
G01 X82.0187 Y5.5110
G01 X82.0197 Y5.4914
G01 X82.0225 Y5.4720
G01 X82.0273 Y5.4529
G01 X82.0339 Y5.4345
G01 X82.0423 Y5.4167
G01 X82.0524 Y5.3999
G01 X82.0641 Y5.3841
G01 X82.0773 Y5.3696
G01 X82.0918 Y5.3564
G01 X82.1076 Y5.3447
G01 X82.1244 Y5.3346
G01 X82.1422 Y5.3262
G01 X82.1606 Y5.3196
G01 X82.1797 Y5.3148
G01 X82.1991 Y5.3120
G01 X82.2187 Y5.3110
G01 X86.3124 Y5.3110
G01 X86.3320 Y5.3120
G01 X86.3514 Y5.3148
G01 X86.3705 Y5.3196
G01 X86.3889 Y5.3262
G01 X86.4067 Y5.3346
G01 X86.4235 Y5.3447
G01 X86.4393 Y5.3564
G01 X86.4538 Y5.3696
G01 X86.4670 Y5.3841
G01 X86.4787 Y5.3999
G01 X86.4888 Y5.4167
G01 X86.4972 Y5.4345
G01 X86.5038 Y5.4529
G01 X86.5086 Y5.4720
G01 X86.5114 Y5.4914
G01 X86.5124 Y5.5110
G01 X86.5124 Y11.0610
G00 Z2.0000
G00 X95.9499 Y11.0610
G01 F60.00
G01 Z-0.1500
G01 F120.00
G01 X97.3936 Y11.0610
G01 X97.3936 Y10.2610
G01 X97.3946 Y10.2414
G01 X97.3974 Y10.2220
G01 X97.4022 Y10.2029
G01 X97.4088 Y10.1845
G01 X97.4172 Y10.1667
G01 X97.4273 Y10.1499
G01 X97.4390 Y10.1341
G01 X97.4522 Y10.1196
G01 X97.4667 Y10.1064
G01 X97.4825 Y10.0947
G01 X97.4993 Y10.0846
G01 X97.5171 Y10.0762
G01 X97.5355 Y10.0696
G01 X97.5546 Y10.0648
G01 X97.5740 Y10.0620
G01 X97.5936 Y10.0610
G01 X99.0936 Y10.0610
G01 X99.1132 Y10.0620
G01 X99.1326 Y10.0648
G01 X99.1517 Y10.0696
G01 X99.1701 Y10.0762
G01 X99.1879 Y10.0846
G01 X99.2047 Y10.0947
G01 X99.2205 Y10.1064
G01 X99.2350 Y10.1196
G01 X99.2482 Y10.1341
G01 X99.2599 Y10.1499
G01 X99.2700 Y10.1667
G01 X99.2784 Y10.1845
G01 X99.2850 Y10.2029
G01 X99.2898 Y10.2220
G01 X99.2926 Y10.2414
G01 X99.2936 Y10.2610
G01 X99.2936 Y12.0110
G01 X99.2926 Y12.0306
G01 X99.2898 Y12.0500
G01 X99.2850 Y12.0691
G01 X99.2784 Y12.0875
G01 X99.2700 Y12.1053
G01 X99.2599 Y12.1221
G01 X99.2482 Y12.1379
G01 X99.2350 Y12.1524
G01 X99.2205 Y12.1656
G01 X99.2047 Y12.1773
G01 X99.1879 Y12.1874
G01 X99.1701 Y12.1958
G01 X99.1517 Y12.2024
G01 X99.1326 Y12.2072
G01 X99.1132 Y12.2100
G01 X99.0936 Y12.2110
G01 X94.9999 Y12.2110
G01 X94.9803 Y12.2100
G01 X94.9609 Y12.2072
G01 X94.9418 Y12.2024
G01 X94.9234 Y12.1958
G01 X94.9056 Y12.1874
G01 X94.8888 Y12.1773
G01 X94.8730 Y12.1656
G01 X94.8585 Y12.1524
G01 X94.8453 Y12.1379
G01 X94.8336 Y12.1221
G01 X94.8235 Y12.1053
G01 X94.8151 Y12.0875
G01 X94.8085 Y12.0691
G01 X94.8037 Y12.0500
G01 X94.8009 Y12.0306
G01 X94.7999 Y12.0110
G01 X94.7999 Y6.4610
G01 X93.3562 Y6.4610
G01 X93.3562 Y7.2610
G01 X93.3552 Y7.2806
G01 X93.3524 Y7.3000
G01 X93.3476 Y7.3191
G01 X93.3410 Y7.3375
G01 X93.3326 Y7.3553
G01 X93.3225 Y7.3721
G01 X93.3108 Y7.3879
G01 X93.2976 Y7.4024
G01 X93.2831 Y7.4156
G01 X93.2673 Y7.4273
G01 X93.2505 Y7.4374
G01 X93.2327 Y7.4458
G01 X93.2143 Y7.4524
G01 X93.1952 Y7.4572
G01 X93.1758 Y7.4600
G01 X93.1562 Y7.4610
G01 X91.6562 Y7.4610
G01 X91.6366 Y7.4600
G01 X91.6172 Y7.4572
G01 X91.5981 Y7.4524
G01 X91.5797 Y7.4458
G01 X91.5619 Y7.4374
G01 X91.5451 Y7.4273
G01 X91.5293 Y7.4156
G01 X91.5148 Y7.4024
G01 X91.5016 Y7.3879
G01 X91.4899 Y7.3721
G01 X91.4798 Y7.3553
G01 X91.4714 Y7.3375
G01 X91.4648 Y7.3191
G01 X91.4600 Y7.3000
G01 X91.4572 Y7.2806
G01 X91.4562 Y7.2610
G01 X91.4562 Y5.5110
G01 X91.4572 Y5.4914
G01 X91.4600 Y5.4720
G01 X91.4648 Y5.4529
G01 X91.4714 Y5.4345
G01 X91.4798 Y5.4167
G01 X91.4899 Y5.3999
G01 X91.5016 Y5.3841
G01 X91.5148 Y5.3696
G01 X91.5293 Y5.3564
G01 X91.5451 Y5.3447
G01 X91.5619 Y5.3346
G01 X91.5797 Y5.3262
G01 X91.5981 Y5.3196
G01 X91.6172 Y5.3148
G01 X91.6366 Y5.3120
G01 X91.6562 Y5.3110
G01 X95.7499 Y5.3110
G01 X95.7695 Y5.3120
G01 X95.7889 Y5.3148
G01 X95.8080 Y5.3196
G01 X95.8264 Y5.3262
G01 X95.8442 Y5.3346
G01 X95.8610 Y5.3447
G01 X95.8768 Y5.3564
G01 X95.8913 Y5.3696
G01 X95.9045 Y5.3841
G01 X95.9162 Y5.3999
G01 X95.9263 Y5.4167
G01 X95.9347 Y5.4345
G01 X95.9413 Y5.4529
G01 X95.9461 Y5.4720
G01 X95.9489 Y5.4914
G01 X95.9499 Y5.5110
G01 X95.9499 Y11.0610
G00 Z2.0000
G00 X103.0470 Y14.9000
G01 F60.00
G01 Z-0.1500
G01 F120.00
G01 X103.0660 Y14.8954
G01 X103.0856 Y14.8928
G01 X103.1054 Y14.8920
G01 X103.8554 Y14.9010
G01 X103.8750 Y14.9022
G01 X103.8944 Y14.9053
G01 X103.9134 Y14.9103
G01 X103.9318 Y14.9172
G01 X103.9494 Y14.9258
G01 X103.9661 Y14.9361
G01 X103.9817 Y14.9479
G01 X103.9961 Y14.9613
G01 X104.0091 Y14.9760
G01 X104.0206 Y14.9919
G01 X104.0305 Y15.0089
G01 X104.0387 Y15.0267
G01 X104.0451 Y15.0453
G01 X104.0496 Y15.0644
G01 X104.0523 Y15.0838
G01 X104.0530 Y15.1034
G01 X103.9200 Y26.0114
G01 X103.9188 Y26.0310
G01 X103.9157 Y26.0504
G01 X103.9107 Y26.0694
G01 X103.9038 Y26.0878
G01 X103.8952 Y26.1055
G01 X103.8849 Y26.1222
G01 X103.8730 Y26.1378
G01 X103.8596 Y26.1522
G01 X103.8449 Y26.1652
G01 X103.8290 Y26.1767
G01 X103.8120 Y26.1866
G01 X103.7941 Y26.1948
G01 X103.7755 Y26.2011
G01 X103.7564 Y26.2057
G01 X103.7370 Y26.2083
G01 X103.7173 Y26.2090
G01 X103.3864 Y26.2046
G01 X103.3646 Y26.2080
G01 X103.3450 Y26.2090
G01 X102.5450 Y26.2090
G01 X102.5450 Y27.0090
G01 X102.5440 Y27.0286
G01 X102.5412 Y27.0480
G01 X102.5364 Y27.0671
G01 X102.5298 Y27.0855
G01 X102.5214 Y27.1033
G01 X102.5113 Y27.1201
G01 X102.4996 Y27.1359
G01 X102.4864 Y27.1504
G01 X102.4719 Y27.1636
G01 X102.4561 Y27.1753
G01 X102.4393 Y27.1854
G01 X102.4215 Y27.1938
G01 X102.4031 Y27.2004
G01 X102.3840 Y27.2052
G01 X102.3646 Y27.2080
G01 X102.3450 Y27.2090
G01 X100.8450 Y27.2090
G01 X100.8254 Y27.2080
G01 X100.8060 Y27.2052
G01 X100.7869 Y27.2004
G01 X100.7685 Y27.1938
G01 X100.7507 Y27.1854
G01 X100.7339 Y27.1753
G01 X100.7181 Y27.1636
G01 X100.7036 Y27.1504
G01 X100.6904 Y27.1359
G01 X100.6787 Y27.1201
G01 X100.6686 Y27.1033
G01 X100.6602 Y27.0855
G01 X100.6536 Y27.0671
G01 X100.6488 Y27.0480
G01 X100.6460 Y27.0286
G01 X100.6450 Y27.0090
G01 X100.6450 Y25.2590
G01 X100.6460 Y25.2394
G01 X100.6488 Y25.2200
G01 X100.6536 Y25.2009
G01 X100.6602 Y25.1825
G01 X100.6686 Y25.1647
G01 X100.6787 Y25.1479
G01 X100.6904 Y25.1321
G01 X100.7036 Y25.1176
G01 X100.7181 Y25.1044
G01 X100.7339 Y25.0927
G01 X100.7507 Y25.0826
G01 X100.7685 Y25.0742
G01 X100.7869 Y25.0676
G01 X100.8060 Y25.0628
G01 X100.8254 Y25.0600
G01 X100.8450 Y25.0590
G01 X102.7814 Y25.0590
G01 X102.8915 Y16.0500
G01 X102.6730 Y16.0500
G01 X102.6730 Y16.8500
G01 X102.6720 Y16.8696
G01 X102.6692 Y16.8890
G01 X102.6644 Y16.9081
G01 X102.6578 Y16.9265
G01 X102.6494 Y16.9443
G01 X102.6393 Y16.9611
G01 X102.6276 Y16.9769
G01 X102.6144 Y16.9914
G01 X102.5999 Y17.0046
G01 X102.5841 Y17.0163
G01 X102.5673 Y17.0264
G01 X102.5495 Y17.0348
G01 X102.5311 Y17.0414
G01 X102.5120 Y17.0462
G01 X102.4926 Y17.0490
G01 X102.4730 Y17.0500
G01 X100.9730 Y17.0500
G01 X100.9534 Y17.0490
G01 X100.9340 Y17.0462
G01 X100.9149 Y17.0414
G01 X100.8965 Y17.0348
G01 X100.8787 Y17.0264
G01 X100.8619 Y17.0163
G01 X100.8461 Y17.0046
G01 X100.8316 Y16.9914
G01 X100.8184 Y16.9769
G01 X100.8067 Y16.9611
G01 X100.7966 Y16.9443
G01 X100.7882 Y16.9265
G01 X100.7816 Y16.9081
G01 X100.7768 Y16.8890
G01 X100.7740 Y16.8696
G01 X100.7730 Y16.8500
G01 X100.7730 Y15.1000
G01 X100.7740 Y15.0804
G01 X100.7768 Y15.0610
G01 X100.7816 Y15.0419
G01 X100.7882 Y15.0235
G01 X100.7966 Y15.0057
G01 X100.8067 Y14.9889
G01 X100.8184 Y14.9731
G01 X100.8316 Y14.9586
G01 X100.8461 Y14.9454
G01 X100.8619 Y14.9337
G01 X100.8787 Y14.9236
G01 X100.8965 Y14.9152
G01 X100.9149 Y14.9086
G01 X100.9340 Y14.9038
G01 X100.9534 Y14.9010
G01 X100.9730 Y14.9000
G01 X103.0470 Y14.9000
G00 Z2.0000
G00 X95.8533 Y20.6500
G01 F60.00
G01 Z-0.1500
G01 F120.00
G01 X97.2728 Y20.6500
G01 X97.2728 Y19.8500
G01 X97.2738 Y19.8304
G01 X97.2766 Y19.8110
G01 X97.2814 Y19.7919
G01 X97.2880 Y19.7735
G01 X97.2964 Y19.7557
G01 X97.3065 Y19.7389
G01 X97.3182 Y19.7231
G01 X97.3314 Y19.7086
G01 X97.3459 Y19.6954
G01 X97.3617 Y19.6837
G01 X97.3785 Y19.6736
G01 X97.3963 Y19.6652
G01 X97.4147 Y19.6586
G01 X97.4338 Y19.6538
G01 X97.4532 Y19.6510
G01 X97.4728 Y19.6500
G01 X98.9728 Y19.6500
G01 X98.9924 Y19.6510
G01 X99.0118 Y19.6538
G01 X99.0309 Y19.6586
G01 X99.0493 Y19.6652
G01 X99.0671 Y19.6736
G01 X99.0839 Y19.6837
G01 X99.0997 Y19.6954
G01 X99.1142 Y19.7086
G01 X99.1274 Y19.7231
G01 X99.1391 Y19.7389
G01 X99.1492 Y19.7557
G01 X99.1576 Y19.7735
G01 X99.1642 Y19.7919
G01 X99.1690 Y19.8110
G01 X99.1718 Y19.8304
G01 X99.1728 Y19.8500
G01 X99.1728 Y21.6000
G01 X99.1718 Y21.6196
G01 X99.1690 Y21.6390
G01 X99.1642 Y21.6581
G01 X99.1576 Y21.6765
G01 X99.1492 Y21.6943
G01 X99.1391 Y21.7111
G01 X99.1274 Y21.7269
G01 X99.1142 Y21.7414
G01 X99.0997 Y21.7546
G01 X99.0839 Y21.7663
G01 X99.0671 Y21.7764
G01 X99.0493 Y21.7848
G01 X99.0309 Y21.7914
G01 X99.0118 Y21.7962
G01 X98.9924 Y21.7990
G01 X98.9728 Y21.8000
G01 X94.9033 Y21.8000
G01 X94.8837 Y21.7990
G01 X94.8643 Y21.7962
G01 X94.8452 Y21.7914
G01 X94.8268 Y21.7848
G01 X94.8090 Y21.7764
G01 X94.7922 Y21.7663
G01 X94.7764 Y21.7546
G01 X94.7619 Y21.7414
G01 X94.7487 Y21.7269
G01 X94.7370 Y21.7111
G01 X94.7269 Y21.6943
G01 X94.7185 Y21.6765
G01 X94.7119 Y21.6581
G01 X94.7071 Y21.6390
G01 X94.7043 Y21.6196
G01 X94.7033 Y21.6000
G01 X94.7033 Y16.0500
G01 X93.2837 Y16.0500
G01 X93.2837 Y16.8500
G01 X93.2827 Y16.8696
G01 X93.2799 Y16.8890
G01 X93.2751 Y16.9081
G01 X93.2685 Y16.9265
G01 X93.2601 Y16.9443
G01 X93.2500 Y16.9611
G01 X93.2383 Y16.9769
G01 X93.2251 Y16.9914
G01 X93.2106 Y17.0046
G01 X93.1948 Y17.0163
G01 X93.1780 Y17.0264
G01 X93.1602 Y17.0348
G01 X93.1418 Y17.0414
G01 X93.1227 Y17.0462
G01 X93.1033 Y17.0490
G01 X93.0837 Y17.0500
G01 X91.5837 Y17.0500
G01 X91.5641 Y17.0490
G01 X91.5447 Y17.0462
G01 X91.5256 Y17.0414
G01 X91.5072 Y17.0348
G01 X91.4894 Y17.0264
G01 X91.4726 Y17.0163
G01 X91.4568 Y17.0046
G01 X91.4423 Y16.9914
G01 X91.4291 Y16.9769
G01 X91.4174 Y16.9611
G01 X91.4073 Y16.9443
G01 X91.3989 Y16.9265
G01 X91.3923 Y16.9081
G01 X91.3875 Y16.8890
G01 X91.3847 Y16.8696
G01 X91.3837 Y16.8500
G01 X91.3837 Y15.1000
G01 X91.3847 Y15.0804
G01 X91.3875 Y15.0610
G01 X91.3923 Y15.0419
G01 X91.3989 Y15.0235
G01 X91.4073 Y15.0057
G01 X91.4174 Y14.9889
G01 X91.4291 Y14.9731
G01 X91.4423 Y14.9586
G01 X91.4568 Y14.9454
G01 X91.4726 Y14.9337
G01 X91.4894 Y14.9236
G01 X91.5072 Y14.9152
G01 X91.5256 Y14.9086
G01 X91.5447 Y14.9038
G01 X91.5641 Y14.9010
G01 X91.5837 Y14.9000
G01 X95.6533 Y14.9000
G01 X95.6729 Y14.9010
G01 X95.6923 Y14.9038
G01 X95.7114 Y14.9086
G01 X95.7298 Y14.9152
G01 X95.7476 Y14.9236
G01 X95.7644 Y14.9337
G01 X95.7802 Y14.9454
G01 X95.7947 Y14.9586
G01 X95.8079 Y14.9731
G01 X95.8196 Y14.9889
G01 X95.8297 Y15.0057
G01 X95.8381 Y15.0235
G01 X95.8447 Y15.0419
G01 X95.8495 Y15.0610
G01 X95.8523 Y15.0804
G01 X95.8533 Y15.1000
G01 X95.8533 Y20.6500
G00 Z2.0000
G00 X86.4641 Y20.6500
G01 F60.00
G01 Z-0.1500
G01 F120.00
G01 X87.8837 Y20.6500
G01 X87.8837 Y19.8500
G01 X87.8847 Y19.8304
G01 X87.8875 Y19.8110
G01 X87.8923 Y19.7919
G01 X87.8989 Y19.7735
G01 X87.9073 Y19.7557
G01 X87.9174 Y19.7389
G01 X87.9291 Y19.7231
G01 X87.9423 Y19.7086
G01 X87.9568 Y19.6954
G01 X87.9726 Y19.6837
G01 X87.9894 Y19.6736
G01 X88.0072 Y19.6652
G01 X88.0256 Y19.6586
G01 X88.0447 Y19.6538
G01 X88.0641 Y19.6510
G01 X88.0837 Y19.6500
G01 X89.5837 Y19.6500
G01 X89.6033 Y19.6510
G01 X89.6227 Y19.6538
G01 X89.6418 Y19.6586
G01 X89.6602 Y19.6652
G01 X89.6780 Y19.6736
G01 X89.6948 Y19.6837
G01 X89.7106 Y19.6954
G01 X89.7251 Y19.7086
G01 X89.7383 Y19.7231
G01 X89.7500 Y19.7389
G01 X89.7601 Y19.7557
G01 X89.7685 Y19.7735
G01 X89.7751 Y19.7919
G01 X89.7799 Y19.8110
G01 X89.7827 Y19.8304
G01 X89.7837 Y19.8500
G01 X89.7837 Y21.6000
G01 X89.7827 Y21.6196
G01 X89.7799 Y21.6390
G01 X89.7751 Y21.6581
G01 X89.7685 Y21.6765
G01 X89.7601 Y21.6943
G01 X89.7500 Y21.7111
G01 X89.7383 Y21.7269
G01 X89.7251 Y21.7414
G01 X89.7106 Y21.7546
G01 X89.6948 Y21.7663
G01 X89.6780 Y21.7764
G01 X89.6602 Y21.7848
G01 X89.6418 Y21.7914
G01 X89.6227 Y21.7962
G01 X89.6033 Y21.7990
G01 X89.5837 Y21.8000
G01 X85.5141 Y21.8000
G01 X85.4945 Y21.7990
G01 X85.4751 Y21.7962
G01 X85.4560 Y21.7914
G01 X85.4376 Y21.7848
G01 X85.4198 Y21.7764
G01 X85.4030 Y21.7663
G01 X85.3872 Y21.7546
G01 X85.3727 Y21.7414
G01 X85.3595 Y21.7269
G01 X85.3478 Y21.7111
G01 X85.3377 Y21.6943
G01 X85.3293 Y21.6765
G01 X85.3227 Y21.6581
G01 X85.3179 Y21.6390
G01 X85.3151 Y21.6196
G01 X85.3141 Y21.6000
G01 X85.3141 Y16.0500
G01 X83.8946 Y16.0500
G01 X83.8946 Y16.8500
G01 X83.8936 Y16.8696
G01 X83.8908 Y16.8890
G01 X83.8860 Y16.9081
G01 X83.8794 Y16.9265
G01 X83.8710 Y16.9443
G01 X83.8609 Y16.9611
G01 X83.8492 Y16.9769
G01 X83.8360 Y16.9914
G01 X83.8215 Y17.0046
G01 X83.8057 Y17.0163
G01 X83.7889 Y17.0264
G01 X83.7711 Y17.0348
G01 X83.7527 Y17.0414
G01 X83.7336 Y17.0462
G01 X83.7142 Y17.0490
G01 X83.6946 Y17.0500
G01 X82.1946 Y17.0500
G01 X82.1750 Y17.0490
G01 X82.1556 Y17.0462
G01 X82.1365 Y17.0414
G01 X82.1181 Y17.0348
G01 X82.1003 Y17.0264
G01 X82.0835 Y17.0163
G01 X82.0677 Y17.0046
G01 X82.0532 Y16.9914
G01 X82.0400 Y16.9769
G01 X82.0283 Y16.9611
G01 X82.0182 Y16.9443
G01 X82.0098 Y16.9265
G01 X82.0032 Y16.9081
G01 X81.9984 Y16.8890
G01 X81.9956 Y16.8696
G01 X81.9946 Y16.8500
G01 X81.9946 Y15.1000
G01 X81.9956 Y15.0804
G01 X81.9984 Y15.0610
G01 X82.0032 Y15.0419
G01 X82.0098 Y15.0235
G01 X82.0182 Y15.0057
G01 X82.0283 Y14.9889
G01 X82.0400 Y14.9731
G01 X82.0532 Y14.9586
G01 X82.0677 Y14.9454
G01 X82.0835 Y14.9337
G01 X82.1003 Y14.9236
G01 X82.1181 Y14.9152
G01 X82.1365 Y14.9086
G01 X82.1556 Y14.9038
G01 X82.1750 Y14.9010
G01 X82.1946 Y14.9000
G01 X86.2641 Y14.9000
G01 X86.2837 Y14.9010
G01 X86.3031 Y14.9038
G01 X86.3222 Y14.9086
G01 X86.3406 Y14.9152
G01 X86.3584 Y14.9236
G01 X86.3752 Y14.9337
G01 X86.3910 Y14.9454
G01 X86.4055 Y14.9586
G01 X86.4187 Y14.9731
G01 X86.4304 Y14.9889
G01 X86.4405 Y15.0057
G01 X86.4489 Y15.0235
G01 X86.4555 Y15.0419
G01 X86.4603 Y15.0610
G01 X86.4631 Y15.0804
G01 X86.4641 Y15.1000
G01 X86.4641 Y20.6500
G00 Z2.0000
G00 X77.0750 Y20.6500
G01 F60.00
G01 Z-0.1500
G01 F120.00
G01 X78.4946 Y20.6500
G01 X78.4946 Y19.8500
G01 X78.4956 Y19.8304
G01 X78.4984 Y19.8110
G01 X78.5032 Y19.7919
G01 X78.5098 Y19.7735
G01 X78.5182 Y19.7557
G01 X78.5283 Y19.7389
G01 X78.5400 Y19.7231
G01 X78.5532 Y19.7086
G01 X78.5677 Y19.6954
G01 X78.5835 Y19.6837
G01 X78.6003 Y19.6736
G01 X78.6181 Y19.6652
G01 X78.6365 Y19.6586
G01 X78.6556 Y19.6538
G01 X78.6750 Y19.6510
G01 X78.6946 Y19.6500
G01 X80.1946 Y19.6500
G01 X80.2142 Y19.6510
G01 X80.2336 Y19.6538
G01 X80.2527 Y19.6586
G01 X80.2711 Y19.6652
G01 X80.2889 Y19.6736
G01 X80.3057 Y19.6837
G01 X80.3215 Y19.6954
G01 X80.3360 Y19.7086
G01 X80.3492 Y19.7231
G01 X80.3609 Y19.7389
G01 X80.3710 Y19.7557
G01 X80.3794 Y19.7735
G01 X80.3860 Y19.7919
G01 X80.3908 Y19.8110
G01 X80.3936 Y19.8304
G01 X80.3946 Y19.8500
G01 X80.3946 Y21.6000
G01 X80.3936 Y21.6196
G01 X80.3908 Y21.6390
G01 X80.3860 Y21.6581
G01 X80.3794 Y21.6765
G01 X80.3710 Y21.6943
G01 X80.3609 Y21.7111
G01 X80.3492 Y21.7269
G01 X80.3360 Y21.7414
G01 X80.3215 Y21.7546
G01 X80.3057 Y21.7663
G01 X80.2889 Y21.7764
G01 X80.2711 Y21.7848
G01 X80.2527 Y21.7914
G01 X80.2336 Y21.7962
G01 X80.2142 Y21.7990
G01 X80.1946 Y21.8000
G01 X76.1250 Y21.8000
G01 X76.1054 Y21.7990
G01 X76.0860 Y21.7962
G01 X76.0669 Y21.7914
G01 X76.0485 Y21.7848
G01 X76.0307 Y21.7764
G01 X76.0139 Y21.7663
G01 X75.9981 Y21.7546
G01 X75.9836 Y21.7414
G01 X75.9704 Y21.7269
G01 X75.9587 Y21.7111
G01 X75.9486 Y21.6943
G01 X75.9402 Y21.6765
G01 X75.9336 Y21.6581
G01 X75.9288 Y21.6390
G01 X75.9260 Y21.6196
G01 X75.9250 Y21.6000
G01 X75.9250 Y16.0500
G01 X74.5054 Y16.0500
G01 X74.5054 Y16.8500
G01 X74.5044 Y16.8696
G01 X74.5016 Y16.8890
G01 X74.4968 Y16.9081
G01 X74.4902 Y16.9265
G01 X74.4818 Y16.9443
G01 X74.4717 Y16.9611
G01 X74.4600 Y16.9769
G01 X74.4468 Y16.9914
G01 X74.4323 Y17.0046
G01 X74.4165 Y17.0163
G01 X74.3997 Y17.0264
G01 X74.3819 Y17.0348
G01 X74.3635 Y17.0414
G01 X74.3444 Y17.0462
G01 X74.3250 Y17.0490
G01 X74.3054 Y17.0500
G01 X72.8054 Y17.0500
G01 X72.7858 Y17.0490
G01 X72.7664 Y17.0462
G01 X72.7473 Y17.0414
G01 X72.7289 Y17.0348
G01 X72.7111 Y17.0264
G01 X72.6943 Y17.0163
G01 X72.6785 Y17.0046
G01 X72.6640 Y16.9914
G01 X72.6508 Y16.9769
G01 X72.6391 Y16.9611
G01 X72.6290 Y16.9443
G01 X72.6206 Y16.9265
G01 X72.6140 Y16.9081
G01 X72.6092 Y16.8890
G01 X72.6064 Y16.8696
G01 X72.6054 Y16.8500
G01 X72.6054 Y15.1000
G01 X72.6064 Y15.0804
G01 X72.6092 Y15.0610
G01 X72.6140 Y15.0419
G01 X72.6206 Y15.0235
G01 X72.6290 Y15.0057
G01 X72.6391 Y14.9889
G01 X72.6508 Y14.9731
G01 X72.6640 Y14.9586
G01 X72.6785 Y14.9454
G01 X72.6943 Y14.9337
G01 X72.7111 Y14.9236
G01 X72.7289 Y14.9152
G01 X72.7473 Y14.9086
G01 X72.7664 Y14.9038
G01 X72.7858 Y14.9010
G01 X72.8054 Y14.9000
G01 X76.8750 Y14.9000
G01 X76.8946 Y14.9010
G01 X76.9140 Y14.9038
G01 X76.9331 Y14.9086
G01 X76.9515 Y14.9152
G01 X76.9693 Y14.9236
G01 X76.9861 Y14.9337
G01 X77.0019 Y14.9454
G01 X77.0164 Y14.9586
G01 X77.0296 Y14.9731
G01 X77.0413 Y14.9889
G01 X77.0514 Y15.0057
G01 X77.0598 Y15.0235
G01 X77.0664 Y15.0419
G01 X77.0712 Y15.0610
G01 X77.0740 Y15.0804
G01 X77.0750 Y15.1000
G01 X77.0750 Y20.6500
G00 Z2.0000
G00 X67.6859 Y20.6500
G01 F60.00
G01 Z-0.1500
G01 F120.00
G01 X69.1054 Y20.6500
G01 X69.1054 Y19.8500
G01 X69.1064 Y19.8304
G01 X69.1092 Y19.8110
G01 X69.1140 Y19.7919
G01 X69.1206 Y19.7735
G01 X69.1290 Y19.7557
G01 X69.1391 Y19.7389
G01 X69.1508 Y19.7231
G01 X69.1640 Y19.7086
G01 X69.1785 Y19.6954
G01 X69.1943 Y19.6837
G01 X69.2111 Y19.6736
G01 X69.2289 Y19.6652
G01 X69.2473 Y19.6586
G01 X69.2664 Y19.6538
G01 X69.2858 Y19.6510
G01 X69.3054 Y19.6500
G01 X70.8054 Y19.6500
G01 X70.8250 Y19.6510
G01 X70.8444 Y19.6538
G01 X70.8635 Y19.6586
G01 X70.8819 Y19.6652
G01 X70.8997 Y19.6736
G01 X70.9165 Y19.6837
G01 X70.9323 Y19.6954
G01 X70.9468 Y19.7086
G01 X70.9600 Y19.7231
G01 X70.9717 Y19.7389
G01 X70.9818 Y19.7557
G01 X70.9902 Y19.7735
G01 X70.9968 Y19.7919
G01 X71.0016 Y19.8110
G01 X71.0044 Y19.8304
G01 X71.0054 Y19.8500
G01 X71.0054 Y21.6000
G01 X71.0044 Y21.6196
G01 X71.0016 Y21.6390
G01 X70.9968 Y21.6581
G01 X70.9902 Y21.6765
G01 X70.9818 Y21.6943
G01 X70.9717 Y21.7111
G01 X70.9600 Y21.7269
G01 X70.9468 Y21.7414
G01 X70.9323 Y21.7546
G01 X70.9165 Y21.7663
G01 X70.8997 Y21.7764
G01 X70.8819 Y21.7848
G01 X70.8635 Y21.7914
G01 X70.8444 Y21.7962
G01 X70.8250 Y21.7990
G01 X70.8054 Y21.8000
G01 X66.7359 Y21.8000
G01 X66.7163 Y21.7990
G01 X66.6969 Y21.7962
G01 X66.6778 Y21.7914
G01 X66.6594 Y21.7848
G01 X66.6416 Y21.7764
G01 X66.6248 Y21.7663
G01 X66.6090 Y21.7546
G01 X66.5945 Y21.7414
G01 X66.5813 Y21.7269
G01 X66.5696 Y21.7111
G01 X66.5595 Y21.6943
G01 X66.5511 Y21.6765
G01 X66.5445 Y21.6581
G01 X66.5397 Y21.6390
G01 X66.5369 Y21.6196
G01 X66.5359 Y21.6000
G01 X66.5359 Y16.0500
G01 X65.1163 Y16.0500
G01 X65.1163 Y16.8500
G01 X65.1153 Y16.8696
G01 X65.1125 Y16.8890
G01 X65.1077 Y16.9081
G01 X65.1011 Y16.9265
G01 X65.0927 Y16.9443
G01 X65.0826 Y16.9611
G01 X65.0709 Y16.9769
G01 X65.0577 Y16.9914
G01 X65.0432 Y17.0046
G01 X65.0274 Y17.0163
G01 X65.0106 Y17.0264
G01 X64.9928 Y17.0348
G01 X64.9744 Y17.0414
G01 X64.9553 Y17.0462
G01 X64.9359 Y17.0490
G01 X64.9163 Y17.0500
G01 X63.4163 Y17.0500
G01 X63.3967 Y17.0490
G01 X63.3773 Y17.0462
G01 X63.3582 Y17.0414
G01 X63.3398 Y17.0348
G01 X63.3220 Y17.0264
G01 X63.3052 Y17.0163
G01 X63.2894 Y17.0046
G01 X63.2749 Y16.9914
G01 X63.2617 Y16.9769
G01 X63.2500 Y16.9611
G01 X63.2399 Y16.9443
G01 X63.2315 Y16.9265
G01 X63.2249 Y16.9081
G01 X63.2201 Y16.8890
G01 X63.2173 Y16.8696
G01 X63.2163 Y16.8500
G01 X63.2163 Y15.1000
G01 X63.2173 Y15.0804
G01 X63.2201 Y15.0610
G01 X63.2249 Y15.0419
G01 X63.2315 Y15.0235
G01 X63.2399 Y15.0057
G01 X63.2500 Y14.9889
G01 X63.2617 Y14.9731
G01 X63.2749 Y14.9586
G01 X63.2894 Y14.9454
G01 X63.3052 Y14.9337
G01 X63.3220 Y14.9236
G01 X63.3398 Y14.9152
G01 X63.3582 Y14.9086
G01 X63.3773 Y14.9038
G01 X63.3967 Y14.9010
G01 X63.4163 Y14.9000
G01 X67.4859 Y14.9000
G01 X67.5055 Y14.9010
G01 X67.5249 Y14.9038
G01 X67.5440 Y14.9086
G01 X67.5624 Y14.9152
G01 X67.5802 Y14.9236
G01 X67.5970 Y14.9337
G01 X67.6128 Y14.9454
G01 X67.6273 Y14.9586
G01 X67.6405 Y14.9731
G01 X67.6522 Y14.9889
G01 X67.6623 Y15.0057
G01 X67.6707 Y15.0235
G01 X67.6773 Y15.0419
G01 X67.6821 Y15.0610
G01 X67.6849 Y15.0804
G01 X67.6859 Y15.1000
G01 X67.6859 Y20.6500
G00 Z2.0000
G00 X58.2967 Y20.6500
G01 F60.00
G01 Z-0.1500
G01 F120.00
G01 X59.7163 Y20.6500
G01 X59.7163 Y19.8500
G01 X59.7173 Y19.8304
G01 X59.7201 Y19.8110
G01 X59.7249 Y19.7919
G01 X59.7315 Y19.7735
G01 X59.7399 Y19.7557
G01 X59.7500 Y19.7389
G01 X59.7617 Y19.7231
G01 X59.7749 Y19.7086
G01 X59.7894 Y19.6954
G01 X59.8052 Y19.6837
G01 X59.8220 Y19.6736
G01 X59.8398 Y19.6652
G01 X59.8582 Y19.6586
G01 X59.8773 Y19.6538
G01 X59.8967 Y19.6510
G01 X59.9163 Y19.6500
G01 X61.4163 Y19.6500
G01 X61.4359 Y19.6510
G01 X61.4553 Y19.6538
G01 X61.4744 Y19.6586
G01 X61.4928 Y19.6652
G01 X61.5106 Y19.6736
G01 X61.5274 Y19.6837
G01 X61.5432 Y19.6954
G01 X61.5577 Y19.7086
G01 X61.5709 Y19.7231
G01 X61.5826 Y19.7389
G01 X61.5927 Y19.7557
G01 X61.6011 Y19.7735
G01 X61.6077 Y19.7919
G01 X61.6125 Y19.8110
G01 X61.6153 Y19.8304
G01 X61.6163 Y19.8500
G01 X61.6163 Y21.6000
G01 X61.6153 Y21.6196
G01 X61.6125 Y21.6390
G01 X61.6077 Y21.6581
G01 X61.6011 Y21.6765
G01 X61.5927 Y21.6943
G01 X61.5826 Y21.7111
G01 X61.5709 Y21.7269
G01 X61.5577 Y21.7414
G01 X61.5432 Y21.7546
G01 X61.5274 Y21.7663
G01 X61.5106 Y21.7764
G01 X61.4928 Y21.7848
G01 X61.4744 Y21.7914
G01 X61.4553 Y21.7962
G01 X61.4359 Y21.7990
G01 X61.4163 Y21.8000
G01 X57.3467 Y21.8000
G01 X57.3271 Y21.7990
G01 X57.3077 Y21.7962
G01 X57.2886 Y21.7914
G01 X57.2702 Y21.7848
G01 X57.2524 Y21.7764
G01 X57.2356 Y21.7663
G01 X57.2198 Y21.7546
G01 X57.2053 Y21.7414
G01 X57.1921 Y21.7269
G01 X57.1804 Y21.7111
G01 X57.1703 Y21.6943
G01 X57.1619 Y21.6765
G01 X57.1553 Y21.6581
G01 X57.1505 Y21.6390
G01 X57.1477 Y21.6196
G01 X57.1467 Y21.6000
G01 X57.1467 Y16.0500
G01 X55.7272 Y16.0500
G01 X55.7272 Y16.8500
G01 X55.7262 Y16.8696
G01 X55.7234 Y16.8890
G01 X55.7186 Y16.9081
G01 X55.7120 Y16.9265
G01 X55.7036 Y16.9443
G01 X55.6935 Y16.9611
G01 X55.6818 Y16.9769
G01 X55.6686 Y16.9914
G01 X55.6541 Y17.0046
G01 X55.6383 Y17.0163
G01 X55.6215 Y17.0264
G01 X55.6037 Y17.0348
G01 X55.5853 Y17.0414
G01 X55.5662 Y17.0462
G01 X55.5468 Y17.0490
G01 X55.5272 Y17.0500
G01 X54.0272 Y17.0500
G01 X54.0076 Y17.0490
G01 X53.9882 Y17.0462
G01 X53.9691 Y17.0414
G01 X53.9507 Y17.0348
G01 X53.9329 Y17.0264
G01 X53.9161 Y17.0163
G01 X53.9003 Y17.0046
G01 X53.8858 Y16.9914
G01 X53.8726 Y16.9769
G01 X53.8609 Y16.9611
G01 X53.8508 Y16.9443
G01 X53.8424 Y16.9265
G01 X53.8358 Y16.9081
G01 X53.8310 Y16.8890
G01 X53.8282 Y16.8696
G01 X53.8272 Y16.8500
G01 X53.8272 Y15.1000
G01 X53.8282 Y15.0804
G01 X53.8310 Y15.0610
G01 X53.8358 Y15.0419
G01 X53.8424 Y15.0235
G01 X53.8508 Y15.0057
G01 X53.8609 Y14.9889
G01 X53.8726 Y14.9731
G01 X53.8858 Y14.9586
G01 X53.9003 Y14.9454
G01 X53.9161 Y14.9337
G01 X53.9329 Y14.9236
G01 X53.9507 Y14.9152
G01 X53.9691 Y14.9086
G01 X53.9882 Y14.9038
G01 X54.0076 Y14.9010
G01 X54.0272 Y14.9000
G01 X58.0967 Y14.9000
G01 X58.1163 Y14.9010
G01 X58.1357 Y14.9038
G01 X58.1548 Y14.9086
G01 X58.1732 Y14.9152
G01 X58.1910 Y14.9236
G01 X58.2078 Y14.9337
G01 X58.2236 Y14.9454
G01 X58.2381 Y14.9586
G01 X58.2513 Y14.9731
G01 X58.2630 Y14.9889
G01 X58.2731 Y15.0057
G01 X58.2815 Y15.0235
G01 X58.2881 Y15.0419
G01 X58.2929 Y15.0610
G01 X58.2957 Y15.0804
G01 X58.2967 Y15.1000
G01 X58.2967 Y20.6500
G00 Z2.0000
G00 X51.1804 Y23.1855
G01 F60.00
G01 Z-0.1500
G01 F120.00
G01 X51.1829 Y23.1821
G01 X51.1961 Y23.1676
G01 X51.2106 Y23.1544
G01 X51.2264 Y23.1427
G01 X51.2432 Y23.1326
G01 X51.2610 Y23.1242
G01 X51.2794 Y23.1176
G01 X51.2985 Y23.1128
G01 X51.3179 Y23.1100
G01 X51.3375 Y23.1090
G01 X53.8378 Y23.1090
G01 X53.8309 Y21.6379
G01 X53.8282 Y21.6196
G01 X53.8272 Y21.6000
G01 X53.8272 Y19.8500
G01 X53.8282 Y19.8304
G01 X53.8310 Y19.8110
G01 X53.8358 Y19.7919
G01 X53.8424 Y19.7735
G01 X53.8508 Y19.7557
G01 X53.8609 Y19.7389
G01 X53.8726 Y19.7231
G01 X53.8858 Y19.7086
G01 X53.9003 Y19.6954
G01 X53.9161 Y19.6837
G01 X53.9329 Y19.6736
G01 X53.9507 Y19.6652
G01 X53.9691 Y19.6586
G01 X53.9882 Y19.6538
G01 X54.0076 Y19.6510
G01 X54.0272 Y19.6500
G01 X55.5272 Y19.6500
G01 X55.5468 Y19.6510
G01 X55.5662 Y19.6538
G01 X55.5853 Y19.6586
G01 X55.6037 Y19.6652
G01 X55.6215 Y19.6736
G01 X55.6383 Y19.6837
G01 X55.6541 Y19.6954
G01 X55.6686 Y19.7086
G01 X55.6818 Y19.7231
G01 X55.6935 Y19.7389
G01 X55.7036 Y19.7557
G01 X55.7120 Y19.7735
G01 X55.7186 Y19.7919
G01 X55.7234 Y19.8110
G01 X55.7262 Y19.8304
G01 X55.7272 Y19.8500
G01 X55.7272 Y20.8495
G01 X55.7379 Y23.1090
G01 X63.2227 Y23.1090
G01 X63.2185 Y21.6278
G01 X63.2173 Y21.6196
G01 X63.2163 Y21.6000
G01 X63.2163 Y19.8500
G01 X63.2173 Y19.8304
G01 X63.2201 Y19.8110
G01 X63.2249 Y19.7919
G01 X63.2315 Y19.7735
G01 X63.2399 Y19.7557
G01 X63.2500 Y19.7389
G01 X63.2617 Y19.7231
G01 X63.2749 Y19.7086
G01 X63.2894 Y19.6954
G01 X63.3052 Y19.6837
G01 X63.3220 Y19.6736
G01 X63.3398 Y19.6652
G01 X63.3582 Y19.6586
G01 X63.3773 Y19.6538
G01 X63.3967 Y19.6510
G01 X63.4163 Y19.6500
G01 X64.9163 Y19.6500
G01 X64.9359 Y19.6510
G01 X64.9553 Y19.6538
G01 X64.9744 Y19.6586
G01 X64.9928 Y19.6652
G01 X65.0106 Y19.6736
G01 X65.0274 Y19.6837
G01 X65.0432 Y19.6954
G01 X65.0577 Y19.7086
G01 X65.0709 Y19.7231
G01 X65.0826 Y19.7389
G01 X65.0927 Y19.7557
G01 X65.1011 Y19.7735
G01 X65.1077 Y19.7919
G01 X65.1125 Y19.8110
G01 X65.1153 Y19.8304
G01 X65.1163 Y19.8500
G01 X65.1163 Y20.8497
G01 X65.1227 Y23.1090
G01 X72.3009 Y23.1090
G01 X72.5123 Y22.5985
G01 X72.5207 Y22.5808
G01 X72.5307 Y22.5640
G01 X72.5423 Y22.5483
G01 X72.5554 Y22.5338
G01 X72.5699 Y22.5207
G01 X72.5856 Y22.5090
G01 X72.6023 Y22.4989
G01 X72.6069 Y22.4967
G01 X72.6054 Y21.6000
G01 X72.6054 Y19.8500
G01 X72.6064 Y19.8304
G01 X72.6092 Y19.8110
G01 X72.6140 Y19.7919
G01 X72.6206 Y19.7735
G01 X72.6290 Y19.7557
G01 X72.6391 Y19.7389
G01 X72.6508 Y19.7231
G01 X72.6640 Y19.7086
G01 X72.6785 Y19.6954
G01 X72.6943 Y19.6837
G01 X72.7111 Y19.6736
G01 X72.7289 Y19.6652
G01 X72.7473 Y19.6586
G01 X72.7664 Y19.6538
G01 X72.7858 Y19.6510
G01 X72.8054 Y19.6500
G01 X74.3054 Y19.6500
G01 X74.3250 Y19.6510
G01 X74.3444 Y19.6538
G01 X74.3635 Y19.6586
G01 X74.3819 Y19.6652
G01 X74.3997 Y19.6736
G01 X74.4165 Y19.6837
G01 X74.4323 Y19.6954
G01 X74.4468 Y19.7086
G01 X74.4600 Y19.7231
G01 X74.4717 Y19.7389
G01 X74.4818 Y19.7557
G01 X74.4902 Y19.7735
G01 X74.4968 Y19.7919
G01 X74.5016 Y19.8110
G01 X74.5044 Y19.8304
G01 X74.5054 Y19.8500
G01 X74.5054 Y20.8499
G01 X74.5070 Y22.4758
G01 X74.5421 Y22.4905
G01 X74.5597 Y22.4989
G01 X74.5764 Y22.5090
G01 X74.5921 Y22.5207
G01 X74.6066 Y22.5338
G01 X74.6197 Y22.5483
G01 X74.6313 Y22.5640
G01 X74.6413 Y22.5808
G01 X74.6497 Y22.5985
G01 X74.8611 Y23.1090
G01 X81.9924 Y23.1090
G01 X81.9946 Y20.8499
G01 X81.9946 Y19.8500
G01 X81.9956 Y19.8304
G01 X81.9984 Y19.8110
G01 X82.0032 Y19.7919
G01 X82.0098 Y19.7735
G01 X82.0182 Y19.7557
G01 X82.0283 Y19.7389
G01 X82.0400 Y19.7231
G01 X82.0532 Y19.7086
G01 X82.0677 Y19.6954
G01 X82.0835 Y19.6837
G01 X82.1003 Y19.6736
G01 X82.1181 Y19.6652
G01 X82.1365 Y19.6586
G01 X82.1556 Y19.6538
G01 X82.1750 Y19.6510
G01 X82.1946 Y19.6500
G01 X83.6946 Y19.6500
G01 X83.7142 Y19.6510
G01 X83.7336 Y19.6538
G01 X83.7527 Y19.6586
G01 X83.7711 Y19.6652
G01 X83.7889 Y19.6736
G01 X83.8057 Y19.6837
G01 X83.8215 Y19.6954
G01 X83.8360 Y19.7086
G01 X83.8492 Y19.7231
G01 X83.8609 Y19.7389
G01 X83.8710 Y19.7557
G01 X83.8794 Y19.7735
G01 X83.8860 Y19.7919
G01 X83.8908 Y19.8110
G01 X83.8936 Y19.8304
G01 X83.8946 Y19.8500
G01 X83.8946 Y21.6000
G01 X83.8938 Y21.6166
G01 X83.8924 Y23.1090
G01 X91.3773 Y23.1090
G01 X91.3837 Y20.8497
G01 X91.3837 Y19.8500
G01 X91.3847 Y19.8304
G01 X91.3875 Y19.8110
G01 X91.3923 Y19.7919
G01 X91.3989 Y19.7735
G01 X91.4073 Y19.7557
G01 X91.4174 Y19.7389
G01 X91.4291 Y19.7231
G01 X91.4423 Y19.7086
G01 X91.4568 Y19.6954
G01 X91.4726 Y19.6837
G01 X91.4894 Y19.6736
G01 X91.5072 Y19.6652
G01 X91.5256 Y19.6586
G01 X91.5447 Y19.6538
G01 X91.5641 Y19.6510
G01 X91.5837 Y19.6500
G01 X93.0837 Y19.6500
G01 X93.1033 Y19.6510
G01 X93.1227 Y19.6538
G01 X93.1418 Y19.6586
G01 X93.1602 Y19.6652
G01 X93.1780 Y19.6736
G01 X93.1948 Y19.6837
G01 X93.2106 Y19.6954
G01 X93.2251 Y19.7086
G01 X93.2383 Y19.7231
G01 X93.2500 Y19.7389
G01 X93.2601 Y19.7557
G01 X93.2685 Y19.7735
G01 X93.2751 Y19.7919
G01 X93.2799 Y19.8110
G01 X93.2827 Y19.8304
G01 X93.2837 Y19.8500
G01 X93.2837 Y21.6000
G01 X93.2827 Y21.6196
G01 X93.2815 Y21.6278
G01 X93.2773 Y23.1090
G01 X100.7620 Y23.1090
G01 X100.7730 Y20.8495
G01 X100.7730 Y19.8500
G01 X100.7740 Y19.8304
G01 X100.7768 Y19.8110
G01 X100.7816 Y19.7919
G01 X100.7882 Y19.7735
G01 X100.7966 Y19.7557
G01 X100.8067 Y19.7389
G01 X100.8184 Y19.7231
G01 X100.8316 Y19.7086
G01 X100.8461 Y19.6954
G01 X100.8619 Y19.6837
G01 X100.8787 Y19.6736
G01 X100.8965 Y19.6652
G01 X100.9149 Y19.6586
G01 X100.9340 Y19.6538
G01 X100.9534 Y19.6510
G01 X100.9730 Y19.6500
G01 X102.4730 Y19.6500
G01 X102.4926 Y19.6510
G01 X102.5120 Y19.6538
G01 X102.5311 Y19.6586
G01 X102.5495 Y19.6652
G01 X102.5673 Y19.6736
G01 X102.5841 Y19.6837
G01 X102.5999 Y19.6954
G01 X102.6144 Y19.7086
G01 X102.6276 Y19.7231
G01 X102.6393 Y19.7389
G01 X102.6494 Y19.7557
G01 X102.6578 Y19.7735
G01 X102.6644 Y19.7919
G01 X102.6692 Y19.8110
G01 X102.6720 Y19.8304
G01 X102.6730 Y19.8500
G01 X102.6730 Y21.6000
G01 X102.6720 Y21.6196
G01 X102.6688 Y21.6404
G01 X102.6580 Y24.0599
G01 X102.6570 Y24.0793
G01 X102.6541 Y24.0985
G01 X102.6493 Y24.1174
G01 X102.6427 Y24.1357
G01 X102.4227 Y24.6657
G01 X102.4143 Y24.6834
G01 X102.4042 Y24.7002
G01 X102.3926 Y24.7159
G01 X102.3794 Y24.7305
G01 X102.3649 Y24.7436
G01 X102.3491 Y24.7553
G01 X102.3323 Y24.7654
G01 X102.3146 Y24.7738
G01 X101.8981 Y24.9464
G01 X101.8944 Y24.9504
G01 X101.8799 Y24.9636
G01 X101.8641 Y24.9753
G01 X101.8473 Y24.9854
G01 X101.8295 Y24.9938
G01 X101.8111 Y25.0004
G01 X101.7920 Y25.0052
G01 X101.7726 Y25.0080
G01 X101.7530 Y25.0090
G01 X99.0448 Y25.0090
G01 X99.0448 Y27.0090
G01 X99.0438 Y27.0286
G01 X99.0410 Y27.0480
G01 X99.0362 Y27.0671
G01 X99.0296 Y27.0855
G01 X99.0212 Y27.1033
G01 X99.0111 Y27.1201
G01 X98.9994 Y27.1359
G01 X98.9862 Y27.1504
G01 X98.9717 Y27.1636
G01 X98.9559 Y27.1753
G01 X98.9391 Y27.1854
G01 X98.9213 Y27.1938
G01 X98.9029 Y27.2004
G01 X98.8838 Y27.2052
G01 X98.8644 Y27.2080
G01 X98.8448 Y27.2090
G01 X97.3448 Y27.2090
G01 X97.3252 Y27.2080
G01 X97.3058 Y27.2052
G01 X97.2867 Y27.2004
G01 X97.2683 Y27.1938
G01 X97.2505 Y27.1854
G01 X97.2337 Y27.1753
G01 X97.2179 Y27.1636
G01 X97.2034 Y27.1504
G01 X97.1902 Y27.1359
G01 X97.1785 Y27.1201
G01 X97.1684 Y27.1033
G01 X97.1600 Y27.0855
G01 X97.1534 Y27.0671
G01 X97.1486 Y27.0480
G01 X97.1458 Y27.0286
G01 X97.1448 Y27.0090
G01 X97.1448 Y25.0090
G01 X89.7069 Y25.0090
G01 X89.7069 Y27.0090
G01 X89.7059 Y27.0286
G01 X89.7031 Y27.0480
G01 X89.6983 Y27.0671
G01 X89.6917 Y27.0855
G01 X89.6833 Y27.1033
G01 X89.6732 Y27.1201
G01 X89.6615 Y27.1359
G01 X89.6483 Y27.1504
G01 X89.6338 Y27.1636
G01 X89.6180 Y27.1753
G01 X89.6012 Y27.1854
G01 X89.5834 Y27.1938
G01 X89.5650 Y27.2004
G01 X89.5459 Y27.2052
G01 X89.5265 Y27.2080
G01 X89.5069 Y27.2090
G01 X88.0069 Y27.2090
G01 X87.9873 Y27.2080
G01 X87.9679 Y27.2052
G01 X87.9488 Y27.2004
G01 X87.9304 Y27.1938
G01 X87.9126 Y27.1854
G01 X87.8958 Y27.1753
G01 X87.8800 Y27.1636
G01 X87.8655 Y27.1504
G01 X87.8523 Y27.1359
G01 X87.8406 Y27.1201
G01 X87.8305 Y27.1033
G01 X87.8221 Y27.0855
G01 X87.8155 Y27.0671
G01 X87.8107 Y27.0480
G01 X87.8079 Y27.0286
G01 X87.8069 Y27.0090
G01 X87.8069 Y25.0090
G01 X80.3690 Y25.0090
G01 X80.3690 Y27.0090
G01 X80.3680 Y27.0286
G01 X80.3652 Y27.0480
G01 X80.3604 Y27.0671
G01 X80.3538 Y27.0855
G01 X80.3454 Y27.1033
G01 X80.3353 Y27.1201
G01 X80.3236 Y27.1359
G01 X80.3104 Y27.1504
G01 X80.2959 Y27.1636
G01 X80.2801 Y27.1753
G01 X80.2633 Y27.1854
G01 X80.2455 Y27.1938
G01 X80.2271 Y27.2004
G01 X80.2080 Y27.2052
G01 X80.1886 Y27.2080
G01 X80.1690 Y27.2090
G01 X78.6690 Y27.2090
G01 X78.6494 Y27.2080
G01 X78.6300 Y27.2052
G01 X78.6109 Y27.2004
G01 X78.5925 Y27.1938
G01 X78.5747 Y27.1854
G01 X78.5579 Y27.1753
G01 X78.5421 Y27.1636
G01 X78.5276 Y27.1504
G01 X78.5144 Y27.1359
G01 X78.5027 Y27.1201
G01 X78.4926 Y27.1033
G01 X78.4842 Y27.0855
G01 X78.4776 Y27.0671
G01 X78.4728 Y27.0480
G01 X78.4700 Y27.0286
G01 X78.4690 Y27.0090
G01 X78.4690 Y25.0090
G01 X71.0310 Y25.0090
G01 X71.0310 Y27.0090
G01 X71.0300 Y27.0286
G01 X71.0272 Y27.0480
G01 X71.0224 Y27.0671
G01 X71.0158 Y27.0855
G01 X71.0074 Y27.1033
G01 X70.9973 Y27.1201
G01 X70.9856 Y27.1359
G01 X70.9724 Y27.1504
G01 X70.9579 Y27.1636
G01 X70.9421 Y27.1753
G01 X70.9253 Y27.1854
G01 X70.9075 Y27.1938
G01 X70.8891 Y27.2004
G01 X70.8700 Y27.2052
G01 X70.8506 Y27.2080
G01 X70.8310 Y27.2090
G01 X69.3310 Y27.2090
G01 X69.3114 Y27.2080
G01 X69.2920 Y27.2052
G01 X69.2729 Y27.2004
G01 X69.2545 Y27.1938
G01 X69.2367 Y27.1854
G01 X69.2199 Y27.1753
G01 X69.2041 Y27.1636
G01 X69.1896 Y27.1504
G01 X69.1764 Y27.1359
G01 X69.1647 Y27.1201
G01 X69.1546 Y27.1033
G01 X69.1462 Y27.0855
G01 X69.1396 Y27.0671
G01 X69.1348 Y27.0480
G01 X69.1320 Y27.0286
G01 X69.1310 Y27.0090
G01 X69.1310 Y25.0090
G01 X61.6931 Y25.0090
G01 X61.6931 Y27.0090
G01 X61.6921 Y27.0286
G01 X61.6893 Y27.0480
G01 X61.6845 Y27.0671
G01 X61.6779 Y27.0855
G01 X61.6695 Y27.1033
G01 X61.6594 Y27.1201
G01 X61.6477 Y27.1359
G01 X61.6345 Y27.1504
G01 X61.6200 Y27.1636
G01 X61.6042 Y27.1753
G01 X61.5874 Y27.1854
G01 X61.5696 Y27.1938
G01 X61.5512 Y27.2004
G01 X61.5321 Y27.2052
G01 X61.5127 Y27.2080
G01 X61.4931 Y27.2090
G01 X59.9931 Y27.2090
G01 X59.9735 Y27.2080
G01 X59.9541 Y27.2052
G01 X59.9350 Y27.2004
G01 X59.9166 Y27.1938
G01 X59.8988 Y27.1854
G01 X59.8820 Y27.1753
G01 X59.8662 Y27.1636
G01 X59.8517 Y27.1504
G01 X59.8385 Y27.1359
G01 X59.8268 Y27.1201
G01 X59.8167 Y27.1033
G01 X59.8083 Y27.0855
G01 X59.8017 Y27.0671
G01 X59.7969 Y27.0480
G01 X59.7941 Y27.0286
G01 X59.7931 Y27.0090
G01 X59.7931 Y25.0090
G01 X52.3551 Y25.0090
G01 X52.3551 Y27.0090
G01 X52.3541 Y27.0286
G01 X52.3513 Y27.0480
G01 X52.3465 Y27.0671
G01 X52.3399 Y27.0855
G01 X52.3315 Y27.1033
G01 X52.3214 Y27.1201
G01 X52.3097 Y27.1359
G01 X52.2965 Y27.1504
G01 X52.2820 Y27.1636
G01 X52.2662 Y27.1753
G01 X52.2494 Y27.1854
G01 X52.2316 Y27.1938
G01 X52.2132 Y27.2004
G01 X52.1941 Y27.2052
G01 X52.1747 Y27.2080
G01 X52.1551 Y27.2090
G01 X50.6551 Y27.2090
G01 X50.6355 Y27.2080
G01 X50.6161 Y27.2052
G01 X50.5970 Y27.2004
G01 X50.5786 Y27.1938
G01 X50.5608 Y27.1854
G01 X50.5440 Y27.1753
G01 X50.5282 Y27.1636
G01 X50.5137 Y27.1504
G01 X50.5005 Y27.1359
G01 X50.4888 Y27.1201
G01 X50.4787 Y27.1033
G01 X50.4703 Y27.0855
G01 X50.4637 Y27.0671
G01 X50.4589 Y27.0480
G01 X50.4561 Y27.0286
G01 X50.4551 Y27.0090
G01 X50.4551 Y24.0590
G01 X50.4561 Y24.0394
G01 X50.4589 Y24.0200
G01 X50.4637 Y24.0010
G01 X50.4703 Y23.9825
G01 X50.6900 Y23.4515
G01 X50.6984 Y23.4338
G01 X50.7085 Y23.4169
G01 X50.7202 Y23.4011
G01 X50.7334 Y23.3865
G01 X50.7480 Y23.3733
G01 X50.7638 Y23.3616
G01 X50.7807 Y23.3515
G01 X50.7985 Y23.3431
G01 X51.1804 Y23.1855
G00 Z2.0000
G00 X49.1748 Y30.8463
G01 F60.00
G01 Z-0.1500
G01 F120.00
G01 X49.1796 Y30.8427
G01 X49.1964 Y30.8326
G01 X49.2142 Y30.8242
G01 X49.2326 Y30.8176
G01 X49.2517 Y30.8128
G01 X49.2711 Y30.8100
G01 X49.2907 Y30.8090
G01 X50.4551 Y30.8090
G01 X50.4551 Y30.0090
G01 X50.4561 Y29.9894
G01 X50.4589 Y29.9700
G01 X50.4637 Y29.9509
G01 X50.4703 Y29.9325
G01 X50.4787 Y29.9147
G01 X50.4888 Y29.8979
G01 X50.5005 Y29.8821
G01 X50.5137 Y29.8676
G01 X50.5282 Y29.8544
G01 X50.5440 Y29.8427
G01 X50.5608 Y29.8326
G01 X50.5786 Y29.8242
G01 X50.5970 Y29.8176
G01 X50.6161 Y29.8128
G01 X50.6355 Y29.8100
G01 X50.6551 Y29.8090
G01 X52.1551 Y29.8090
G01 X52.1747 Y29.8100
G01 X52.1941 Y29.8128
G01 X52.2132 Y29.8176
G01 X52.2316 Y29.8242
G01 X52.2494 Y29.8326
G01 X52.2662 Y29.8427
G01 X52.2820 Y29.8544
G01 X52.2965 Y29.8676
G01 X52.3097 Y29.8821
G01 X52.3214 Y29.8979
G01 X52.3315 Y29.9147
G01 X52.3399 Y29.9325
G01 X52.3465 Y29.9509
G01 X52.3513 Y29.9700
G01 X52.3541 Y29.9894
G01 X52.3551 Y30.0090
G01 X52.3551 Y31.7590
G01 X52.3541 Y31.7786
G01 X52.3513 Y31.7980
G01 X52.3465 Y31.8171
G01 X52.3399 Y31.8355
G01 X52.3315 Y31.8533
G01 X52.3214 Y31.8701
G01 X52.3097 Y31.8859
G01 X52.2965 Y31.9004
G01 X52.2820 Y31.9136
G01 X52.2662 Y31.9253
G01 X52.2494 Y31.9354
G01 X52.2316 Y31.9438
G01 X52.2132 Y31.9504
G01 X52.1941 Y31.9552
G01 X52.1747 Y31.9580
G01 X52.1551 Y31.9590
G01 X50.2367 Y31.9590
G01 X50.3542 Y41.5710
G01 X50.5907 Y41.5710
G01 X50.5907 Y40.7710
G01 X50.5917 Y40.7514
G01 X50.5945 Y40.7320
G01 X50.5993 Y40.7129
G01 X50.6059 Y40.6945
G01 X50.6143 Y40.6767
G01 X50.6244 Y40.6599
G01 X50.6361 Y40.6441
G01 X50.6493 Y40.6296
G01 X50.6638 Y40.6164
G01 X50.6796 Y40.6047
G01 X50.6964 Y40.5946
G01 X50.7142 Y40.5862
G01 X50.7326 Y40.5796
G01 X50.7517 Y40.5748
G01 X50.7711 Y40.5720
G01 X50.7907 Y40.5710
G01 X52.2907 Y40.5710
G01 X52.3103 Y40.5720
G01 X52.3297 Y40.5748
G01 X52.3488 Y40.5796
G01 X52.3672 Y40.5862
G01 X52.3850 Y40.5946
G01 X52.4018 Y40.6047
G01 X52.4176 Y40.6164
G01 X52.4321 Y40.6296
G01 X52.4453 Y40.6441
G01 X52.4570 Y40.6599
G01 X52.4671 Y40.6767
G01 X52.4755 Y40.6945
G01 X52.4821 Y40.7129
G01 X52.4869 Y40.7320
G01 X52.4897 Y40.7514
G01 X52.4907 Y40.7710
G01 X52.4907 Y42.5210
G01 X52.4897 Y42.5406
G01 X52.4869 Y42.5600
G01 X52.4821 Y42.5791
G01 X52.4755 Y42.5975
G01 X52.4671 Y42.6153
G01 X52.4570 Y42.6321
G01 X52.4453 Y42.6479
G01 X52.4321 Y42.6624
G01 X52.4176 Y42.6756
G01 X52.4018 Y42.6873
G01 X52.3850 Y42.6974
G01 X52.3672 Y42.7058
G01 X52.3488 Y42.7124
G01 X52.3297 Y42.7172
G01 X52.3103 Y42.7200
G01 X52.2907 Y42.7210
G01 X50.1670 Y42.7210
G01 X49.4185 Y42.7310
G01 X49.3988 Y42.7303
G01 X49.3794 Y42.7277
G01 X49.3603 Y42.7231
G01 X49.3417 Y42.7168
G01 X49.3238 Y42.7086
G01 X49.3068 Y42.6987
G01 X49.2909 Y42.6872
G01 X49.2762 Y42.6742
G01 X49.2628 Y42.6598
G01 X49.2509 Y42.6442
G01 X49.2406 Y42.6275
G01 X49.2320 Y42.6098
G01 X49.2251 Y42.5914
G01 X49.2201 Y42.5724
G01 X49.2170 Y42.5530
G01 X49.2158 Y42.5334
G01 X49.0751 Y31.0214
G01 X49.0759 Y31.0012
G01 X49.0787 Y30.9812
G01 X49.0835 Y30.9615
G01 X49.0903 Y30.9424
G01 X49.0990 Y30.9241
G01 X49.1095 Y30.9068
G01 X49.1217 Y30.8907
G01 X49.1355 Y30.8758
G01 X49.1506 Y30.8624
G01 X49.1671 Y30.8507
G01 X49.1748 Y30.8463
G00 Z2.0000
G00 X51.3158 Y33.9477
G01 F60.00
G01 Z-0.1500
G01 F120.00
G01 X51.3185 Y33.9441
G01 X51.3317 Y33.9296
G01 X51.3462 Y33.9164
G01 X51.3620 Y33.9047
G01 X51.3788 Y33.8946
G01 X51.3966 Y33.8862
G01 X51.4150 Y33.8796
G01 X51.4341 Y33.8748
G01 X51.4535 Y33.8720
G01 X51.4731 Y33.8710
G01 X53.9723 Y33.8710
G01 X53.9599 Y31.8017
G01 X53.9589 Y31.7980
G01 X53.9561 Y31.7786
G01 X53.9551 Y31.7590
G01 X53.9551 Y30.0090
G01 X53.9561 Y29.9894
G01 X53.9589 Y29.9700
G01 X53.9637 Y29.9509
G01 X53.9703 Y29.9325
G01 X53.9787 Y29.9147
G01 X53.9888 Y29.8979
G01 X54.0005 Y29.8821
G01 X54.0137 Y29.8676
G01 X54.0282 Y29.8544
G01 X54.0440 Y29.8427
G01 X54.0608 Y29.8326
G01 X54.0786 Y29.8242
G01 X54.0970 Y29.8176
G01 X54.1161 Y29.8128
G01 X54.1355 Y29.8100
G01 X54.1551 Y29.8090
G01 X55.6551 Y29.8090
G01 X55.6747 Y29.8100
G01 X55.6941 Y29.8128
G01 X55.7132 Y29.8176
G01 X55.7316 Y29.8242
G01 X55.7494 Y29.8326
G01 X55.7662 Y29.8427
G01 X55.7820 Y29.8544
G01 X55.7965 Y29.8676
G01 X55.8097 Y29.8821
G01 X55.8214 Y29.8979
G01 X55.8315 Y29.9147
G01 X55.8399 Y29.9325
G01 X55.8465 Y29.9509
G01 X55.8513 Y29.9700
G01 X55.8541 Y29.9894
G01 X55.8551 Y30.0090
G01 X55.8551 Y31.0084
G01 X55.8723 Y33.8710
G01 X63.3034 Y33.8710
G01 X63.2959 Y31.7911
G01 X63.2941 Y31.7786
G01 X63.2931 Y31.7590
G01 X63.2931 Y30.0090
G01 X63.2941 Y29.9894
G01 X63.2969 Y29.9700
G01 X63.3017 Y29.9509
G01 X63.3083 Y29.9325
G01 X63.3167 Y29.9147
