(G-CODE GENERATED BY FLATCAM v8.994 - www.flatcam.org - Version Date: 2020/11/7)

(Name: hexPiezoPre-PTH.drl_cnc)
(Type: G-code from Geometry)
(Units: MM)

(Created on Samstag, 01 Januar 2022 at 13:23)

(This preprocessor is the default preprocessor used by FlatCAM.)
(It is made to work with MACH3 compatible motion controllers.)


(TOOLS DIAMETER: )
(Tool: 1 -> Dia: 0.7493)
(Tool: 2 -> Dia: 0.8000999999999999)
(Tool: 3 -> Dia: 1.0007599999999999)

(FEEDRATE Z: )
(Tool: 1 -> Feedrate: 200.0)
(Tool: 2 -> Feedrate: 200.0)
(Tool: 3 -> Feedrate: 200.0)

(FEEDRATE RAPIDS: )
(Tool: 1 -> Feedrate Rapids: 1500)
(Tool: 2 -> Feedrate Rapids: 1500)
(Tool: 3 -> Feedrate Rapids: 1500)

(Z_CUT: )
(Tool: 1 -> Z_Cut: -2.5000000000000004)
(Tool: 2 -> Z_Cut: -2.5000000000000004)
(Tool: 3 -> Z_Cut: -2.5000000000000004)

(Tools Offset: )
(Tool: 1 -> Offset Z: 0.0)
(Tool: 2 -> Offset Z: 0.0)
(Tool: 3 -> Offset Z: 0.0)

(Z_MOVE: )
(Tool: 1 -> Z_Move: 2)
(Tool: 2 -> Z_Move: 2)
(Tool: 3 -> Z_Move: 2)

(Z Toolchange: 45.0 mm)
(X,Y Toolchange: 0.0000, 0.0000 mm)
(Z Start: None mm)
(Z End: 10.0 mm)
(X,Y End: None mm)
(Steps per circle: 64)
(Preprocessor Excellon: default)

(X range:    3.5916 ...   82.0623  mm)
(Y range:    2.7534 ...   21.5341  mm)

(Spindle Speed: 0 RPM)
G21
G90
G94

G01 F200.00

M5
G00 Z45.0000
T1
G00 X0.0000 Y0.0000                
M6
(MSG, Change to Tool Dia = 0.7493 ||| Total drills for tool T1 = 18)
M0
G00 Z45.0000

G01 F200.00
M03
G00 X4.0919 Y15.6108
G01 Z-2.5000
G01 Z0
G00 Z2.0000
G00 X5.3619 Y16.8808
G01 Z-2.5000
G01 Z0
G00 Z2.0000
G00 X6.6319 Y15.6108
G01 Z-2.5000
G01 Z0
G00 Z2.0000
G00 X10.4419 Y15.6108
G01 Z-2.5000
G01 Z0
G00 Z2.0000
G00 X38.3819 Y15.6108
G01 Z-2.5000
G01 Z0
G00 Z2.0000
G00 X37.1119 Y16.8808
G01 Z-2.5000
G01 Z0
G00 Z2.0000
G00 X35.8419 Y15.6108
G01 Z-2.5000
G01 Z0
G00 Z2.0000
G00 X32.0269 Y15.6108
G01 Z-2.5000
G01 Z0
G00 Z2.0000
G00 X30.7569 Y16.8808
G01 Z-2.5000
G01 Z0
G00 Z2.0000
G00 X29.4869 Y15.6108
G01 Z-2.5000
G01 Z0
G00 Z2.0000
G00 X25.6819 Y15.6108
G01 Z-2.5000
G01 Z0
G00 Z2.0000
G00 X24.4119 Y16.8808
G01 Z-2.5000
G01 Z0
G00 Z2.0000
G00 X23.1419 Y15.6108
G01 Z-2.5000
G01 Z0
G00 Z2.0000
G00 X19.3319 Y15.6108
G01 Z-2.5000
G01 Z0
G00 Z2.0000
G00 X18.0619 Y16.8808
G01 Z-2.5000
G01 Z0
G00 Z2.0000
G00 X16.7919 Y15.6108
G01 Z-2.5000
G01 Z0
G00 Z2.0000
G00 X12.9819 Y15.6108
G01 Z-2.5000
G01 Z0
G00 Z2.0000
G00 X11.7119 Y16.8808
G01 Z-2.5000
G01 Z0
G00 Z2.0000
G01 F200.00

M5
G00 Z45.0000
T2
G00 X0.0000 Y0.0000                
M6
(MSG, Change to Tool Dia = 0.8001 ||| Total drills for tool T2 = 8)
M0
G00 Z45.0000

G01 F200.00
M03
G00 X8.2829 Y3.9040
G01 Z-2.5000
G01 Z0
G00 Z2.0000
G00 X14.6329 Y3.9040
G01 Z-2.5000
G01 Z0
G00 Z2.0000
G00 X27.3329 Y3.9040
G01 Z-2.5000
G01 Z0
G00 Z2.0000
G00 X33.6829 Y3.9040
G01 Z-2.5000
G01 Z0
G00 Z2.0000
G00 X44.0969 Y4.5390
G01 Z-2.5000
G01 Z0
G00 Z2.0000
G00 X76.9899 Y3.6500
G01 Z-2.5000
G01 Z0
G00 Z2.0000
G00 X78.6409 Y6.0630
G01 Z-2.5000
G01 Z0
G00 Z2.0000
G00 X20.9829 Y3.9040
G01 Z-2.5000
G01 Z0
G00 Z2.0000
G01 F200.00

M5
G00 Z45.0000
T3
G00 X0.0000 Y0.0000                
M6
(MSG, Change to Tool Dia = 1.0008 ||| Total drills for tool T3 = 24)
M0
G00 Z45.0000

G01 F200.00
M03
G00 X4.0919 Y7.7140
G01 Z-2.5000
G01 Z0
G00 Z2.0000
G00 X6.6319 Y7.7140
G01 Z-2.5000
G01 Z0
G00 Z2.0000
G00 X10.4470 Y7.7140
G01 Z-2.5000
G01 Z0
G00 Z2.0000
G00 X12.9870 Y7.7140
G01 Z-2.5000
G01 Z0
G00 Z2.0000
G00 X16.7919 Y7.7140
G01 Z-2.5000
G01 Z0
G00 Z2.0000
G00 X19.3319 Y7.7140
G01 Z-2.5000
G01 Z0
G00 Z2.0000
G00 X23.1470 Y7.7140
G01 Z-2.5000
G01 Z0
G00 Z2.0000
G00 X25.6870 Y7.7140
G01 Z-2.5000
G01 Z0
G00 Z2.0000
G00 X29.4919 Y7.7140
G01 Z-2.5000
G01 Z0
G00 Z2.0000
G00 X32.0319 Y7.7140
G01 Z-2.5000
G01 Z0
G00 Z2.0000
G00 X35.8419 Y7.7140
G01 Z-2.5000
G01 Z0
G00 Z2.0000
G00 X38.3819 Y7.7140
G01 Z-2.5000
G01 Z0
G00 Z2.0000
G00 X44.0080 Y7.7140
G01 Z-2.5000
G01 Z0
G00 Z2.0000
G00 X75.0062 Y7.7140
G01 Z-2.5000
G01 Z0
G00 Z2.0000
G00 X81.5619 Y3.2537
G01 Z-2.5000
G01 Z0
G00 Z2.0000
G00 X81.5619 Y5.7937
G01 Z-2.5000
G01 Z0
G00 Z2.0000
G00 X81.5619 Y8.3337
G01 Z-2.5000
G01 Z0
G00 Z2.0000
G00 X81.5619 Y10.8737
G01 Z-2.5000
G01 Z0
G00 Z2.0000
G00 X81.5619 Y13.4137
G01 Z-2.5000
G01 Z0
G00 Z2.0000
G00 X81.5619 Y15.9537
G01 Z-2.5000
G01 Z0
G00 Z2.0000
G00 X81.5619 Y18.4937
G01 Z-2.5000
G01 Z0
G00 Z2.0000
G00 X81.5619 Y21.0337
G01 Z-2.5000
G01 Z0
G00 Z2.0000
G00 X75.0062 Y14.7142
G01 Z-2.5000
G01 Z0
G00 Z2.0000
G00 X44.0080 Y14.7142
G01 Z-2.5000
G01 Z0
G00 Z2.0000
M05
G00 Z10.00


