(G-CODE GENERATED BY FLATCAM v8.994 - www.flatcam.org - Version Date: 2020/11/7)

(Name: hexPiezoPre-Edge_Cuts.gbr_cutout_1_cnc)
(Type: G-code from Geometry)
(Units: MM)

(Created on Samstag, 01 Januar 2022 at 13:42)

(This preprocessor is the default preprocessor used by FlatCAM.)
(It is made to work with MACH3 compatible motion controllers.)

(TOOL DIAMETER: 2.0 mm)
(Feedrate_XY: 120.0 mm/min)
(Feedrate_Z: 60.0 mm/min)
(Feedrate rapids 1500.0 mm/min)

(Z_Cut: -2.5 mm)
(DepthPerCut: 0.9999999999999999 mm <=>3 passes)
(Z_Move: 2.0 mm)
(Z Start: None mm)
(Z End: 15.0 mm)
(X,Y End: None mm)
(Steps per circle: 64)
(Preprocessor Geometry: default)

(X range:   -0.9528 ...   86.3473  mm)
(Y range:   -1.0750 ...   32.2250  mm)

(Spindle Speed: 0.0 RPM)
G21
G90
G94

G01 F120.00

M5
G00 Z15.0000
G00 X0.0000 Y0.0000
T1
M6    
(MSG, Change to Tool Dia = 2.0000)
M0
G00 Z15.0000

M03
G01 F120.00
G00 X-0.9515 Y0.0210
G01 F60.00
G01 Z-1.0000
G01 F120.00
G01 X-0.9528 Y0.0750
G01 X-0.9528 Y31.0750
G01 X-0.9512 Y31.1339
G01 X-0.9399 Y31.2462
G01 X-0.9177 Y31.3568
G01 X-0.8863 Y31.4601
G01 X-0.8413 Y31.5689
G01 X-0.7879 Y31.6683
G01 X-0.7279 Y31.7581
G01 X-0.6532 Y31.8491
G01 X-0.5769 Y31.9254
G01 X-0.4898 Y31.9972
G01 X-0.3919 Y32.0626
G01 X-0.2967 Y32.1135
G01 X-0.1925 Y32.1569
G01 X-0.0846 Y32.1899
G01 X0.0261 Y32.2122
G01 X0.1384 Y32.2235
G01 X0.1972 Y32.2250
G01 X85.1972 Y32.2250
G01 X85.2561 Y32.2235
G01 X85.3684 Y32.2122
G01 X85.4790 Y32.1899
G01 X85.5823 Y32.1586
G01 X85.6911 Y32.1135
G01 X85.7905 Y32.0601
G01 X85.8803 Y32.0001
G01 X85.9713 Y31.9254
G01 X86.0476 Y31.8491
G01 X86.1194 Y31.7620
G01 X86.1848 Y31.6641
G01 X86.2357 Y31.5689
G01 X86.2791 Y31.4647
G01 X86.3121 Y31.3568
G01 X86.3344 Y31.2462
G01 X86.3457 Y31.1339
G01 X86.3473 Y31.0750
G01 X86.3473 Y0.0750
G01 X86.3457 Y0.0161
G01 X86.3344 Y-0.0962
G01 X86.3121 Y-0.2068
G01 X86.2808 Y-0.3101
G01 X86.2357 Y-0.4189
G01 X86.1823 Y-0.5183
G01 X86.1224 Y-0.6081
G01 X86.0476 Y-0.6991
G01 X85.9713 Y-0.7754
G01 X85.8842 Y-0.8472
G01 X85.7863 Y-0.9126
G01 X85.6911 Y-0.9635
G01 X85.5870 Y-1.0069
G01 X85.4790 Y-1.0399
G01 X85.3684 Y-1.0622
G01 X85.2561 Y-1.0735
G01 X85.1972 Y-1.0750
G01 X0.1972 Y-1.0750
G01 X0.1384 Y-1.0735
G01 X0.0261 Y-1.0622
G01 X-0.0846 Y-1.0399
G01 X-0.1925 Y-1.0069
G01 X-0.2967 Y-0.9635
G01 X-0.3961 Y-0.9101
G01 X-0.4898 Y-0.8472
G01 X-0.5769 Y-0.7754
G01 X-0.6565 Y-0.6955
G01 X-0.7279 Y-0.6081
G01 X-0.7904 Y-0.5141
G01 X-0.8434 Y-0.4145
G01 X-0.8863 Y-0.3101
G01 X-0.9189 Y-0.2020
G01 X-0.9406 Y-0.0913
G01 X-0.9515 Y0.0210
G00 X-0.9515 Y0.0210
G01 F60.00
G01 Z-2.0000
G01 F120.00
G01 X-0.9406 Y-0.0913
G01 X-0.9189 Y-0.2020
G01 X-0.8863 Y-0.3101
G01 X-0.8434 Y-0.4145
G01 X-0.7904 Y-0.5141
G01 X-0.7279 Y-0.6081
G01 X-0.6565 Y-0.6955
G01 X-0.5769 Y-0.7754
G01 X-0.4898 Y-0.8472
G01 X-0.3961 Y-0.9101
G01 X-0.2967 Y-0.9635
G01 X-0.1925 Y-1.0069
G01 X-0.0846 Y-1.0399
G01 X0.0261 Y-1.0622
G01 X0.1384 Y-1.0735
G01 X0.1972 Y-1.0750
G01 X85.1972 Y-1.0750
G01 X85.2561 Y-1.0735
G01 X85.3684 Y-1.0622
G01 X85.4790 Y-1.0399
G01 X85.5870 Y-1.0069
G01 X85.6911 Y-0.9635
G01 X85.7863 Y-0.9126
G01 X85.8842 Y-0.8472
G01 X85.9713 Y-0.7754
G01 X86.0476 Y-0.6991
G01 X86.1224 Y-0.6081
G01 X86.1823 Y-0.5183
G01 X86.2357 Y-0.4189
G01 X86.2808 Y-0.3101
G01 X86.3121 Y-0.2068
G01 X86.3344 Y-0.0962
G01 X86.3457 Y0.0161
G01 X86.3473 Y0.0750
G01 X86.3473 Y31.0750
G01 X86.3457 Y31.1339
G01 X86.3344 Y31.2462
G01 X86.3121 Y31.3568
G01 X86.2791 Y31.4647
G01 X86.2357 Y31.5689
G01 X86.1848 Y31.6641
G01 X86.1194 Y31.7620
G01 X86.0476 Y31.8491
G01 X85.9713 Y31.9254
G01 X85.8803 Y32.0001
G01 X85.7905 Y32.0601
G01 X85.6911 Y32.1135
G01 X85.5823 Y32.1586
G01 X85.4790 Y32.1899
G01 X85.3684 Y32.2122
G01 X85.2561 Y32.2235
G01 X85.1972 Y32.2250
G01 X0.1972 Y32.2250
G01 X0.1384 Y32.2235
G01 X0.0261 Y32.2122
G01 X-0.0846 Y32.1899
G01 X-0.1925 Y32.1569
G01 X-0.2967 Y32.1135
G01 X-0.3919 Y32.0626
G01 X-0.4898 Y31.9972
G01 X-0.5769 Y31.9254
G01 X-0.6532 Y31.8491
G01 X-0.7279 Y31.7581
G01 X-0.7879 Y31.6683
G01 X-0.8413 Y31.5689
G01 X-0.8863 Y31.4601
G01 X-0.9177 Y31.3568
G01 X-0.9399 Y31.2462
G01 X-0.9512 Y31.1339
G01 X-0.9528 Y31.0750
G01 X-0.9528 Y0.0750
G01 X-0.9515 Y0.0210
G00 X-0.9515 Y0.0210
G01 F60.00
G01 Z-2.5000
G01 F120.00
G01 X-0.9528 Y0.0750
G01 X-0.9528 Y31.0750
G01 X-0.9512 Y31.1339
G01 X-0.9399 Y31.2462
G01 X-0.9177 Y31.3568
G01 X-0.8863 Y31.4601
G01 X-0.8413 Y31.5689
G01 X-0.7879 Y31.6683
G01 X-0.7279 Y31.7581
G01 X-0.6532 Y31.8491
G01 X-0.5769 Y31.9254
G01 X-0.4898 Y31.9972
G01 X-0.3919 Y32.0626
G01 X-0.2967 Y32.1135
G01 X-0.1925 Y32.1569
G01 X-0.0846 Y32.1899
G01 X0.0261 Y32.2122
G01 X0.1384 Y32.2235
G01 X0.1972 Y32.2250
G01 X85.1972 Y32.2250
G01 X85.2561 Y32.2235
G01 X85.3684 Y32.2122
G01 X85.4790 Y32.1899
G01 X85.5823 Y32.1586
G01 X85.6911 Y32.1135
G01 X85.7905 Y32.0601
G01 X85.8803 Y32.0001
G01 X85.9713 Y31.9254
G01 X86.0476 Y31.8491
G01 X86.1194 Y31.7620
G01 X86.1848 Y31.6641
G01 X86.2357 Y31.5689
G01 X86.2791 Y31.4647
G01 X86.3121 Y31.3568
G01 X86.3344 Y31.2462
G01 X86.3457 Y31.1339
G01 X86.3473 Y31.0750
G01 X86.3473 Y0.0750
G01 X86.3457 Y0.0161
G01 X86.3344 Y-0.0962
G01 X86.3121 Y-0.2068
G01 X86.2808 Y-0.3101
G01 X86.2357 Y-0.4189
G01 X86.1823 Y-0.5183
G01 X86.1224 Y-0.6081
G01 X86.0476 Y-0.6991
G01 X85.9713 Y-0.7754
G01 X85.8842 Y-0.8472
G01 X85.7863 Y-0.9126
G01 X85.6911 Y-0.9635
G01 X85.5870 Y-1.0069
G01 X85.4790 Y-1.0399
G01 X85.3684 Y-1.0622
G01 X85.2561 Y-1.0735
G01 X85.1972 Y-1.0750
G01 X0.1972 Y-1.0750
G01 X0.1384 Y-1.0735
G01 X0.0261 Y-1.0622
G01 X-0.0846 Y-1.0399
G01 X-0.1925 Y-1.0069
G01 X-0.2967 Y-0.9635
G01 X-0.3961 Y-0.9101
G01 X-0.4898 Y-0.8472
G01 X-0.5769 Y-0.7754
G01 X-0.6565 Y-0.6955
G01 X-0.7279 Y-0.6081
G01 X-0.7904 Y-0.5141
G01 X-0.8434 Y-0.4145
G01 X-0.8863 Y-0.3101
G01 X-0.9189 Y-0.2020
G01 X-0.9406 Y-0.0913
G01 X-0.9515 Y0.0210
G00 Z2.0000
M05
G00 Z2.0000
G00 Z15.00


