(G-CODE GENERATED BY FLATCAM v8.994 - www.flatcam.org - Version Date: 2020/11/7)

(Name: hexPiezoPre-F_Cu.gbr_iso_combined_cnc)
(Type: G-code from Geometry)
(Units: MM)

(Created on Freitag, 31 Dezember 2021 at 11:12)

(This preprocessor is the default preprocessor used by FlatCAM.)
(It is made to work with MACH3 compatible motion controllers.)

(TOOL DIAMETER: 0.4 mm)
(Feedrate_XY: 120.0 mm/min)
(Feedrate_Z: 60.0 mm/min)
(Feedrate rapids 1500.0 mm/min)

(Z_Cut: -0.3621 mm)
(Z_Move: 2.0 mm)
(Z Start: None mm)
(Z End: 15.0 mm)
(X,Y End: None mm)
(Steps per circle: 64)
(Preprocessor Geometry: default)

(X range:    1.7371 ...   82.6122  mm)
(Y range:    1.5499 ...   29.2471  mm)

(Spindle Speed: 0.0 RPM)
G21
G90
G94

G01 F120.00

M5
G00 Z15.0000
G00 X0.0000 Y0.0000
T1
M6    
(MSG, Change to Tool Dia = 0.4000)
M0
G00 Z15.0000

M03
G01 F120.00
G00 X1.7385 Y9.6543
G01 F60.00
G01 Z-0.3621
G01 F120.00
G01 X1.7371 Y9.6200
G01 X1.7371 Y5.8100
G01 X1.7389 Y5.7708
G01 X1.7405 Y5.7561
G01 X1.7458 Y5.7222
G01 X1.7565 Y5.6793
G01 X1.7714 Y5.6377
G01 X1.7880 Y5.6022
G01 X1.7951 Y5.5893
G01 X1.8130 Y5.5599
G01 X1.8332 Y5.5322
G01 X1.8424 Y5.5207
G01 X1.8655 Y5.4952
G01 X3.5372 Y3.8234
G01 X3.5375 Y3.4202
G01 X3.5394 Y3.3859
G01 X3.5442 Y3.3519
G01 X3.5469 Y3.3374
G01 X3.5566 Y3.2994
G01 X3.5715 Y3.2578
G01 X3.5904 Y3.2179
G01 X3.6131 Y3.1800
G01 X3.6394 Y3.1445
G01 X3.6690 Y3.1118
G01 X3.7018 Y3.0821
G01 X3.7372 Y3.0558
G01 X3.7691 Y3.0365
G01 X3.7692 Y1.9951
G01 X3.7709 Y1.9608
G01 X3.7725 Y1.9461
G01 X3.7778 Y1.9122
G01 X3.7871 Y1.8741
G01 X3.7900 Y1.8647
G01 X3.7998 Y1.8369
G01 X3.8073 Y1.8188
G01 X3.8223 Y1.7878
G01 X3.8450 Y1.7499
G01 X3.8713 Y1.7144
G01 X3.8942 Y1.6888
G01 X3.9045 Y1.6783
G01 X3.9337 Y1.6520
G01 X3.9692 Y1.6257
G01 X3.9985 Y1.6079
G01 X4.0114 Y1.6008
G01 X4.0470 Y1.5841
G01 X4.0839 Y1.5707
G01 X4.0980 Y1.5666
G01 X4.1314 Y1.5585
G01 X4.1702 Y1.5526
G01 X4.1849 Y1.5513
G01 X4.2192 Y1.5499
G01 X45.7697 Y1.5499
G01 X45.8090 Y1.5516
G01 X45.8236 Y1.5532
G01 X45.8527 Y1.5576
G01 X45.8623 Y1.5595
G01 X45.8909 Y1.5666
G01 X45.9051 Y1.5707
G01 X45.9328 Y1.5806
G01 X45.9510 Y1.5881
G01 X45.9819 Y1.6030
G01 X46.0198 Y1.6257
G01 X46.0553 Y1.6520
G01 X46.0854 Y1.6791
G01 X48.3463 Y3.9400
G01 X48.9820 Y3.9402
G01 X49.0163 Y3.9422
G01 X49.0600 Y3.9486
G01 X49.1029 Y3.9594
G01 X49.1399 Y3.9724
G01 X49.1534 Y3.9782
G01 X49.1800 Y3.9909
G01 X49.1887 Y3.9955
G01 X49.2222 Y4.0158
G01 X49.2500 Y4.0361
G01 X49.2615 Y4.0453
G01 X49.2904 Y4.0718
G01 X49.3169 Y4.1008
G01 X49.3261 Y4.1123
G01 X49.3464 Y4.1400
G01 X49.3643 Y4.1693
G01 X49.3714 Y4.1822
G01 X49.3880 Y4.2178
G01 X49.4014 Y4.2547
G01 X49.4055 Y4.2688
G01 X49.4136 Y4.3022
G01 X49.4195 Y4.3410
G01 X49.4208 Y4.3557
G01 X49.4222 Y4.3900
G01 X49.4222 Y5.3400
G01 X49.4201 Y5.3841
G01 X49.4153 Y5.4181
G01 X49.4114 Y5.4374
G01 X49.4042 Y5.4659
G01 X49.4014 Y5.4753
G01 X49.3880 Y5.5122
G01 X49.3714 Y5.5478
G01 X49.3643 Y5.5607
G01 X49.3491 Y5.5859
G01 X49.3436 Y5.5941
G01 X49.3201 Y5.6255
G01 X49.2972 Y5.6511
G01 X49.2833 Y5.6650
G01 X49.2615 Y5.6847
G01 X49.2539 Y5.6909
G01 X49.2222 Y5.7142
G01 X49.1929 Y5.7320
G01 X49.1800 Y5.7391
G01 X49.1444 Y5.7557
G01 X49.1075 Y5.7691
G01 X49.0981 Y5.7720
G01 X49.0849 Y5.7754
G01 X49.0849 Y6.5097
G01 X49.1052 Y6.5127
G01 X49.1148 Y6.5147
G01 X49.1529 Y6.5244
G01 X49.1944 Y6.5393
G01 X49.2256 Y6.5537
G01 X49.2429 Y6.5630
G01 X49.2681 Y6.5782
G01 X49.2763 Y6.5836
G01 X49.3077 Y6.6071
G01 X49.3333 Y6.6300
G01 X49.3472 Y6.6439
G01 X49.3669 Y6.6658
G01 X49.3732 Y6.6734
G01 X49.3964 Y6.7050
G01 X49.4167 Y6.7386
G01 X49.4214 Y6.7472
G01 X49.4340 Y6.7738
G01 X49.4398 Y6.7874
G01 X49.4529 Y6.8244
G01 X49.4614 Y6.8576
G01 X49.4645 Y6.8720
G01 X49.4701 Y6.9109
G01 X49.4722 Y6.9550
G01 X49.4722 Y7.8550
G01 X49.4705 Y7.8942
G01 X49.4689 Y7.9089
G01 X49.4636 Y7.9428
G01 X49.4529 Y7.9856
G01 X49.4398 Y8.0226
G01 X49.4340 Y8.0362
G01 X49.4191 Y8.0671
G01 X49.4016 Y8.0967
G01 X49.3936 Y8.1091
G01 X49.3701 Y8.1405
G01 X49.3404 Y8.1732
G01 X49.3115 Y8.1997
G01 X49.3000 Y8.2089
G01 X49.2722 Y8.2292
G01 X49.2429 Y8.2470
G01 X49.2300 Y8.2541
G01 X49.1944 Y8.2707
G01 X49.1622 Y8.2825
G01 X49.1481 Y8.2870
G01 X49.1100 Y8.2964
G01 X49.0761 Y8.3016
G01 X49.0614 Y8.3033
G01 X49.0271 Y8.3049
G01 X48.3222 Y8.3050
G01 X48.2830 Y8.3033
G01 X48.2684 Y8.3016
G01 X48.2344 Y8.2964
G01 X48.1916 Y8.2856
G01 X48.1500 Y8.2707
G01 X48.1189 Y8.2563
G01 X48.1016 Y8.2470
G01 X48.0763 Y8.2318
G01 X48.0642 Y8.2235
G01 X48.0368 Y8.2029
G01 X48.0040 Y8.1732
G01 X47.9744 Y8.1405
G01 X47.9537 Y8.1130
G01 X47.9428 Y8.0967
G01 X47.9277 Y8.0714
G01 X47.9210 Y8.0584
G01 X47.9065 Y8.0272
G01 X47.8916 Y7.9856
G01 X47.8809 Y7.9428
G01 X47.8749 Y7.9040
G01 X47.8737 Y7.8893
G01 X47.8722 Y7.8550
G01 X47.8722 Y6.9550
G01 X47.8740 Y6.9158
G01 X47.8756 Y6.9011
G01 X47.8809 Y6.8672
G01 X47.8890 Y6.8338
G01 X47.8931 Y6.8197
G01 X47.9065 Y6.7828
G01 X47.9254 Y6.7429
G01 X47.9428 Y6.7133
G01 X47.9508 Y6.7009
G01 X47.9744 Y6.6695
G01 X48.0040 Y6.6368
G01 X48.0293 Y6.6136
G01 X48.0406 Y6.6041
G01 X48.0722 Y6.5808
G01 X48.1058 Y6.5605
G01 X48.1189 Y6.5537
G01 X48.1500 Y6.5393
G01 X48.1846 Y6.5267
G01 X48.1846 Y5.7754
G01 X48.1713 Y5.7720
G01 X48.1619 Y5.7691
G01 X48.1296 Y5.7576
G01 X48.1160 Y5.7518
G01 X48.0895 Y5.7391
G01 X48.0808 Y5.7345
G01 X48.0472 Y5.7142
G01 X48.0195 Y5.6939
G01 X48.0080 Y5.6847
G01 X47.9825 Y5.6616
G01 X47.9723 Y5.6511
G01 X47.9494 Y5.6255
G01 X47.9258 Y5.5941
G01 X47.9178 Y5.5817
G01 X47.9004 Y5.5521
G01 X47.8855 Y5.5212
G01 X47.8797 Y5.5076
G01 X47.8681 Y5.4753
G01 X47.8652 Y5.4659
G01 X47.8580 Y5.4374
G01 X47.8542 Y5.4181
G01 X47.8494 Y5.3841
G01 X47.8473 Y5.3449
G01 X47.8472 Y4.7141
G01 X45.5833 Y2.4501
G01 X36.5249 Y2.4501
G01 X36.5249 Y2.9946
G01 X36.5381 Y2.9980
G01 X36.5475 Y3.0009
G01 X36.5753 Y3.0107
G01 X36.5889 Y3.0162
G01 X36.6244 Y3.0331
G01 X36.6581 Y3.0532
G01 X36.6663 Y3.0586
G01 X36.6900 Y3.0761
G01 X36.7051 Y3.0886
G01 X36.7304 Y3.1118
G01 X36.7569 Y3.1408
G01 X36.7632 Y3.1484
G01 X36.7807 Y3.1720
G01 X36.7916 Y3.1883
G01 X36.8091 Y3.2179
G01 X36.8260 Y3.2533
G01 X36.8315 Y3.2670
G01 X36.8414 Y3.2947
G01 X36.8442 Y3.3041
G01 X36.8536 Y3.3422
G01 X36.8589 Y3.3761
G01 X36.8605 Y3.3908
G01 X36.8622 Y3.4300
G01 X36.8622 Y4.3849
G01 X36.8601 Y4.4241
G01 X36.8553 Y4.4581
G01 X36.8526 Y4.4726
G01 X36.8455 Y4.5012
G01 X36.8414 Y4.5153
G01 X36.8298 Y4.5476
G01 X36.8240 Y4.5612
G01 X36.8091 Y4.5921
G01 X36.7864 Y4.6300
G01 X36.7601 Y4.6655
G01 X36.7372 Y4.6911
G01 X36.7269 Y4.7016
G01 X36.7051 Y4.7214
G01 X36.6900 Y4.7339
G01 X36.6622 Y4.7542
G01 X36.6244 Y4.7769
G01 X36.5844 Y4.7957
G01 X36.5522 Y4.8075
G01 X36.5334 Y4.8132
G01 X36.5048 Y4.8203
G01 X36.4952 Y4.8223
G01 X36.4563 Y4.8278
G01 X36.4220 Y4.8298
G01 X36.3158 Y4.8300
G01 X34.6414 Y6.5044
G01 X34.6414 Y9.3226
G01 X35.0438 Y9.7250
G01 X35.6572 Y9.7250
G01 X35.7013 Y9.7272
G01 X35.7402 Y9.7327
G01 X35.7546 Y9.7358
G01 X35.7831 Y9.7430
G01 X35.7925 Y9.7459
G01 X35.8203 Y9.7557
G01 X35.8384 Y9.7632
G01 X35.8650 Y9.7759
G01 X35.8737 Y9.7805
G01 X35.9072 Y9.8008
G01 X35.9427 Y9.8271
G01 X35.9754 Y9.8568
G01 X35.9987 Y9.8821
G01 X36.0111 Y9.8973
G01 X36.0286 Y9.9209
G01 X36.0366 Y9.9333
G01 X36.0541 Y9.9629
G01 X36.0730 Y10.0028
G01 X36.0879 Y10.0444
G01 X36.0964 Y10.0776
G01 X36.0995 Y10.0920
G01 X36.1051 Y10.1309
G01 X36.1072 Y10.1750
G01 X36.1072 Y10.8750
G01 X36.1051 Y10.9191
G01 X36.0986 Y10.9628
G01 X36.0879 Y11.0056
G01 X36.0765 Y11.0380
G01 X36.0710 Y11.0517
G01 X36.0541 Y11.0871
G01 X36.0341 Y11.1209
G01 X36.0257 Y11.1330
G01 X36.0051 Y11.1605
G01 X35.9822 Y11.1861
G01 X35.9719 Y11.1966
G01 X35.9427 Y11.2229
G01 X35.9113 Y11.2464
G01 X35.8989 Y11.2544
G01 X35.8694 Y11.2719
G01 X35.8339 Y11.2888
G01 X35.8249 Y11.2926
G01 X35.7972 Y11.3025
G01 X35.7784 Y11.3082
G01 X35.7450 Y11.3164
G01 X35.7111 Y11.3216
G01 X35.6964 Y11.3233
G01 X35.6621 Y11.3249
G01 X34.7572 Y11.3250
G01 X34.7131 Y11.3228
G01 X34.6743 Y11.3173
G01 X34.6599 Y11.3142
G01 X34.6266 Y11.3056
G01 X34.5942 Y11.2943
G01 X34.5805 Y11.2888
G01 X34.5451 Y11.2719
G01 X34.5072 Y11.2492
G01 X34.4718 Y11.2229
G01 X34.4425 Y11.1966
G01 X34.4323 Y11.1861
G01 X34.4094 Y11.1605
G01 X34.3887 Y11.1330
G01 X34.3804 Y11.1209
G01 X34.3627 Y11.0914
G01 X34.3560 Y11.0784
G01 X34.3415 Y11.0472
G01 X34.3266 Y11.0056
G01 X34.3159 Y10.9628
G01 X34.3106 Y10.9289
G01 X34.3090 Y10.9142
G01 X34.3072 Y10.8750
G01 X34.3072 Y10.2616
G01 X33.8729 Y9.8273
G01 X33.8433 Y9.7946
G01 X33.8197 Y9.7631
G01 X33.8117 Y9.7508
G01 X33.7943 Y9.7212
G01 X33.7793 Y9.6902
G01 X33.7735 Y9.6767
G01 X33.7605 Y9.6397
G01 X33.7498 Y9.5968
G01 X33.7433 Y9.5531
G01 X33.7411 Y9.5090
G01 X33.7411 Y6.3180
G01 X33.7433 Y6.2739
G01 X33.7498 Y6.2302
G01 X33.7579 Y6.1968
G01 X33.7620 Y6.1827
G01 X33.7718 Y6.1549
G01 X33.7793 Y6.1368
G01 X33.7943 Y6.1058
G01 X33.8170 Y6.0679
G01 X33.8433 Y6.0324
G01 X33.8662 Y6.0068
G01 X35.3212 Y4.5515
G01 X35.3066 Y4.5106
G01 X35.2980 Y4.4774
G01 X35.2950 Y4.4630
G01 X35.2894 Y4.4241
G01 X35.2872 Y4.3800
G01 X35.2872 Y4.2393
G01 X35.2735 Y4.2267
G01 X35.2665 Y4.2198
G01 X35.2434 Y4.1943
G01 X35.2342 Y4.1828
G01 X35.2167 Y4.1591
G01 X35.2087 Y4.1468
G01 X35.1913 Y4.1172
G01 X35.1763 Y4.0862
G01 X35.1705 Y4.0727
G01 X35.1575 Y4.0357
G01 X35.1489 Y4.0024
G01 X35.1459 Y3.9880
G01 X35.1408 Y3.9540
G01 X35.1395 Y3.9393
G01 X35.1381 Y3.9050
G01 X35.1399 Y3.8658
G01 X35.1415 Y3.8511
G01 X35.1468 Y3.8172
G01 X35.1575 Y3.7743
G01 X35.1724 Y3.7327
G01 X35.1913 Y3.6928
G01 X35.2140 Y3.6549
G01 X35.2372 Y3.6233
G01 X35.2467 Y3.6120
G01 X35.2665 Y3.5902
G01 X35.2735 Y3.5833
G01 X35.2872 Y3.5707
G01 X35.2873 Y3.4251
G01 X35.2894 Y3.3859
G01 X35.2942 Y3.3519
G01 X35.2980 Y3.3326
G01 X35.3052 Y3.3041
G01 X35.3097 Y3.2901
G01 X35.3197 Y3.2624
G01 X35.3234 Y3.2533
G01 X35.3360 Y3.2266
G01 X35.3427 Y3.2136
G01 X35.3631 Y3.1800
G01 X35.3894 Y3.1445
G01 X35.4190 Y3.1118
G01 X35.4443 Y3.0886
G01 X35.4556 Y3.0791
G01 X35.4872 Y3.0558
G01 X35.5166 Y3.0380
G01 X35.5295 Y3.0309
G01 X35.5560 Y3.0182
G01 X35.5696 Y3.0124
G01 X35.6019 Y3.0009
G01 X35.6113 Y2.9980
G01 X35.6246 Y2.9946
G01 X35.6246 Y2.4501
G01 X30.1749 Y2.4501
G01 X30.1749 Y2.9946
G01 X30.1881 Y2.9980
G01 X30.1975 Y3.0009
G01 X30.2253 Y3.0107
G01 X30.2389 Y3.0162
G01 X30.2744 Y3.0331
G01 X30.3081 Y3.0532
G01 X30.3163 Y3.0586
G01 X30.3400 Y3.0761
G01 X30.3551 Y3.0886
G01 X30.3804 Y3.1118
G01 X30.4069 Y3.1408
G01 X30.4132 Y3.1484
G01 X30.4307 Y3.1720
G01 X30.4416 Y3.1883
G01 X30.4591 Y3.2179
G01 X30.4760 Y3.2533
G01 X30.4815 Y3.2670
G01 X30.4914 Y3.2947
G01 X30.4942 Y3.3041
G01 X30.5036 Y3.3422
G01 X30.5089 Y3.3761
G01 X30.5105 Y3.3908
G01 X30.5122 Y3.4300
G01 X30.5122 Y4.3849
G01 X30.5101 Y4.4241
G01 X30.5036 Y4.4678
G01 X30.4929 Y4.5106
G01 X30.4815 Y4.5430
G01 X30.4760 Y4.5567
G01 X30.4591 Y4.5921
G01 X30.4416 Y4.6217
G01 X30.4336 Y4.6341
G01 X30.4101 Y4.6655
G01 X30.3839 Y4.6947
G01 X30.3733 Y4.7050
G01 X30.3477 Y4.7279
G01 X30.3163 Y4.7514
G01 X30.3081 Y4.7568
G01 X30.2829 Y4.7720
G01 X30.2656 Y4.7813
G01 X30.2344 Y4.7957
G01 X30.1975 Y4.8091
G01 X30.1881 Y4.8120
G01 X30.1596 Y4.8192
G01 X30.1452 Y4.8223
G01 X30.1112 Y4.8273
G01 X30.1014 Y4.8283
G01 X30.0863 Y4.8291
G01 X30.0757 Y4.8432
G01 X30.0695 Y4.8508
G01 X30.0430 Y4.8798
G01 X28.2914 Y6.6314
G01 X28.2914 Y9.3276
G01 X28.6888 Y9.7250
G01 X29.3022 Y9.7250
G01 X29.3463 Y9.7272
G01 X29.3852 Y9.7327
G01 X29.3996 Y9.7358
G01 X29.4281 Y9.7430
G01 X29.4375 Y9.7459
G01 X29.4653 Y9.7557
G01 X29.4834 Y9.7632
G01 X29.5100 Y9.7759
G01 X29.5187 Y9.7805
G01 X29.5522 Y9.8008
G01 X29.5877 Y9.8271
G01 X29.6204 Y9.8568
G01 X29.6437 Y9.8821
G01 X29.6561 Y9.8973
G01 X29.6736 Y9.9209
G01 X29.6816 Y9.9333
G01 X29.6991 Y9.9629
G01 X29.7180 Y10.0028
G01 X29.7329 Y10.0444
G01 X29.7414 Y10.0776
G01 X29.7445 Y10.0920
G01 X29.7501 Y10.1309
G01 X29.7522 Y10.1750
G01 X29.7522 Y10.8750
G01 X29.7501 Y10.9191
G01 X29.7436 Y10.9628
G01 X29.7329 Y11.0056
G01 X29.7215 Y11.0380
G01 X29.7160 Y11.0517
G01 X29.6991 Y11.0871
G01 X29.6791 Y11.1209
G01 X29.6707 Y11.1330
G01 X29.6501 Y11.1605
G01 X29.6272 Y11.1861
G01 X29.6169 Y11.1966
G01 X29.5877 Y11.2229
G01 X29.5563 Y11.2464
G01 X29.5439 Y11.2544
G01 X29.5144 Y11.2719
G01 X29.4789 Y11.2888
G01 X29.4699 Y11.2926
G01 X29.4422 Y11.3025
G01 X29.4234 Y11.3082
G01 X29.3900 Y11.3164
G01 X29.3561 Y11.3216
G01 X29.3414 Y11.3233
G01 X29.3071 Y11.3249
G01 X28.4022 Y11.3250
G01 X28.3630 Y11.3233
G01 X28.3484 Y11.3216
G01 X28.3144 Y11.3164
G01 X28.2763 Y11.3070
G01 X28.2623 Y11.3025
G01 X28.2300 Y11.2907
G01 X28.1989 Y11.2763
G01 X28.1858 Y11.2695
G01 X28.1522 Y11.2492
G01 X28.1168 Y11.2229
G01 X28.0875 Y11.1966
G01 X28.0773 Y11.1861
G01 X28.0544 Y11.1605
G01 X28.0337 Y11.1330
G01 X28.0254 Y11.1209
G01 X28.0077 Y11.0914
G01 X28.0010 Y11.0784
G01 X27.9865 Y11.0472
G01 X27.9716 Y11.0056
G01 X27.9609 Y10.9628
G01 X27.9556 Y10.9289
G01 X27.9540 Y10.9142
G01 X27.9522 Y10.8750
G01 X27.9522 Y10.2616
G01 X27.5229 Y9.8323
G01 X27.4933 Y9.7996
G01 X27.4697 Y9.7681
G01 X27.4617 Y9.7558
G01 X27.4443 Y9.7262
G01 X27.4293 Y9.6952
G01 X27.4235 Y9.6817
G01 X27.4105 Y9.6447
G01 X27.3998 Y9.6018
G01 X27.3933 Y9.5581
G01 X27.3911 Y9.5140
G01 X27.3911 Y6.4450
G01 X27.3933 Y6.4009
G01 X27.3998 Y6.3572
G01 X27.4079 Y6.3238
G01 X27.4120 Y6.3097
G01 X27.4218 Y6.2819
G01 X27.4293 Y6.2638
G01 X27.4443 Y6.2328
G01 X27.4670 Y6.1949
G01 X27.4933 Y6.1594
G01 X27.5162 Y6.1338
G01 X29.0157 Y4.6339
G01 X29.0104 Y4.6259
G01 X28.9952 Y4.6007
G01 X28.9881 Y4.5878
G01 X28.9715 Y4.5522
G01 X28.9597 Y4.5199
G01 X28.9552 Y4.5059
G01 X28.9459 Y4.4678
G01 X28.9399 Y4.4290
G01 X28.9387 Y4.4143
G01 X28.9372 Y4.3800
G01 X28.9372 Y3.4300
G01 X28.9387 Y3.3957
G01 X28.9399 Y3.3810
G01 X28.9459 Y3.3422
G01 X28.9540 Y3.3088
G01 X28.9581 Y3.2947
G01 X28.9715 Y3.2578
G01 X28.9904 Y3.2179
G01 X29.0078 Y3.1883
G01 X29.0187 Y3.1720
G01 X29.0363 Y3.1484
G01 X29.0425 Y3.1408
G01 X29.0690 Y3.1118
G01 X29.0943 Y3.0886
G01 X29.1095 Y3.0761
G01 X29.1332 Y3.0586
G01 X29.1413 Y3.0532
G01 X29.1751 Y3.0331
G01 X29.2105 Y3.0162
G01 X29.2242 Y3.0107
G01 X29.2519 Y3.0009
G01 X29.2613 Y2.9980
G01 X29.2746 Y2.9946
G01 X29.2746 Y2.4501
G01 X23.8249 Y2.4501
G01 X23.8249 Y2.9946
G01 X23.8381 Y2.9980
G01 X23.8475 Y3.0009
G01 X23.8799 Y3.0124
G01 X23.8934 Y3.0182
G01 X23.9200 Y3.0309
G01 X23.9287 Y3.0355
G01 X23.9622 Y3.0558
G01 X23.9900 Y3.0761
G01 X24.0051 Y3.0886
G01 X24.0269 Y3.1084
G01 X24.0339 Y3.1153
G01 X24.0601 Y3.1445
G01 X24.0807 Y3.1720
G01 X24.0891 Y3.1841
G01 X24.1091 Y3.2179
G01 X24.1280 Y3.2578
G01 X24.1398 Y3.2901
G01 X24.1455 Y3.3088
G01 X24.1526 Y3.3374
G01 X24.1545 Y3.3470
G01 X24.1601 Y3.3859
G01 X24.1622 Y3.4300
G01 X24.1622 Y4.3849
G01 X24.1601 Y4.4241
G01 X24.1545 Y4.4630
G01 X24.1526 Y4.4726
G01 X24.1455 Y4.5012
G01 X24.1398 Y4.5199
G01 X24.1280 Y4.5522
G01 X24.1091 Y4.5921
G01 X24.0864 Y4.6300
G01 X24.0632 Y4.6616
G01 X24.0537 Y4.6729
G01 X24.0339 Y4.6947
G01 X24.0269 Y4.7016
G01 X24.0051 Y4.7214
G01 X23.9900 Y4.7339
G01 X23.9663 Y4.7514
G01 X23.9581 Y4.7568
G01 X23.9244 Y4.7769
G01 X23.8889 Y4.7938
G01 X23.8753 Y4.7993
G01 X23.8475 Y4.8091
G01 X23.8381 Y4.8120
G01 X23.8249 Y4.8154
G01 X23.8249 Y5.0695
G01 X23.8227 Y5.1136
G01 X23.8162 Y5.1573
G01 X23.8055 Y5.2002
G01 X23.7906 Y5.2418
G01 X23.7740 Y5.2773
G01 X23.7693 Y5.2860
G01 X23.7542 Y5.3113
G01 X23.7433 Y5.3276
G01 X23.7227 Y5.3551
G01 X23.6930 Y5.3878
G01 X22.9705 Y6.1102
G01 X22.9413 Y6.1365
G01 X22.9138 Y6.1571
G01 X22.9017 Y6.1654
G01 X22.8679 Y6.1855
G01 X22.8280 Y6.2044
G01 X22.7864 Y6.2192
G01 X22.7435 Y6.2300
G01 X22.7047 Y6.2359
G01 X22.6901 Y6.2372
G01 X22.6557 Y6.2386
G01 X21.9414 Y6.2386
G01 X21.9414 Y9.3226
G01 X22.3438 Y9.7250
G01 X22.9572 Y9.7250
G01 X23.0013 Y9.7272
G01 X23.0402 Y9.7327
G01 X23.0546 Y9.7358
G01 X23.0831 Y9.7430
G01 X23.0925 Y9.7459
G01 X23.1203 Y9.7557
G01 X23.1384 Y9.7632
G01 X23.1650 Y9.7759
G01 X23.1737 Y9.7805
G01 X23.2072 Y9.8008
G01 X23.2427 Y9.8271
G01 X23.2754 Y9.8568
G01 X23.2987 Y9.8821
G01 X23.3111 Y9.8973
G01 X23.3286 Y9.9209
G01 X23.3366 Y9.9333
G01 X23.3541 Y9.9629
G01 X23.3730 Y10.0028
G01 X23.3879 Y10.0444
G01 X23.3964 Y10.0776
G01 X23.3995 Y10.0920
G01 X23.4051 Y10.1309
G01 X23.4072 Y10.1750
G01 X23.4072 Y10.8750
G01 X23.4051 Y10.9191
G01 X23.3986 Y10.9628
G01 X23.3879 Y11.0056
G01 X23.3765 Y11.0380
G01 X23.3710 Y11.0517
G01 X23.3541 Y11.0871
G01 X23.3341 Y11.1209
G01 X23.3257 Y11.1330
G01 X23.3051 Y11.1605
G01 X23.2822 Y11.1861
G01 X23.2719 Y11.1966
G01 X23.2427 Y11.2229
G01 X23.2113 Y11.2464
G01 X23.1989 Y11.2544
G01 X23.1694 Y11.2719
G01 X23.1339 Y11.2888
G01 X23.1249 Y11.2926
G01 X23.0972 Y11.3025
G01 X23.0784 Y11.3082
G01 X23.0450 Y11.3164
G01 X23.0111 Y11.3216
G01 X22.9964 Y11.3233
G01 X22.9621 Y11.3249
G01 X22.0572 Y11.3250
G01 X22.0229 Y11.3236
G01 X22.0082 Y11.3223
G01 X21.9694 Y11.3164
G01 X21.9361 Y11.3082
G01 X21.9219 Y11.3041
G01 X21.8896 Y11.2926
G01 X21.8760 Y11.2868
G01 X21.8451 Y11.2719
G01 X21.8113 Y11.2518
G01 X21.7992 Y11.2435
G01 X21.7718 Y11.2229
G01 X21.7425 Y11.1966
G01 X21.7323 Y11.1861
G01 X21.7094 Y11.1605
G01 X21.6887 Y11.1330
G01 X21.6804 Y11.1209
G01 X21.6627 Y11.0914
G01 X21.6560 Y11.0784
G01 X21.6415 Y11.0472
G01 X21.6266 Y11.0056
G01 X21.6159 Y10.9628
G01 X21.6106 Y10.9289
G01 X21.6090 Y10.9142
G01 X21.6072 Y10.8750
G01 X21.6072 Y10.2616
G01 X21.1729 Y9.8273
G01 X21.1433 Y9.7946
G01 X21.1197 Y9.7631
G01 X21.1117 Y9.7508
G01 X21.0943 Y9.7212
G01 X21.0793 Y9.6902
G01 X21.0735 Y9.6767
G01 X21.0605 Y9.6397
G01 X21.0519 Y9.6064
G01 X21.0489 Y9.5920
G01 X21.0433 Y9.5531
G01 X21.0411 Y9.5090
G01 X21.0411 Y5.7885
G01 X21.0433 Y5.7444
G01 X21.0489 Y5.7055
G01 X21.0519 Y5.6911
G01 X21.0605 Y5.6578
G01 X21.0754 Y5.6162
G01 X21.0920 Y5.5807
G01 X21.0991 Y5.5678
G01 X21.1170 Y5.5384
G01 X21.1433 Y5.5029
G01 X21.1695 Y5.4737
G01 X21.1801 Y5.4634
G01 X21.2057 Y5.4405
G01 X21.2412 Y5.4142
G01 X21.2790 Y5.3915
G01 X21.3100 Y5.3766
G01 X21.3281 Y5.3691
G01 X21.3559 Y5.3592
G01 X21.3653 Y5.3564
G01 X21.3986 Y5.3480
G01 X21.4131 Y5.3453
G01 X21.4471 Y5.3405
G01 X21.4863 Y5.3384
G01 X22.4693 Y5.3384
G01 X22.9246 Y4.8831
G01 X22.9246 Y4.8154
G01 X22.9113 Y4.8120
G01 X22.9019 Y4.8091
G01 X22.8742 Y4.7993
G01 X22.8605 Y4.7938
G01 X22.8251 Y4.7769
G01 X22.7955 Y4.7594
G01 X22.7832 Y4.7514
G01 X22.7518 Y4.7279
G01 X22.7190 Y4.6982
G01 X22.6894 Y4.6655
G01 X22.6631 Y4.6300
G01 X22.6404 Y4.5921
G01 X22.6255 Y4.5612
G01 X22.6197 Y4.5476
G01 X22.6066 Y4.5106
G01 X22.5959 Y4.4678
G01 X22.5906 Y4.4339
G01 X22.5890 Y4.4192
G01 X22.5872 Y4.3800
G01 X22.5872 Y3.4300
G01 X22.5894 Y3.3859
G01 X22.5950 Y3.3470
G01 X22.5969 Y3.3374
G01 X22.6040 Y3.3088
G01 X22.6097 Y3.2901
G01 X22.6215 Y3.2578
G01 X22.6404 Y3.2179
G01 X22.6604 Y3.1841
G01 X22.6687 Y3.1720
G01 X22.6894 Y3.1445
G01 X22.7156 Y3.1153
G01 X22.7225 Y3.1084
G01 X22.7443 Y3.0886
G01 X22.7595 Y3.0761
G01 X22.7872 Y3.0558
G01 X22.8208 Y3.0355
G01 X22.8295 Y3.0309
G01 X22.8560 Y3.0182
G01 X22.8696 Y3.0124
G01 X22.9019 Y3.0009
G01 X22.9113 Y2.9980
G01 X22.9246 Y2.9946
G01 X22.9246 Y2.4501
G01 X17.4749 Y2.4501
G01 X17.4749 Y2.9946
G01 X17.4881 Y2.9980
G01 X17.4975 Y3.0009
G01 X17.5253 Y3.0107
G01 X17.5389 Y3.0162
G01 X17.5744 Y3.0331
G01 X17.6081 Y3.0532
G01 X17.6163 Y3.0586
G01 X17.6400 Y3.0761
G01 X17.6551 Y3.0886
G01 X17.6804 Y3.1118
G01 X17.7069 Y3.1408
G01 X17.7132 Y3.1484
G01 X17.7307 Y3.1720
G01 X17.7416 Y3.1883
G01 X17.7591 Y3.2179
G01 X17.7760 Y3.2533
G01 X17.7815 Y3.2670
G01 X17.7914 Y3.2947
G01 X17.7942 Y3.3041
G01 X17.8036 Y3.3422
G01 X17.8089 Y3.3761
G01 X17.8105 Y3.3908
G01 X17.8122 Y3.4300
G01 X17.8122 Y4.3849
G01 X17.8101 Y4.4241
G01 X17.8036 Y4.4678
G01 X17.7929 Y4.5106
G01 X17.7815 Y4.5430
G01 X17.7760 Y4.5567
G01 X17.7614 Y4.5878
G01 X17.7543 Y4.6007
G01 X17.7364 Y4.6300
G01 X17.7161 Y4.6577
G01 X17.7069 Y4.6692
G01 X17.6839 Y4.6947
G01 X17.6733 Y4.7050
G01 X17.6515 Y4.7247
G01 X17.6400 Y4.7339
G01 X17.6122 Y4.7542
G01 X17.5829 Y4.7720
G01 X17.5700 Y4.7791
G01 X17.5434 Y4.7918
G01 X17.5299 Y4.7976
G01 X17.4975 Y4.8091
G01 X17.4881 Y4.8120
G01 X17.4749 Y4.8154
G01 X17.4727 Y4.8596
G01 X17.4662 Y4.9033
G01 X17.4555 Y4.9462
G01 X17.4406 Y4.9878
G01 X17.4217 Y5.0277
G01 X17.3990 Y5.0656
G01 X17.3727 Y5.1011
G01 X17.3456 Y5.1311
G01 X15.3374 Y7.1394
G01 X15.3374 Y8.1636
G01 X16.4855 Y9.3117
G01 X16.5152 Y9.3444
G01 X16.5415 Y9.3799
G01 X16.5642 Y9.4178
G01 X16.5831 Y9.4577
G01 X16.5949 Y9.4900
G01 X16.5993 Y9.5041
G01 X16.6087 Y9.5422
G01 X16.6140 Y9.5761
G01 X16.6156 Y9.5908
G01 X16.6173 Y9.6251
G01 X16.6174 Y9.7250
G01 X16.6564 Y9.7267
G01 X16.6711 Y9.7284
G01 X16.7050 Y9.7336
G01 X16.7384 Y9.7418
G01 X16.7525 Y9.7459
G01 X16.7894 Y9.7593
G01 X16.8294 Y9.7781
G01 X16.8631 Y9.7982
G01 X16.8753 Y9.8065
G01 X16.9027 Y9.8271
G01 X16.9283 Y9.8500
G01 X16.9389 Y9.8603
G01 X16.9651 Y9.8895
G01 X16.9886 Y9.9209
G01 X16.9966 Y9.9333
G01 X17.0141 Y9.9629
G01 X17.0290 Y9.9938
G01 X17.0348 Y10.0074
G01 X17.0464 Y10.0397
G01 X17.0505 Y10.0538
G01 X17.0586 Y10.0872
G01 X17.0645 Y10.1260
G01 X17.0658 Y10.1407
G01 X17.0672 Y10.1750
G01 X17.0672 Y10.8750
G01 X17.0651 Y10.9191
G01 X17.0586 Y10.9628
G01 X17.0479 Y11.0056
G01 X17.0365 Y11.0380
G01 X17.0310 Y11.0517
G01 X17.0141 Y11.0871
G01 X16.9941 Y11.1209
G01 X16.9857 Y11.1330
G01 X16.9651 Y11.1605
G01 X16.9422 Y11.1861
G01 X16.9319 Y11.1966
G01 X16.9027 Y11.2229
G01 X16.8713 Y11.2464
G01 X16.8589 Y11.2544
G01 X16.8294 Y11.2719
G01 X16.7939 Y11.2888
G01 X16.7849 Y11.2926
G01 X16.7572 Y11.3025
G01 X16.7384 Y11.3082
G01 X16.7050 Y11.3164
G01 X16.6711 Y11.3216
G01 X16.6564 Y11.3233
G01 X16.6221 Y11.3249
G01 X15.7172 Y11.3250
G01 X15.6829 Y11.3236
G01 X15.6634 Y11.3216
G01 X15.6343 Y11.3173
G01 X15.6199 Y11.3142
G01 X15.5913 Y11.3070
G01 X15.5819 Y11.3041
G01 X15.5496 Y11.2926
G01 X15.5360 Y11.2868
G01 X15.5095 Y11.2741
G01 X15.5008 Y11.2695
G01 X15.4755 Y11.2544
G01 X15.4632 Y11.2464
G01 X15.4318 Y11.2229
G01 X15.4061 Y11.2000
G01 X15.3956 Y11.1897
G01 X15.3694 Y11.1605
G01 X15.3431 Y11.1250
G01 X15.3204 Y11.0871
G01 X15.3015 Y11.0472
G01 X15.2866 Y11.0056
G01 X15.2759 Y10.9628
G01 X15.2694 Y10.9191
G01 X15.2673 Y10.8799
G01 X15.2673 Y10.1701
G01 X15.2694 Y10.1309
G01 X15.2742 Y10.0969
G01 X15.2780 Y10.0776
G01 X15.2852 Y10.0491
G01 X15.2881 Y10.0397
G01 X15.3015 Y10.0028
G01 X15.3160 Y9.9716
G01 X15.3227 Y9.9586
G01 X15.3431 Y9.9250
G01 X15.3663 Y9.8934
G01 X15.3758 Y9.8821
G01 X15.3990 Y9.8568
G01 X15.4243 Y9.8336
G01 X15.4356 Y9.8241
G01 X15.4672 Y9.8008
G01 X15.5008 Y9.7805
G01 X15.5139 Y9.7737
G01 X15.5450 Y9.7593
G01 X15.5819 Y9.7459
G01 X15.5961 Y9.7418
G01 X15.6246 Y9.7347
G01 X15.6335 Y9.7329
G01 X14.5655 Y8.6648
G01 X14.5424 Y8.6393
G01 X14.5332 Y8.6278
G01 X14.5130 Y8.6001
G01 X14.4951 Y8.5707
G01 X14.4880 Y8.5578
G01 X14.4714 Y8.5223
G01 X14.4596 Y8.4900
G01 X14.4551 Y8.4759
G01 X14.4458 Y8.4378
G01 X14.4405 Y8.4039
G01 X14.4389 Y8.3892
G01 X14.4371 Y8.3500
G01 X14.4371 Y6.9530
G01 X14.4393 Y6.9089
G01 X14.4458 Y6.8652
G01 X14.4539 Y6.8318
G01 X14.4580 Y6.8177
G01 X14.4678 Y6.7899
G01 X14.4753 Y6.7718
G01 X14.4903 Y6.7408
G01 X14.5130 Y6.7029
G01 X14.5393 Y6.6674
G01 X14.5655 Y6.6382
G01 X16.4447 Y4.7589
G01 X16.4292 Y4.7485
G01 X16.4018 Y4.7279
G01 X16.3690 Y4.6982
G01 X16.3394 Y4.6655
G01 X16.3131 Y4.6300
G01 X16.2904 Y4.5921
G01 X16.2715 Y4.5522
G01 X16.2566 Y4.5106
G01 X16.2469 Y4.4726
G01 X16.2442 Y4.4581
G01 X16.2394 Y4.4241
G01 X16.2372 Y4.3800
G01 X16.2372 Y3.4300
G01 X16.2387 Y3.3957
G01 X16.2406 Y3.3761
G01 X16.2450 Y3.3470
G01 X16.2480 Y3.3326
G01 X16.2566 Y3.2994
G01 X16.2715 Y3.2578
G01 X16.2904 Y3.2179
G01 X16.3078 Y3.1883
G01 X16.3158 Y3.1759
G01 X16.3394 Y3.1445
G01 X16.3690 Y3.1118
G01 X16.3943 Y3.0886
G01 X16.4095 Y3.0761
G01 X16.4332 Y3.0586
G01 X16.4413 Y3.0532
G01 X16.4751 Y3.0331
G01 X16.5105 Y3.0162
G01 X16.5242 Y3.0107
G01 X16.5519 Y3.0009
G01 X16.5613 Y2.9980
G01 X16.5746 Y2.9946
G01 X16.5746 Y2.4501
G01 X11.1249 Y2.4501
G01 X11.1249 Y2.9946
G01 X11.1381 Y2.9980
G01 X11.1475 Y3.0009
G01 X11.1753 Y3.0107
G01 X11.1889 Y3.0162
G01 X11.2244 Y3.0331
G01 X11.2581 Y3.0532
G01 X11.2663 Y3.0586
G01 X11.2900 Y3.0761
G01 X11.3051 Y3.0886
G01 X11.3304 Y3.1118
G01 X11.3569 Y3.1408
G01 X11.3632 Y3.1484
G01 X11.3807 Y3.1720
G01 X11.3916 Y3.1883
G01 X11.4091 Y3.2179
G01 X11.4260 Y3.2533
G01 X11.4315 Y3.2670
G01 X11.4414 Y3.2947
G01 X11.4442 Y3.3041
G01 X11.4536 Y3.3422
G01 X11.4589 Y3.3761
G01 X11.4605 Y3.3908
G01 X11.4622 Y3.4300
G01 X11.4622 Y4.3849
G01 X11.4601 Y4.4241
G01 X11.4536 Y4.4678
G01 X11.4429 Y4.5106
G01 X11.4315 Y4.5430
G01 X11.4260 Y4.5567
G01 X11.4114 Y4.5878
G01 X11.4043 Y4.6007
G01 X11.3864 Y4.6300
G01 X11.3661 Y4.6577
G01 X11.3569 Y4.6692
G01 X11.3304 Y4.6982
G01 X11.2977 Y4.7279
G01 X11.2622 Y4.7542
G01 X11.2287 Y4.7745
G01 X11.2156 Y4.7813
G01 X11.1844 Y4.7957
G01 X11.1522 Y4.8075
G01 X11.1381 Y4.8120
G01 X11.1051 Y4.8203
G01 X11.0941 Y4.8516
G01 X11.0887 Y4.8653
G01 X11.0740 Y4.8963
G01 X11.0669 Y4.9092
G01 X11.0490 Y4.9386
G01 X11.0287 Y4.9663
G01 X11.0195 Y4.9778
G01 X10.9956 Y5.0041
G01 X9.2414 Y6.7584
G01 X9.2414 Y8.4176
G01 X10.1255 Y9.3017
G01 X10.1488 Y9.3270
G01 X10.1582 Y9.3383
G01 X10.1815 Y9.3699
G01 X10.1994 Y9.3993
G01 X10.2065 Y9.4122
G01 X10.2191 Y9.4388
G01 X10.2249 Y9.4523
G01 X10.2365 Y9.4847
G01 X10.2406 Y9.4988
G01 X10.2477 Y9.5274
G01 X10.2496 Y9.5370
G01 X10.2540 Y9.5661
G01 X10.2556 Y9.5808
G01 X10.2574 Y9.6200
G01 X10.2574 Y9.7250
G01 X10.2964 Y9.7267
G01 X10.3111 Y9.7284
G01 X10.3450 Y9.7336
G01 X10.3784 Y9.7418
G01 X10.3925 Y9.7459
G01 X10.4294 Y9.7593
G01 X10.4650 Y9.7759
G01 X10.4779 Y9.7830
G01 X10.5072 Y9.8008
G01 X10.5350 Y9.8211
G01 X10.5465 Y9.8303
G01 X10.5754 Y9.8568
G01 X10.6019 Y9.8858
G01 X10.6111 Y9.8973
G01 X10.6314 Y9.9250
G01 X10.6517 Y9.9586
G01 X10.6585 Y9.9716
G01 X10.6730 Y10.0028
G01 X10.6848 Y10.0351
G01 X10.6892 Y10.0491
G01 X10.6976 Y10.0824
G01 X10.7003 Y10.0969
G01 X10.7051 Y10.1309
G01 X10.7070 Y10.1652
G01 X10.7072 Y10.8750
G01 X10.7051 Y10.9191
G01 X10.6986 Y10.9628
G01 X10.6879 Y11.0056
G01 X10.6765 Y11.0380
G01 X10.6710 Y11.0517
G01 X10.6541 Y11.0871
G01 X10.6341 Y11.1209
G01 X10.6257 Y11.1330
G01 X10.6051 Y11.1605
G01 X10.5822 Y11.1861
G01 X10.5719 Y11.1966
G01 X10.5427 Y11.2229
G01 X10.5113 Y11.2464
G01 X10.4989 Y11.2544
G01 X10.4694 Y11.2719
G01 X10.4339 Y11.2888
G01 X10.4203 Y11.2943
G01 X10.3925 Y11.3041
G01 X10.3831 Y11.3070
G01 X10.3450 Y11.3164
G01 X10.3111 Y11.3216
G01 X10.2964 Y11.3233
G01 X10.2621 Y11.3249
G01 X9.3474 Y11.3248
G01 X9.3131 Y11.3228
G01 X9.2694 Y11.3164
G01 X9.2266 Y11.3056
G01 X9.1850 Y11.2907
G01 X9.1451 Y11.2719
G01 X9.1072 Y11.2492
G01 X9.0718 Y11.2229
G01 X9.0390 Y11.1932
G01 X9.0094 Y11.1605
G01 X8.9831 Y11.1250
G01 X8.9604 Y11.0871
G01 X8.9415 Y11.0472
G01 X8.9266 Y11.0056
G01 X8.9159 Y10.9628
G01 X8.9094 Y10.9191
G01 X8.9075 Y10.8848
G01 X8.9073 Y10.1701
G01 X8.9094 Y10.1309
G01 X8.9142 Y10.0969
G01 X8.9180 Y10.0776
G01 X8.9252 Y10.0491
G01 X8.9281 Y10.0397
G01 X8.9415 Y10.0028
G01 X8.9560 Y9.9716
G01 X8.9627 Y9.9586
G01 X8.9831 Y9.9250
G01 X9.0063 Y9.8934
G01 X9.0158 Y9.8821
G01 X9.0390 Y9.8568
G01 X9.0680 Y9.8303
G01 X9.0795 Y9.8211
G01 X9.1032 Y9.8036
G01 X9.1113 Y9.7982
G01 X9.1451 Y9.7781
G01 X9.1760 Y9.7632
G01 X9.1896 Y9.7574
G01 X9.2266 Y9.7444
G01 X9.2646 Y9.7347
G01 X9.2822 Y9.7315
G01 X8.4729 Y8.9223
G01 X8.4497 Y8.8970
G01 X8.4402 Y8.8857
G01 X8.4170 Y8.8541
G01 X8.3966 Y8.8205
G01 X8.3898 Y8.8074
G01 X8.3754 Y8.7763
G01 X8.3636 Y8.7440
G01 X8.3591 Y8.7299
G01 X8.3498 Y8.6918
G01 X8.3433 Y8.6481
G01 X8.3411 Y8.6040
G01 X8.3411 Y6.5720
G01 X8.3433 Y6.5279
G01 X8.3498 Y6.4842
G01 X8.3579 Y6.4508
G01 X8.3620 Y6.4367
G01 X8.3718 Y6.4089
G01 X8.3793 Y6.3908
G01 X8.3943 Y6.3598
G01 X8.4170 Y6.3219
G01 X8.4433 Y6.2864
G01 X8.4662 Y6.2608
G01 X10.0238 Y4.7028
G01 X10.0156 Y4.6947
G01 X9.9925 Y4.6692
G01 X9.9863 Y4.6616
G01 X9.9687 Y4.6380
G01 X9.9578 Y4.6217
G01 X9.9427 Y4.5964
G01 X9.9360 Y4.5834
G01 X9.9215 Y4.5522
G01 X9.9066 Y4.5106
G01 X9.8959 Y4.4678
G01 X9.8894 Y4.4241
G01 X9.8872 Y4.3800
G01 X9.8872 Y3.4300
G01 X9.8894 Y3.3859
G01 X9.8950 Y3.3470
G01 X9.8980 Y3.3326
G01 X9.9066 Y3.2994
G01 X9.9215 Y3.2578
G01 X9.9404 Y3.2179
G01 X9.9578 Y3.1883
G01 X9.9687 Y3.1720
G01 X9.9863 Y3.1484
G01 X9.9925 Y3.1408
G01 X10.0190 Y3.1118
G01 X10.0443 Y3.0886
G01 X10.0595 Y3.0761
G01 X10.0832 Y3.0586
G01 X10.0913 Y3.0532
G01 X10.1251 Y3.0331
G01 X10.1605 Y3.0162
G01 X10.1742 Y3.0107
G01 X10.2019 Y3.0009
G01 X10.2113 Y2.9980
G01 X10.2246 Y2.9946
G01 X10.2246 Y2.4501
G01 X4.6694 Y2.4501
G01 X4.6694 Y2.9801
G01 X4.7063 Y2.9822
G01 X4.7500 Y2.9886
G01 X4.7929 Y2.9994
G01 X4.8299 Y3.0124
G01 X4.8434 Y3.0182
G01 X4.8700 Y3.0309
G01 X4.8787 Y3.0355
G01 X4.9039 Y3.0506
G01 X4.9203 Y3.0615
G01 X4.9439 Y3.0791
G01 X4.9515 Y3.0853
G01 X4.9804 Y3.1118
G01 X5.0101 Y3.1445
G01 X5.0364 Y3.1800
G01 X5.0543 Y3.2093
G01 X5.0614 Y3.2222
G01 X5.0740 Y3.2488
G01 X5.0815 Y3.2670
G01 X5.0914 Y3.2947
G01 X5.0942 Y3.3041
G01 X5.1014 Y3.3326
G01 X5.1045 Y3.3470
G01 X5.1101 Y3.3859
G01 X5.1122 Y3.4300
G01 X5.1120 Y4.3898
G01 X5.1101 Y4.4241
G01 X5.1053 Y4.4581
G01 X5.1026 Y4.4726
G01 X5.0942 Y4.5059
G01 X5.0898 Y4.5199
G01 X5.0780 Y4.5522
G01 X5.0635 Y4.5834
G01 X5.0567 Y4.5964
G01 X5.0416 Y4.6217
G01 X5.0336 Y4.6341
G01 X5.0132 Y4.6616
G01 X5.0037 Y4.6729
G01 X4.9804 Y4.6982
G01 X4.9551 Y4.7214
G01 X4.9439 Y4.7309
G01 X4.9203 Y4.7485
G01 X4.9081 Y4.7568
G01 X4.8744 Y4.7769
G01 X4.8344 Y4.7957
G01 X4.7929 Y4.8106
G01 X4.7596 Y4.8192
G01 X4.7452 Y4.8223
G01 X4.7063 Y4.8278
G01 X4.6622 Y4.8300
G01 X3.9823 Y4.8299
G01 X3.9431 Y4.8278
G01 X3.9043 Y4.8223
G01 X3.8899 Y4.8192
G01 X3.8613 Y4.8120
G01 X3.8519 Y4.8091
G01 X3.8318 Y4.8020
G01 X2.6374 Y5.9964
G01 X2.6374 Y9.4336
G01 X2.9349 Y9.7311
G01 X2.9582 Y9.7277
G01 X2.9680 Y9.7267
G01 X3.0072 Y9.7250
G01 X3.9072 Y9.7250
G01 X3.9513 Y9.7272
G01 X3.9950 Y9.7336
G01 X4.0284 Y9.7418
G01 X4.0425 Y9.7459
G01 X4.0703 Y9.7557
G01 X4.0884 Y9.7632
G01 X4.1194 Y9.7781
G01 X4.1572 Y9.8008
G01 X4.1927 Y9.8271
G01 X4.2254 Y9.8568
G01 X4.2551 Y9.8895
G01 X4.2814 Y9.9250
G01 X4.3041 Y9.9629
G01 X4.3190 Y9.9938
G01 X4.3265 Y10.0120
G01 X4.3364 Y10.0397
G01 X4.3405 Y10.0538
G01 X4.3476 Y10.0824
G01 X4.3495 Y10.0920
G01 X4.3539 Y10.1211
G01 X4.3555 Y10.1358
G01 X4.3572 Y10.1750
G01 X4.3572 Y10.8750
G01 X4.3558 Y10.9093
G01 X4.3545 Y10.9240
G01 X4.3486 Y10.9628
G01 X4.3379 Y11.0056
G01 X4.3230 Y11.0472
G01 X4.3085 Y11.0784
G01 X4.3017 Y11.0914
G01 X4.2841 Y11.1209
G01 X4.2757 Y11.1330
G01 X4.2551 Y11.1605
G01 X4.2322 Y11.1861
G01 X4.2219 Y11.1966
G01 X4.1927 Y11.2229
G01 X4.1572 Y11.2492
G01 X4.1194 Y11.2719
G01 X4.0839 Y11.2888
G01 X4.0703 Y11.2943
G01 X4.0379 Y11.3056
G01 X4.0046 Y11.3142
G01 X3.9902 Y11.3173
G01 X3.9562 Y11.3223
G01 X3.9415 Y11.3236
G01 X3.9072 Y11.3250
G01 X2.9974 Y11.3248
G01 X2.9631 Y11.3228
G01 X2.9291 Y11.3180
G01 X2.9146 Y11.3153
G01 X2.8813 Y11.3070
G01 X2.8673 Y11.3025
G01 X2.8350 Y11.2907
G01 X2.8039 Y11.2763
G01 X2.7908 Y11.2695
G01 X2.7572 Y11.2492
G01 X2.7218 Y11.2229
G01 X2.6890 Y11.1932
G01 X2.6625 Y11.1642
G01 X2.6533 Y11.1527
G01 X2.6358 Y11.1291
G01 X2.6304 Y11.1209
G01 X2.6152 Y11.0957
G01 X2.6081 Y11.0828
G01 X2.5955 Y11.0562
G01 X2.5880 Y11.0380
G01 X2.5766 Y11.0056
G01 X2.5669 Y10.9676
G01 X2.5650 Y10.9580
G01 X2.5606 Y10.9289
G01 X2.5590 Y10.9142
G01 X2.5572 Y10.8750
G01 X2.5572 Y10.6266
G01 X1.8689 Y9.9383
G01 X1.8424 Y9.9093
G01 X1.8362 Y9.9017
G01 X1.8186 Y9.8781
G01 X1.8077 Y9.8618
G01 X1.7903 Y9.8322
G01 X1.7714 Y9.7923
G01 X1.7565 Y9.7507
G01 X1.7479 Y9.7174
G01 X1.7441 Y9.6981
G01 X1.7398 Y9.6690
G01 X1.7385 Y9.6543
G00 Z2.0000
G00 X2.5781 Y12.0397
G01 F60.00
G01 Z-0.3621
G01 F120.00
G01 X2.5915 Y12.0028
G01 X2.6060 Y11.9716
G01 X2.6127 Y11.9586
G01 X2.6331 Y11.9250
G01 X2.6563 Y11.8934
G01 X2.6658 Y11.8821
G01 X2.6890 Y11.8568
G01 X2.7143 Y11.8336
G01 X2.7256 Y11.8241
G01 X2.7572 Y11.8008
G01 X2.7866 Y11.7830
G01 X2.7995 Y11.7759
G01 X2.8305 Y11.7612
G01 X2.8442 Y11.7557
G01 X2.8766 Y11.7444
G01 X2.9146 Y11.7347
G01 X2.9291 Y11.7320
G01 X2.9631 Y11.7272
G01 X3.0072 Y11.7250
G01 X3.9121 Y11.7251
G01 X3.9513 Y11.7272
G01 X3.9950 Y11.7336
G01 X4.0379 Y11.7444
G01 X4.0703 Y11.7557
G01 X4.0884 Y11.7632
G01 X4.1150 Y11.7759
G01 X4.1279 Y11.7830
G01 X4.1572 Y11.8008
G01 X4.1927 Y11.8271
G01 X4.2254 Y11.8568
G01 X4.2487 Y11.8821
G01 X4.2611 Y11.8973
G01 X4.2786 Y11.9209
G01 X4.2866 Y11.9333
G01 X4.3041 Y11.9629
G01 X4.3230 Y12.0028
G01 X4.3379 Y12.0444
G01 X4.3486 Y12.0872
G01 X4.3551 Y12.1309
G01 X4.3572 Y12.1750
G01 X4.3572 Y12.8799
G01 X4.3551 Y12.9191
G01 X4.3495 Y12.9580
G01 X4.3476 Y12.9676
G01 X4.3405 Y12.9962
G01 X4.3348 Y13.0149
G01 X4.3230 Y13.0472
G01 X4.3041 Y13.0871
G01 X4.2814 Y13.1250
G01 X4.2611 Y13.1527
G01 X4.2487 Y13.1679
G01 X4.2289 Y13.1897
G01 X4.2219 Y13.1966
G01 X4.1927 Y13.2229
G01 X4.1653 Y13.2435
G01 X4.1489 Y13.2544
G01 X4.1237 Y13.2695
G01 X4.1106 Y13.2763
G01 X4.0794 Y13.2907
G01 X4.0379 Y13.3056
G01 X3.9998 Y13.3153
G01 X3.9853 Y13.3180
G01 X3.9513 Y13.3228
G01 X3.9074 Y13.3250
G01 X3.9074 Y14.7809
G01 X3.9216 Y14.7773
G01 X3.9312 Y14.7754
G01 X4.0040 Y14.7646
G01 X4.0187 Y14.7634
G01 X4.0922 Y14.7600
G01 X4.1755 Y14.7641
G01 X4.2484 Y14.7747
G01 X4.2676 Y14.7785
G01 X4.3390 Y14.7966
G01 X4.4084 Y14.8212
G01 X4.4265 Y14.8287
G01 X4.4841 Y14.8560
G01 X4.5015 Y14.8652
G01 X4.5645 Y14.9033
G01 X4.6315 Y14.9529
G01 X4.6933 Y15.0090
G01 X4.7493 Y15.0708
G01 X4.7990 Y15.1378
G01 X4.8370 Y15.2008
G01 X4.8463 Y15.2181
G01 X4.8775 Y15.2847
G01 X4.9025 Y15.3539
G01 X4.9082 Y15.3727
G01 X4.9237 Y15.4346
G01 X4.9276 Y15.4538
G01 X4.9381 Y15.5267
G01 X4.9422 Y15.6100
G01 X4.9381 Y15.6933
G01 X4.9276 Y15.7662
G01 X4.9237 Y15.7854
G01 X4.9056 Y15.8567
G01 X4.8811 Y15.9261
G01 X4.8735 Y15.9443
G01 X4.8463 Y16.0019
G01 X4.8370 Y16.0192
G01 X4.7990 Y16.0822
G01 X4.7493 Y16.1492
G01 X4.6933 Y16.2110
G01 X4.6315 Y16.2671
G01 X4.5645 Y16.3167
G01 X4.5015 Y16.3548
G01 X4.4841 Y16.3640
G01 X4.4175 Y16.3953
G01 X4.3483 Y16.4203
G01 X4.3295 Y16.4260
G01 X4.2676 Y16.4415
G01 X4.2484 Y16.4453
G01 X4.1755 Y16.4559
G01 X4.0922 Y16.4600
G01 X4.0187 Y16.4566
G01 X4.0040 Y16.4554
G01 X3.9312 Y16.4446
G01 X3.9216 Y16.4427
G01 X3.9074 Y16.4391
G01 X3.9074 Y17.6886
G01 X4.4139 Y18.1952
G01 X4.4402 Y18.2244
G01 X4.4608 Y18.2519
G01 X4.4692 Y18.2640
G01 X4.4892 Y18.2978
G01 X4.5081 Y18.3377
G01 X4.5230 Y18.3793
G01 X4.5337 Y18.4222
G01 X4.5402 Y18.4659
G01 X4.5424 Y18.5100
G01 X4.5424 Y18.7842
G01 X4.5516 Y18.7983
G01 X4.5691 Y18.8279
G01 X4.5860 Y18.8633
G01 X4.5915 Y18.8770
G01 X4.6029 Y18.9094
G01 X4.6114 Y18.9426
G01 X4.6145 Y18.9570
G01 X4.6201 Y18.9959
G01 X4.6222 Y19.0400
G01 X4.6222 Y19.7199
G01 X4.6201 Y19.7591
G01 X4.6153 Y19.7931
G01 X4.6126 Y19.8076
G01 X4.6029 Y19.8456
G01 X4.5898 Y19.8826
G01 X4.5840 Y19.8962
G01 X4.5691 Y19.9271
G01 X4.5464 Y19.9650
G01 X4.5232 Y19.9966
G01 X4.5137 Y20.0079
G01 X4.4904 Y20.0332
G01 X4.4651 Y20.0564
G01 X4.4539 Y20.0659
G01 X4.4222 Y20.0892
G01 X4.3887 Y20.1095
G01 X4.3756 Y20.1163
G01 X4.3444 Y20.1307
G01 X4.3122 Y20.1425
G01 X4.2981 Y20.1470
G01 X4.2600 Y20.1564
G01 X4.2163 Y20.1628
G01 X4.1722 Y20.1650
G01 X3.2222 Y20.1650
G01 X3.1781 Y20.1628
G01 X3.1393 Y20.1573
G01 X3.1249 Y20.1542
G01 X3.0916 Y20.1456
G01 X3.0592 Y20.1343
G01 X3.0455 Y20.1288
G01 X3.0101 Y20.1119
G01 X2.9722 Y20.0892
G01 X2.9445 Y20.0689
G01 X2.9330 Y20.0597
G01 X2.9040 Y20.0332
G01 X2.8775 Y20.0042
G01 X2.8683 Y19.9927
G01 X2.8481 Y19.9650
G01 X2.8254 Y19.9271
G01 X2.8084 Y19.8917
G01 X2.8030 Y19.8780
G01 X2.7916 Y19.8456
G01 X2.7809 Y19.8028
G01 X2.7744 Y19.7591
G01 X2.7722 Y19.7150
G01 X2.7722 Y19.0400
G01 X2.7740 Y19.0008
G01 X2.7756 Y18.9861
G01 X2.7809 Y18.9522
G01 X2.7902 Y18.9141
G01 X2.7947 Y18.9001
G01 X2.8065 Y18.8678
G01 X2.8210 Y18.8366
G01 X2.8277 Y18.8236
G01 X2.8454 Y18.7941
G01 X2.8537 Y18.7820
G01 X2.8713 Y18.7584
G01 X2.8775 Y18.7508
G01 X2.8973 Y18.7289
G01 X2.9075 Y18.7184
G01 X2.9293 Y18.6986
G01 X2.9445 Y18.6861
G01 X2.9722 Y18.6658
G01 X3.0101 Y18.6431
G01 X3.0500 Y18.6243
G01 X3.0916 Y18.6094
G01 X3.1296 Y18.5997
G01 X3.1441 Y18.5970
G01 X3.1781 Y18.5922
G01 X3.2124 Y18.5902
G01 X3.5357 Y18.5900
G01 X3.1389 Y18.1933
G01 X3.1157 Y18.1680
G01 X3.1062 Y18.1567
G01 X3.0830 Y18.1251
G01 X3.0651 Y18.0957
G01 X3.0580 Y18.0828
G01 X3.0414 Y18.0473
G01 X3.0280 Y18.0103
G01 X3.0239 Y17.9962
G01 X3.0158 Y17.9628
G01 X3.0105 Y17.9289
G01 X3.0089 Y17.9142
G01 X3.0071 Y17.8750
G01 X3.0071 Y16.2450
G01 X3.0093 Y16.2009
G01 X3.0158 Y16.1572
G01 X3.0251 Y16.1191
G01 X3.0296 Y16.1050
G01 X3.0414 Y16.0727
G01 X3.0558 Y16.0416
G01 X3.0626 Y16.0285
G01 X3.0803 Y15.9990
G01 X3.0886 Y15.9869
G01 X3.1093 Y15.9594
G01 X3.1355 Y15.9302
G01 X3.2646 Y15.8010
G01 X3.2596 Y15.7806
G01 X3.2577 Y15.7710
G01 X3.2469 Y15.6982
G01 X3.2456 Y15.6835
G01 X3.2422 Y15.6100
G01 X3.2456 Y15.5365
G01 X3.2469 Y15.5218
G01 X3.2577 Y15.4490
G01 X3.2596 Y15.4394
G01 X3.2646 Y15.4190
G01 X3.1355 Y15.2898
G01 X3.1093 Y15.2606
G01 X3.0886 Y15.2331
G01 X3.0803 Y15.2210
G01 X3.0651 Y15.1957
G01 X3.0580 Y15.1828
G01 X3.0433 Y15.1518
G01 X3.0378 Y15.1381
G01 X3.0265 Y15.1057
G01 X3.0179 Y15.0724
G01 X3.0149 Y15.0580
G01 X3.0098 Y15.0240
G01 X3.0085 Y15.0093
G01 X3.0071 Y14.9750
G01 X3.0071 Y13.3250
G01 X2.9631 Y13.3228
G01 X2.9194 Y13.3164
G01 X2.8766 Y13.3056
G01 X2.8442 Y13.2943
G01 X2.8260 Y13.2868
G01 X2.7995 Y13.2741
G01 X2.7866 Y13.2670
G01 X2.7572 Y13.2492
G01 X2.7218 Y13.2229
G01 X2.6890 Y13.1932
G01 X2.6658 Y13.1679
G01 X2.6533 Y13.1527
G01 X2.6358 Y13.1291
G01 X2.6278 Y13.1167
G01 X2.6104 Y13.0871
G01 X2.5915 Y13.0472
G01 X2.5766 Y13.0056
G01 X2.5659 Y12.9628
G01 X2.5594 Y12.9191
G01 X2.5572 Y12.8750
G01 X2.5573 Y12.1701
G01 X2.5594 Y12.1309
G01 X2.5642 Y12.0969
G01 X2.5680 Y12.0776
G01 X2.5752 Y12.0491
G01 X2.5781 Y12.0397
G00 Z2.0000
G00 X5.1469 Y10.6459
G01 F60.00
G01 Z-0.3621
G01 F120.00
G01 X5.1563 Y10.6430
G01 X5.1821 Y10.6365
G01 X5.1821 Y10.0764
G01 X3.8385 Y8.7328
G01 X3.7969 Y8.7224
G01 X3.7828 Y8.7183
G01 X3.6950 Y8.6869
G01 X3.6814 Y8.6811
G01 X3.6060 Y8.6454
G01 X3.5930 Y8.6387
G01 X3.5089 Y8.5880
G01 X3.4339 Y8.5327
G01 X3.4187 Y8.5202
G01 X3.3533 Y8.4609
G01 X3.3430 Y8.4504
G01 X3.2806 Y8.3811
G01 X3.2192 Y8.2983
G01 X3.1662 Y8.2100
G01 X3.1261 Y8.1258
G01 X3.1186 Y8.1077
G01 X3.0874 Y8.0198
G01 X3.0624 Y7.9198
G01 X3.0473 Y7.8179
G01 X3.0422 Y7.7150
G01 X3.0473 Y7.6121
G01 X3.0624 Y7.5102
G01 X3.0874 Y7.4102
G01 X3.1222 Y7.3132
G01 X3.1662 Y7.2200
G01 X3.2192 Y7.1317
G01 X3.2806 Y7.0489
G01 X3.3498 Y6.9725
G01 X3.4261 Y6.9033
G01 X3.5089 Y6.8420
G01 X3.5973 Y6.7890
G01 X3.6814 Y6.7489
G01 X3.6996 Y6.7414
G01 X3.7874 Y6.7102
G01 X3.8778 Y6.6873
G01 X3.8971 Y6.6835
G01 X3.9796 Y6.6713
G01 X3.9991 Y6.6693
G01 X4.0922 Y6.6650
G01 X4.1951 Y6.6701
G01 X4.2971 Y6.6852
G01 X4.3876 Y6.7076
G01 X4.4063 Y6.7133
G01 X4.4849 Y6.7414
G01 X4.5030 Y6.7489
G01 X4.5872 Y6.7890
G01 X4.6756 Y6.8420
G01 X4.7583 Y6.9033
G01 X4.8276 Y6.9658
G01 X4.8415 Y6.9796
G01 X4.8975 Y7.0415
G01 X4.9070 Y7.0527
G01 X4.9653 Y7.1317
G01 X5.0182 Y7.2200
G01 X5.0623 Y7.3132
G01 X5.0970 Y7.4102
G01 X5.1221 Y7.5102
G01 X5.1372 Y7.6121
G01 X5.1422 Y7.7150
G01 X5.1379 Y7.8081
G01 X5.1360 Y7.8277
G01 X5.1221 Y7.9198
G01 X5.0996 Y8.0103
G01 X5.0939 Y8.0291
G01 X5.0658 Y8.1077
G01 X5.0583 Y8.1258
G01 X5.0182 Y8.2100
G01 X4.9653 Y8.2983
G01 X4.9039 Y8.3811
G01 X4.8355 Y8.4567
G01 X5.9539 Y9.5752
G01 X5.9770 Y9.6007
G01 X5.9862 Y9.6122
G01 X6.0065 Y9.6399
G01 X6.0244 Y9.6693
G01 X6.0315 Y9.6822
G01 X6.0462 Y9.7132
G01 X6.0516 Y9.7269
G01 X6.0615 Y9.7547
G01 X6.0643 Y9.7641
G01 X6.0716 Y9.7926
G01 X6.0754 Y9.8119
G01 X6.0802 Y9.8459
G01 X6.0823 Y9.8851
G01 X6.0824 Y10.6365
G01 X6.1129 Y10.6444
G01 X6.1544 Y10.6593
G01 X6.1944 Y10.6781
G01 X6.2281 Y10.6982
G01 X6.2363 Y10.7036
G01 X6.2600 Y10.7211
G01 X6.2751 Y10.7336
G01 X6.2969 Y10.7534
G01 X6.3039 Y10.7603
G01 X6.3237 Y10.7821
G01 X6.3332 Y10.7934
G01 X6.3564 Y10.8250
G01 X6.3791 Y10.8629
G01 X6.3980 Y10.9028
G01 X6.4098 Y10.9351
G01 X6.4142 Y10.9491
G01 X6.4214 Y10.9776
G01 X6.4253 Y10.9969
G01 X6.4301 Y11.0309
G01 X6.4322 Y11.0750
G01 X6.4322 Y11.9750
G01 X6.4301 Y12.0191
G01 X6.4236 Y12.0628
G01 X6.4129 Y12.1056
G01 X6.4015 Y12.1380
G01 X6.3960 Y12.1517
G01 X6.3791 Y12.1871
G01 X6.3591 Y12.2209
G01 X6.3507 Y12.2330
G01 X6.3301 Y12.2605
G01 X6.3039 Y12.2897
G01 X6.2969 Y12.2966
G01 X6.2751 Y12.3164
G01 X6.2600 Y12.3289
G01 X6.2322 Y12.3492
G01 X6.1987 Y12.3695
G01 X6.1900 Y12.3741
G01 X6.1634 Y12.3868
G01 X6.1499 Y12.3926
G01 X6.1129 Y12.4056
G01 X6.0824 Y12.4135
G01 X6.0824 Y12.8786
G01 X6.9539 Y13.7502
G01 X6.9802 Y13.7794
G01 X7.0008 Y13.8069
G01 X7.0092 Y13.8190
G01 X7.0292 Y13.8528
G01 X7.0481 Y13.8927
G01 X7.0630 Y13.9343
G01 X7.0737 Y13.9772
G01 X7.0796 Y14.0160
G01 X7.0809 Y14.0307
G01 X7.0824 Y14.0650
G01 X7.0824 Y14.8897
G01 X7.1003 Y14.9006
G01 X7.1085 Y14.9060
G01 X7.1676 Y14.9499
G01 X7.1789 Y14.9594
G01 X7.2298 Y15.0055
G01 X7.2400 Y15.0161
G01 X7.2893 Y15.0708
G01 X7.3333 Y15.1297
G01 X7.3417 Y15.1419
G01 X7.3770 Y15.2008
G01 X7.3863 Y15.2181
G01 X7.4175 Y15.2847
G01 X7.4425 Y15.3539
G01 X7.4482 Y15.3727
G01 X7.4659 Y15.4442
G01 X7.4776 Y15.5218
G01 X7.4789 Y15.5365
G01 X7.4822 Y15.6100
G01 X7.4789 Y15.6835
G01 X7.4769 Y15.7031
G01 X7.4676 Y15.7662
G01 X7.4637 Y15.7854
G01 X7.4456 Y15.8567
G01 X7.4175 Y15.9353
G01 X7.3819 Y16.0107
G01 X7.3390 Y16.0822
G01 X7.2893 Y16.1492
G01 X7.2400 Y16.2039
G01 X7.2262 Y16.2178
G01 X7.1789 Y16.2606
G01 X7.1637 Y16.2731
G01 X7.1045 Y16.3167
G01 X7.0329 Y16.3596
G01 X6.9575 Y16.3953
G01 X6.8790 Y16.4234
G01 X6.7981 Y16.4437
G01 X6.7155 Y16.4559
G01 X6.6322 Y16.4600
G01 X6.5489 Y16.4559
G01 X6.4664 Y16.4437
G01 X6.3855 Y16.4234
G01 X6.3069 Y16.3953
G01 X6.2315 Y16.3596
G01 X6.1600 Y16.3167
G01 X6.0930 Y16.2671
G01 X6.0312 Y16.2110
G01 X5.9752 Y16.1492
G01 X5.9255 Y16.0822
G01 X5.8826 Y16.0107
G01 X5.8469 Y15.9353
G01 X5.8188 Y15.8567
G01 X5.7986 Y15.7758
G01 X5.7875 Y15.7031
G01 X5.7856 Y15.6835
G01 X5.7825 Y15.6198
G01 X5.7825 Y15.6002
G01 X5.7863 Y15.5267
G01 X5.7986 Y15.4442
G01 X5.8188 Y15.3633
G01 X5.8451 Y15.2893
G01 X5.8509 Y15.2757
G01 X5.8782 Y15.2181
G01 X5.8874 Y15.2008
G01 X5.9255 Y15.1378
G01 X5.9691 Y15.0785
G01 X5.9783 Y15.0670
G01 X6.0312 Y15.0090
G01 X6.0892 Y14.9561
G01 X6.1007 Y14.9469
G01 X6.1559 Y14.9060
G01 X6.1641 Y14.9006
G01 X6.1821 Y14.8897
G01 X6.1821 Y14.2514
G01 X5.3139 Y13.3833
G01 X5.2843 Y13.3506
G01 X5.2636 Y13.3231
G01 X5.2553 Y13.3110
G01 X5.2376 Y13.2815
G01 X5.2308 Y13.2684
G01 X5.2164 Y13.2373
G01 X5.2046 Y13.2050
G01 X5.2001 Y13.1909
G01 X5.1908 Y13.1528
G01 X5.1855 Y13.1189
G01 X5.1839 Y13.1042
G01 X5.1821 Y13.0650
G01 X5.1821 Y12.4135
G01 X5.1516 Y12.4056
G01 X5.1146 Y12.3926
G01 X5.1010 Y12.3868
G01 X5.0701 Y12.3719
G01 X5.0363 Y12.3518
G01 X5.0242 Y12.3435
G01 X4.9968 Y12.3229
G01 X4.9675 Y12.2966
G01 X4.9573 Y12.2861
G01 X4.9344 Y12.2605
G01 X4.9108 Y12.2291
G01 X4.9028 Y12.2167
G01 X4.8854 Y12.1871
G01 X4.8684 Y12.1517
G01 X4.8630 Y12.1380
G01 X4.8531 Y12.1103
G01 X4.8502 Y12.1009
G01 X4.8409 Y12.0628
G01 X4.8356 Y12.0289
G01 X4.8340 Y12.0142
G01 X4.8322 Y11.9750
G01 X4.8322 Y11.0750
G01 X4.8344 Y11.0309
G01 X4.8409 Y10.9872
G01 X4.8502 Y10.9491
G01 X4.8547 Y10.9351
G01 X4.8665 Y10.9028
G01 X4.8810 Y10.8716
G01 X4.8877 Y10.8586
G01 X4.9081 Y10.8250
G01 X4.9313 Y10.7934
G01 X4.9408 Y10.7821
G01 X4.9640 Y10.7568
G01 X4.9893 Y10.7336
G01 X5.0006 Y10.7241
G01 X5.0322 Y10.7008
G01 X5.0658 Y10.6805
G01 X5.0789 Y10.6737
G01 X5.1100 Y10.6593
G01 X5.1469 Y10.6459
G00 Z2.0000
G00 X8.9281 Y12.0397
G01 F60.00
G01 Z-0.3621
G01 F120.00
G01 X8.9415 Y12.0028
G01 X8.9560 Y11.9716
G01 X8.9627 Y11.9586
G01 X8.9831 Y11.9250
G01 X9.0063 Y11.8934
G01 X9.0158 Y11.8821
G01 X9.0390 Y11.8568
G01 X9.0643 Y11.8336
G01 X9.0756 Y11.8241
G01 X9.1072 Y11.8008
G01 X9.1366 Y11.7830
G01 X9.1495 Y11.7759
G01 X9.1805 Y11.7612
G01 X9.1942 Y11.7557
G01 X9.2266 Y11.7444
G01 X9.2646 Y11.7347
G01 X9.2791 Y11.7320
G01 X9.3131 Y11.7272
G01 X9.3572 Y11.7250
G01 X10.2621 Y11.7251
G01 X10.3013 Y11.7272
G01 X10.3450 Y11.7336
G01 X10.3879 Y11.7444
G01 X10.4203 Y11.7557
G01 X10.4384 Y11.7632
G01 X10.4650 Y11.7759
G01 X10.4779 Y11.7830
G01 X10.5072 Y11.8008
G01 X10.5427 Y11.8271
G01 X10.5754 Y11.8568
G01 X10.5987 Y11.8821
G01 X10.6111 Y11.8973
G01 X10.6286 Y11.9209
G01 X10.6366 Y11.9333
G01 X10.6541 Y11.9629
G01 X10.6730 Y12.0028
G01 X10.6879 Y12.0444
G01 X10.6986 Y12.0872
G01 X10.7051 Y12.1309
G01 X10.7072 Y12.1750
G01 X10.7072 Y12.8799
G01 X10.7051 Y12.9191
G01 X10.6995 Y12.9580
G01 X10.6976 Y12.9676
G01 X10.6905 Y12.9962
G01 X10.6848 Y13.0149
G01 X10.6730 Y13.0472
G01 X10.6541 Y13.0871
G01 X10.6314 Y13.1250
G01 X10.6111 Y13.1527
G01 X10.5987 Y13.1679
G01 X10.5789 Y13.1897
G01 X10.5719 Y13.1966
G01 X10.5427 Y13.2229
G01 X10.5153 Y13.2435
G01 X10.4989 Y13.2544
G01 X10.4737 Y13.2695
G01 X10.4606 Y13.2763
G01 X10.4294 Y13.2907
G01 X10.3879 Y13.3056
G01 X10.3498 Y13.3153
G01 X10.3353 Y13.3180
G01 X10.3013 Y13.3228
G01 X10.2574 Y13.3250
G01 X10.2574 Y14.7809
G01 X10.2716 Y14.7773
G01 X10.2812 Y14.7754
G01 X10.3540 Y14.7646
G01 X10.3687 Y14.7634
G01 X10.4422 Y14.7600
G01 X10.5255 Y14.7641
G01 X10.5984 Y14.7747
G01 X10.6176 Y14.7785
G01 X10.6890 Y14.7966
G01 X10.7584 Y14.8212
G01 X10.7765 Y14.8287
G01 X10.8341 Y14.8560
G01 X10.8515 Y14.8652
G01 X10.9145 Y14.9033
G01 X10.9815 Y14.9529
G01 X11.0433 Y15.0090
G01 X11.0929 Y15.0633
G01 X11.1053 Y15.0785
G01 X11.1490 Y15.1378
G01 X11.1870 Y15.2008
G01 X11.1963 Y15.2181
G01 X11.2235 Y15.2757
G01 X11.2311 Y15.2939
G01 X11.2556 Y15.3633
G01 X11.2759 Y15.4442
G01 X11.2881 Y15.5267
G01 X11.2920 Y15.6002
G01 X11.2922 Y15.6149
G01 X11.2881 Y15.6933
G01 X11.2776 Y15.7662
G01 X11.2737 Y15.7854
G01 X11.2556 Y15.8567
G01 X11.2311 Y15.9261
G01 X11.2235 Y15.9443
G01 X11.1963 Y16.0019
G01 X11.1870 Y16.0192
G01 X11.1490 Y16.0822
G01 X11.0993 Y16.1492
G01 X11.0433 Y16.2110
G01 X10.9889 Y16.2606
G01 X10.9776 Y16.2701
G01 X10.9145 Y16.3167
G01 X10.8515 Y16.3548
G01 X10.8341 Y16.3640
G01 X10.7675 Y16.3953
G01 X10.6983 Y16.4203
G01 X10.6795 Y16.4260
G01 X10.6129 Y16.4427
G01 X10.5984 Y16.4453
G01 X10.5255 Y16.4559
G01 X10.4422 Y16.4600
G01 X10.3687 Y16.4566
G01 X10.3540 Y16.4554
G01 X10.2812 Y16.4446
G01 X10.2716 Y16.4427
G01 X10.2574 Y16.4391
G01 X10.2574 Y17.6886
G01 X10.7605 Y18.1917
G01 X10.7902 Y18.2244
G01 X10.8165 Y18.2599
G01 X10.8344 Y18.2893
G01 X10.8415 Y18.3022
G01 X10.8581 Y18.3377
G01 X10.8730 Y18.3793
G01 X10.8816 Y18.4126
G01 X10.8854 Y18.4319
G01 X10.8896 Y18.4610
G01 X10.8906 Y18.4708
G01 X10.8924 Y18.5100
G01 X10.8924 Y18.9775
G01 X10.8943 Y18.9910
G01 X10.8953 Y19.0008
G01 X10.8970 Y19.0400
G01 X10.8970 Y19.7150
G01 X10.8948 Y19.7591
G01 X10.8884 Y19.8028
G01 X10.8776 Y19.8456
G01 X10.8663 Y19.8780
G01 X10.8608 Y19.8917
G01 X10.8439 Y19.9271
G01 X10.8212 Y19.9650
G01 X10.8009 Y19.9927
G01 X10.7917 Y20.0042
G01 X10.7652 Y20.0332
G01 X10.7362 Y20.0597
G01 X10.7247 Y20.0689
G01 X10.6970 Y20.0892
G01 X10.6591 Y20.1119
G01 X10.6237 Y20.1288
G01 X10.6100 Y20.1343
G01 X10.5776 Y20.1456
G01 X10.5348 Y20.1564
G01 X10.4911 Y20.1628
G01 X10.4470 Y20.1650
G01 X9.4970 Y20.1650
G01 X9.4529 Y20.1628
G01 X9.4140 Y20.1573
G01 X9.3996 Y20.1542
G01 X9.3664 Y20.1456
G01 X9.3340 Y20.1343
G01 X9.3203 Y20.1288
G01 X9.2849 Y20.1119
G01 X9.2470 Y20.0892
G01 X9.2193 Y20.0689
G01 X9.2078 Y20.0597
G01 X9.1788 Y20.0332
G01 X9.1523 Y20.0042
G01 X9.1431 Y19.9927
G01 X9.1228 Y19.9650
G01 X9.1001 Y19.9271
G01 X9.0832 Y19.8917
G01 X9.0777 Y19.8780
G01 X9.0664 Y19.8456
G01 X9.0556 Y19.8028
G01 X9.0492 Y19.7591
G01 X9.0470 Y19.7150
G01 X9.0470 Y19.0400
G01 X9.0487 Y19.0008
G01 X9.0504 Y18.9861
G01 X9.0556 Y18.9522
G01 X9.0650 Y18.9141
G01 X9.0695 Y18.9001
G01 X9.0813 Y18.8678
G01 X9.0957 Y18.8366
G01 X9.1025 Y18.8236
G01 X9.1228 Y18.7900
G01 X9.1491 Y18.7545
G01 X9.1788 Y18.7218
G01 X9.2115 Y18.6921
G01 X9.2390 Y18.6715
G01 X9.2511 Y18.6632
G01 X9.2806 Y18.6455
G01 X9.2892 Y18.6409
G01 X9.3158 Y18.6282
G01 X9.3340 Y18.6207
G01 X9.3617 Y18.6109
G01 X9.3758 Y18.6068
G01 X9.4092 Y18.5986
G01 X9.4431 Y18.5934
G01 X9.4578 Y18.5917
G01 X9.4921 Y18.5901
G01 X9.8857 Y18.5900
G01 X9.4889 Y18.1933
G01 X9.4657 Y18.1680
G01 X9.4562 Y18.1567
G01 X9.4330 Y18.1251
G01 X9.4151 Y18.0957
G01 X9.4080 Y18.0828
G01 X9.3914 Y18.0473
G01 X9.3780 Y18.0103
G01 X9.3739 Y17.9962
G01 X9.3658 Y17.9628
G01 X9.3605 Y17.9289
G01 X9.3589 Y17.9142
G01 X9.3571 Y17.8750
G01 X9.3571 Y16.2450
G01 X9.3593 Y16.2009
G01 X9.3658 Y16.1572
G01 X9.3751 Y16.1191
G01 X9.3796 Y16.1050
G01 X9.3914 Y16.0727
G01 X9.4058 Y16.0416
G01 X9.4126 Y16.0285
G01 X9.4303 Y15.9990
G01 X9.4386 Y15.9869
G01 X9.4593 Y15.9594
G01 X9.4855 Y15.9302
G01 X9.6146 Y15.8010
G01 X9.6096 Y15.7806
G01 X9.6077 Y15.7710
G01 X9.5969 Y15.6982
G01 X9.5956 Y15.6835
G01 X9.5922 Y15.6100
G01 X9.5956 Y15.5365
G01 X9.5969 Y15.5218
G01 X9.6077 Y15.4490
G01 X9.6096 Y15.4394
G01 X9.6146 Y15.4190
G01 X9.4855 Y15.2898
G01 X9.4593 Y15.2606
G01 X9.4386 Y15.2331
G01 X9.4303 Y15.2210
G01 X9.4151 Y15.1957
G01 X9.4080 Y15.1828
G01 X9.3933 Y15.1518
G01 X9.3878 Y15.1381
G01 X9.3765 Y15.1057
G01 X9.3679 Y15.0724
G01 X9.3649 Y15.0580
G01 X9.3598 Y15.0240
G01 X9.3585 Y15.0093
G01 X9.3571 Y14.9750
G01 X9.3571 Y13.3250
G01 X9.3131 Y13.3228
G01 X9.2694 Y13.3164
G01 X9.2266 Y13.3056
G01 X9.1942 Y13.2943
G01 X9.1760 Y13.2868
G01 X9.1495 Y13.2741
G01 X9.1366 Y13.2670
G01 X9.1072 Y13.2492
G01 X9.0718 Y13.2229
G01 X9.0390 Y13.1932
G01 X9.0158 Y13.1679
G01 X9.0033 Y13.1527
G01 X8.9858 Y13.1291
G01 X8.9778 Y13.1167
G01 X8.9604 Y13.0871
G01 X8.9415 Y13.0472
G01 X8.9266 Y13.0056
G01 X8.9159 Y12.9628
G01 X8.9094 Y12.9191
G01 X8.9072 Y12.8750
G01 X8.9073 Y12.1701
G01 X8.9094 Y12.1309
G01 X8.9142 Y12.0969
G01 X8.9180 Y12.0776
G01 X8.9252 Y12.0491
G01 X8.9281 Y12.0397
G00 Z2.0000
G00 X11.4969 Y10.6459
G01 F60.00
G01 Z-0.3621
G01 F120.00
G01 X11.5063 Y10.6430
G01 X11.5321 Y10.6365
G01 X11.5321 Y10.0764
G01 X10.1868 Y8.7312
G01 X10.1519 Y8.7224
G01 X10.1378 Y8.7183
G01 X10.0500 Y8.6869
G01 X10.0364 Y8.6811
G01 X9.9610 Y8.6454
G01 X9.9480 Y8.6387
G01 X9.8639 Y8.5880
G01 X9.7889 Y8.5327
G01 X9.7737 Y8.5202
G01 X9.7083 Y8.4609
G01 X9.6980 Y8.4504
G01 X9.6356 Y8.3811
G01 X9.5742 Y8.2983
G01 X9.5212 Y8.2100
G01 X9.4811 Y8.1258
G01 X9.4736 Y8.1077
G01 X9.4424 Y8.0198
G01 X9.4174 Y7.9198
G01 X9.4023 Y7.8179
G01 X9.3972 Y7.7150
G01 X9.4023 Y7.6121
G01 X9.4174 Y7.5102
G01 X9.4424 Y7.4102
G01 X9.4772 Y7.3132
G01 X9.5212 Y7.2200
G01 X9.5742 Y7.1317
G01 X9.6356 Y7.0489
G01 X9.7048 Y6.9725
G01 X9.7811 Y6.9033
G01 X9.8639 Y6.8420
G01 X9.9523 Y6.7890
G01 X10.0364 Y6.7489
G01 X10.0546 Y6.7414
G01 X10.1424 Y6.7102
G01 X10.2328 Y6.6873
G01 X10.2521 Y6.6835
G01 X10.3346 Y6.6713
G01 X10.3541 Y6.6693
G01 X10.4472 Y6.6650
G01 X10.5501 Y6.6701
G01 X10.6521 Y6.6852
G01 X10.7426 Y6.7076
G01 X10.7613 Y6.7133
G01 X10.8399 Y6.7414
G01 X10.8580 Y6.7489
G01 X10.9422 Y6.7890
G01 X11.0306 Y6.8420
G01 X11.1133 Y6.9033
G01 X11.1826 Y6.9658
G01 X11.1965 Y6.9796
G01 X11.2525 Y7.0415
G01 X11.2620 Y7.0527
G01 X11.3203 Y7.1317
G01 X11.3732 Y7.2200
G01 X11.4173 Y7.3132
G01 X11.4520 Y7.4102
G01 X11.4771 Y7.5102
G01 X11.4922 Y7.6121
G01 X11.4972 Y7.7150
G01 X11.4929 Y7.8081
G01 X11.4910 Y7.8277
G01 X11.4771 Y7.9198
G01 X11.4546 Y8.0103
G01 X11.4489 Y8.0291
G01 X11.4208 Y8.1077
G01 X11.4133 Y8.1258
G01 X11.3732 Y8.2100
G01 X11.3203 Y8.2983
G01 X11.2589 Y8.3811
G01 X11.1965 Y8.4504
G01 X11.1880 Y8.4592
G01 X12.3039 Y9.5752
G01 X12.3270 Y9.6007
G01 X12.3362 Y9.6122
G01 X12.3565 Y9.6399
G01 X12.3744 Y9.6693
G01 X12.3815 Y9.6822
G01 X12.3962 Y9.7132
G01 X12.4016 Y9.7269
G01 X12.4115 Y9.7547
G01 X12.4143 Y9.7641
G01 X12.4216 Y9.7926
G01 X12.4254 Y9.8119
G01 X12.4302 Y9.8459
G01 X12.4323 Y9.8851
G01 X12.4324 Y10.6365
G01 X12.4629 Y10.6444
G01 X12.5044 Y10.6593
G01 X12.5444 Y10.6781
G01 X12.5781 Y10.6982
G01 X12.5863 Y10.7036
G01 X12.6100 Y10.7211
G01 X12.6251 Y10.7336
G01 X12.6469 Y10.7534
G01 X12.6539 Y10.7603
G01 X12.6737 Y10.7821
G01 X12.6832 Y10.7934
G01 X12.7064 Y10.8250
G01 X12.7291 Y10.8629
G01 X12.7480 Y10.9028
G01 X12.7598 Y10.9351
G01 X12.7642 Y10.9491
G01 X12.7714 Y10.9776
G01 X12.7753 Y10.9969
G01 X12.7801 Y11.0309
G01 X12.7822 Y11.0750
G01 X12.7822 Y11.9750
G01 X12.7801 Y12.0191
G01 X12.7736 Y12.0628
G01 X12.7629 Y12.1056
G01 X12.7515 Y12.1380
G01 X12.7460 Y12.1517
G01 X12.7291 Y12.1871
G01 X12.7091 Y12.2209
G01 X12.7007 Y12.2330
G01 X12.6801 Y12.2605
G01 X12.6539 Y12.2897
G01 X12.6469 Y12.2966
G01 X12.6251 Y12.3164
G01 X12.6100 Y12.3289
G01 X12.5822 Y12.3492
G01 X12.5487 Y12.3695
G01 X12.5400 Y12.3741
G01 X12.5134 Y12.3868
G01 X12.4999 Y12.3926
G01 X12.4629 Y12.4056
G01 X12.4324 Y12.4135
G01 X12.4324 Y12.8786
G01 X13.3039 Y13.7502
G01 X13.3302 Y13.7794
G01 X13.3508 Y13.8069
G01 X13.3592 Y13.8190
G01 X13.3792 Y13.8528
G01 X13.3981 Y13.8927
G01 X13.4130 Y13.9343
G01 X13.4237 Y13.9772
G01 X13.4296 Y14.0160
G01 X13.4309 Y14.0307
G01 X13.4324 Y14.0650
G01 X13.4324 Y14.8897
G01 X13.4503 Y14.9006
G01 X13.4585 Y14.9060
G01 X13.5176 Y14.9499
G01 X13.5289 Y14.9594
G01 X13.5798 Y15.0055
G01 X13.5900 Y15.0161
G01 X13.6393 Y15.0708
G01 X13.6833 Y15.1297
G01 X13.6917 Y15.1419
G01 X13.7270 Y15.2008
G01 X13.7363 Y15.2181
G01 X13.7675 Y15.2847
G01 X13.7925 Y15.3539
G01 X13.7982 Y15.3727
G01 X13.8159 Y15.4442
G01 X13.8276 Y15.5218
G01 X13.8289 Y15.5365
G01 X13.8322 Y15.6100
G01 X13.8289 Y15.6835
G01 X13.8269 Y15.7031
G01 X13.8176 Y15.7662
G01 X13.8137 Y15.7854
G01 X13.7956 Y15.8567
G01 X13.7675 Y15.9353
G01 X13.7319 Y16.0107
G01 X13.6890 Y16.0822
G01 X13.6393 Y16.1492
G01 X13.5900 Y16.2039
G01 X13.5762 Y16.2178
G01 X13.5289 Y16.2606
G01 X13.5137 Y16.2731
G01 X13.4545 Y16.3167
G01 X13.3829 Y16.3596
G01 X13.3075 Y16.3953
G01 X13.2290 Y16.4234
G01 X13.1481 Y16.4437
G01 X13.0655 Y16.4559
G01 X12.9822 Y16.4600
G01 X12.8989 Y16.4559
G01 X12.8164 Y16.4437
G01 X12.7355 Y16.4234
G01 X12.6569 Y16.3953
G01 X12.5815 Y16.3596
G01 X12.5100 Y16.3167
G01 X12.4430 Y16.2671
G01 X12.3812 Y16.2110
G01 X12.3252 Y16.1492
G01 X12.2755 Y16.0822
G01 X12.2326 Y16.0107
G01 X12.1969 Y15.9353
G01 X12.1688 Y15.8567
G01 X12.1486 Y15.7758
G01 X12.1375 Y15.7031
G01 X12.1356 Y15.6835
G01 X12.1325 Y15.6198
G01 X12.1325 Y15.6002
G01 X12.1363 Y15.5267
G01 X12.1486 Y15.4442
G01 X12.1688 Y15.3633
G01 X12.1951 Y15.2893
G01 X12.2009 Y15.2757
G01 X12.2282 Y15.2181
G01 X12.2374 Y15.2008
G01 X12.2755 Y15.1378
G01 X12.3191 Y15.0785
G01 X12.3283 Y15.0670
G01 X12.3812 Y15.0090
G01 X12.4392 Y14.9561
G01 X12.4507 Y14.9469
G01 X12.5059 Y14.9060
G01 X12.5141 Y14.9006
G01 X12.5321 Y14.8897
G01 X12.5321 Y14.2514
G01 X11.6639 Y13.3833
G01 X11.6343 Y13.3506
G01 X11.6136 Y13.3231
G01 X11.6053 Y13.3110
G01 X11.5876 Y13.2815
G01 X11.5808 Y13.2684
G01 X11.5664 Y13.2373
G01 X11.5546 Y13.2050
G01 X11.5501 Y13.1909
G01 X11.5408 Y13.1528
G01 X11.5355 Y13.1189
G01 X11.5339 Y13.1042
G01 X11.5321 Y13.0650
G01 X11.5321 Y12.4135
G01 X11.5016 Y12.4056
G01 X11.4646 Y12.3926
G01 X11.4510 Y12.3868
G01 X11.4201 Y12.3719
G01 X11.3863 Y12.3518
G01 X11.3742 Y12.3435
G01 X11.3468 Y12.3229
G01 X11.3175 Y12.2966
G01 X11.3073 Y12.2861
G01 X11.2844 Y12.2605
G01 X11.2608 Y12.2291
G01 X11.2528 Y12.2167
G01 X11.2354 Y12.1871
G01 X11.2184 Y12.1517
G01 X11.2130 Y12.1380
G01 X11.2031 Y12.1103
G01 X11.2002 Y12.1009
G01 X11.1909 Y12.0628
G01 X11.1856 Y12.0289
G01 X11.1840 Y12.0142
G01 X11.1822 Y11.9750
G01 X11.1822 Y11.0750
G01 X11.1844 Y11.0309
G01 X11.1909 Y10.9872
G01 X11.2002 Y10.9491
G01 X11.2047 Y10.9351
G01 X11.2165 Y10.9028
G01 X11.2310 Y10.8716
G01 X11.2377 Y10.8586
G01 X11.2581 Y10.8250
G01 X11.2813 Y10.7934
G01 X11.2908 Y10.7821
G01 X11.3140 Y10.7568
G01 X11.3393 Y10.7336
G01 X11.3506 Y10.7241
G01 X11.3822 Y10.7008
G01 X11.4158 Y10.6805
G01 X11.4289 Y10.6737
G01 X11.4600 Y10.6593
G01 X11.4969 Y10.6459
G00 Z2.0000
G00 X15.2881 Y12.0397
G01 F60.00
G01 Z-0.3621
G01 F120.00
G01 X15.3015 Y12.0028
G01 X15.3160 Y11.9716
G01 X15.3227 Y11.9586
G01 X15.3431 Y11.9250
G01 X15.3663 Y11.8934
G01 X15.3758 Y11.8821
G01 X15.3990 Y11.8568
G01 X15.4243 Y11.8336
G01 X15.4356 Y11.8241
G01 X15.4672 Y11.8008
G01 X15.4966 Y11.7830
G01 X15.5095 Y11.7759
G01 X15.5405 Y11.7612
G01 X15.5542 Y11.7557
G01 X15.5866 Y11.7444
G01 X15.6246 Y11.7347
G01 X15.6391 Y11.7320
G01 X15.6731 Y11.7272
G01 X15.7172 Y11.7250
G01 X16.6221 Y11.7251
G01 X16.6613 Y11.7272
G01 X16.7050 Y11.7336
G01 X16.7479 Y11.7444
G01 X16.7803 Y11.7557
G01 X16.7984 Y11.7632
G01 X16.8250 Y11.7759
G01 X16.8379 Y11.7830
G01 X16.8672 Y11.8008
G01 X16.9027 Y11.8271
G01 X16.9354 Y11.8568
G01 X16.9587 Y11.8821
G01 X16.9711 Y11.8973
G01 X16.9886 Y11.9209
G01 X16.9966 Y11.9333
G01 X17.0141 Y11.9629
G01 X17.0330 Y12.0028
G01 X17.0479 Y12.0444
G01 X17.0576 Y12.0824
G01 X17.0603 Y12.0969
G01 X17.0651 Y12.1309
G01 X17.0672 Y12.1750
G01 X17.0672 Y12.8799
G01 X17.0651 Y12.9191
G01 X17.0595 Y12.9580
G01 X17.0576 Y12.9676
G01 X17.0505 Y12.9962
G01 X17.0448 Y13.0149
G01 X17.0330 Y13.0472
G01 X17.0141 Y13.0871
G01 X16.9914 Y13.1250
G01 X16.9711 Y13.1527
G01 X16.9587 Y13.1679
G01 X16.9389 Y13.1897
G01 X16.9319 Y13.1966
G01 X16.9027 Y13.2229
G01 X16.8753 Y13.2435
G01 X16.8589 Y13.2544
G01 X16.8337 Y13.2695
G01 X16.8206 Y13.2763
G01 X16.7894 Y13.2907
G01 X16.7479 Y13.3056
G01 X16.7098 Y13.3153
G01 X16.6953 Y13.3180
G01 X16.6613 Y13.3228
G01 X16.6174 Y13.3250
G01 X16.6174 Y14.7784
G01 X16.6361 Y14.7747
G01 X16.7089 Y14.7641
G01 X16.7922 Y14.7600
G01 X16.8755 Y14.7641
G01 X16.9484 Y14.7747
G01 X16.9676 Y14.7785
G01 X17.0390 Y14.7966
G01 X17.1084 Y14.8212
G01 X17.1265 Y14.8287
G01 X17.1841 Y14.8560
G01 X17.2015 Y14.8652
G01 X17.2645 Y14.9033
G01 X17.3315 Y14.9529
G01 X17.3933 Y15.0090
G01 X17.4493 Y15.0708
G01 X17.4990 Y15.1378
G01 X17.5370 Y15.2008
G01 X17.5463 Y15.2181
G01 X17.5775 Y15.2847
G01 X17.6025 Y15.3539
G01 X17.6082 Y15.3727
G01 X17.6237 Y15.4346
G01 X17.6276 Y15.4538
G01 X17.6381 Y15.5267
G01 X17.6422 Y15.6100
G01 X17.6381 Y15.6933
G01 X17.6276 Y15.7662
G01 X17.6237 Y15.7854
G01 X17.6056 Y15.8567
G01 X17.5811 Y15.9261
G01 X17.5735 Y15.9443
G01 X17.5463 Y16.0019
G01 X17.5370 Y16.0192
G01 X17.4990 Y16.0822
G01 X17.4493 Y16.1492
G01 X17.3933 Y16.2110
G01 X17.3315 Y16.2671
G01 X17.2645 Y16.3167
G01 X17.2015 Y16.3548
G01 X17.1841 Y16.3640
G01 X17.1175 Y16.3953
G01 X17.0483 Y16.4203
G01 X17.0295 Y16.4260
G01 X16.9676 Y16.4415
G01 X16.9484 Y16.4453
G01 X16.8755 Y16.4559
G01 X16.7922 Y16.4600
G01 X16.7187 Y16.4566
G01 X16.7040 Y16.4554
G01 X16.6312 Y16.4446
G01 X16.6216 Y16.4427
G01 X16.6074 Y16.4391
G01 X16.6074 Y17.6886
G01 X17.1139 Y18.1952
G01 X17.1370 Y18.2207
G01 X17.1462 Y18.2322
G01 X17.1665 Y18.2599
G01 X17.1844 Y18.2893
G01 X17.1915 Y18.3022
G01 X17.2062 Y18.3332
G01 X17.2116 Y18.3469
G01 X17.2215 Y18.3747
G01 X17.2256 Y18.3888
G01 X17.2337 Y18.4222
G01 X17.2396 Y18.4610
G01 X17.2409 Y18.4757
G01 X17.2424 Y18.5100
G01 X17.2424 Y18.7238
G01 X17.2701 Y18.7545
G01 X17.2964 Y18.7900
G01 X17.3191 Y18.8279
G01 X17.3340 Y18.8588
G01 X17.3415 Y18.8770
G01 X17.3514 Y18.9047
G01 X17.3555 Y18.9188
G01 X17.3636 Y18.9522
G01 X17.3701 Y18.9959
G01 X17.3722 Y19.0400
G01 X17.3722 Y19.7199
G01 X17.3701 Y19.7591
G01 X17.3653 Y19.7931
G01 X17.3626 Y19.8076
G01 X17.3529 Y19.8456
G01 X17.3398 Y19.8826
G01 X17.3340 Y19.8962
G01 X17.3191 Y19.9271
G01 X17.3016 Y19.9567
G01 X17.2936 Y19.9691
G01 X17.2701 Y20.0005
G01 X17.2439 Y20.0297
G01 X17.2333 Y20.0400
G01 X17.2077 Y20.0629
G01 X17.1803 Y20.0835
G01 X17.1681 Y20.0918
G01 X17.1344 Y20.1119
G01 X17.0989 Y20.1288
G01 X17.0853 Y20.1343
G01 X17.0529 Y20.1456
G01 X17.0148 Y20.1553
G01 X17.0003 Y20.1580
G01 X16.9663 Y20.1628
G01 X16.9222 Y20.1650
G01 X15.9722 Y20.1650
G01 X15.9281 Y20.1628
G01 X15.8941 Y20.1580
G01 X15.8796 Y20.1553
G01 X15.8416 Y20.1456
G01 X15.8092 Y20.1343
G01 X15.7955 Y20.1288
G01 X15.7601 Y20.1119
G01 X15.7222 Y20.0892
G01 X15.6945 Y20.0689
G01 X15.6830 Y20.0597
G01 X15.6540 Y20.0332
G01 X15.6275 Y20.0042
G01 X15.6183 Y19.9927
G01 X15.5981 Y19.9650
G01 X15.5754 Y19.9271
G01 X15.5584 Y19.8917
G01 X15.5530 Y19.8780
G01 X15.5416 Y19.8456
G01 X15.5319 Y19.8076
G01 X15.5292 Y19.7931
G01 X15.5244 Y19.7591
G01 X15.5222 Y19.7150
G01 X15.5225 Y19.0302
G01 X15.5244 Y18.9959
G01 X15.5292 Y18.9619
G01 X15.5319 Y18.9474
G01 X15.5402 Y18.9141
G01 X15.5447 Y18.9001
G01 X15.5565 Y18.8678
G01 X15.5710 Y18.8366
G01 X15.5777 Y18.8236
G01 X15.5981 Y18.7900
G01 X15.6244 Y18.7545
G01 X15.6540 Y18.7218
G01 X15.6868 Y18.6921
G01 X15.7222 Y18.6658
G01 X15.7601 Y18.6431
G01 X15.8000 Y18.6243
G01 X15.8323 Y18.6125
G01 X15.8463 Y18.6080
G01 X15.8844 Y18.5986
G01 X15.9232 Y18.5927
G01 X15.9379 Y18.5914
G01 X15.9722 Y18.5900
G01 X16.2357 Y18.5900
G01 X15.8389 Y18.1933
G01 X15.8157 Y18.1680
G01 X15.8062 Y18.1567
G01 X15.7830 Y18.1251
G01 X15.7651 Y18.0957
G01 X15.7580 Y18.0828
G01 X15.7414 Y18.0473
G01 X15.7280 Y18.0103
G01 X15.7239 Y17.9962
G01 X15.7158 Y17.9628
G01 X15.7105 Y17.9289
G01 X15.7089 Y17.9142
G01 X15.7071 Y17.8750
G01 X15.7071 Y16.2450
G01 X15.7093 Y16.2009
G01 X15.7158 Y16.1572
G01 X15.7251 Y16.1191
G01 X15.7296 Y16.1050
G01 X15.7414 Y16.0727
G01 X15.7558 Y16.0416
G01 X15.7626 Y16.0285
G01 X15.7803 Y15.9990
G01 X15.7886 Y15.9869
G01 X15.8093 Y15.9594
G01 X15.8355 Y15.9302
G01 X15.9646 Y15.8010
G01 X15.9596 Y15.7806
G01 X15.9577 Y15.7710
G01 X15.9469 Y15.6982
G01 X15.9456 Y15.6835
G01 X15.9422 Y15.6100
G01 X15.9456 Y15.5365
G01 X15.9469 Y15.5218
G01 X15.9577 Y15.4490
G01 X15.9596 Y15.4394
G01 X15.9646 Y15.4190
G01 X15.8422 Y15.2962
G01 X15.8224 Y15.2743
G01 X15.8162 Y15.2667
G01 X15.7986 Y15.2431
G01 X15.7903 Y15.2310
G01 X15.7751 Y15.2057
G01 X15.7680 Y15.1928
G01 X15.7533 Y15.1618
G01 X15.7478 Y15.1481
G01 X15.7365 Y15.1157
G01 X15.7279 Y15.0824
G01 X15.7249 Y15.0680
G01 X15.7198 Y15.0340
G01 X15.7185 Y15.0193
G01 X15.7171 Y14.9850
G01 X15.7171 Y13.3250
G01 X15.6731 Y13.3228
G01 X15.6294 Y13.3164
G01 X15.5866 Y13.3056
G01 X15.5542 Y13.2943
G01 X15.5360 Y13.2868
G01 X15.5095 Y13.2741
G01 X15.4966 Y13.2670
G01 X15.4672 Y13.2492
G01 X15.4318 Y13.2229
G01 X15.3990 Y13.1932
G01 X15.3758 Y13.1679
G01 X15.3633 Y13.1527
G01 X15.3458 Y13.1291
G01 X15.3378 Y13.1167
G01 X15.3204 Y13.0871
G01 X15.3015 Y13.0472
G01 X15.2866 Y13.0056
G01 X15.2759 Y12.9628
G01 X15.2694 Y12.9191
G01 X15.2672 Y12.8750
G01 X15.2673 Y12.1701
G01 X15.2694 Y12.1309
G01 X15.2742 Y12.0969
G01 X15.2780 Y12.0776
G01 X15.2852 Y12.0491
G01 X15.2881 Y12.0397
G00 Z2.0000
G00 X17.8569 Y10.6459
G01 F60.00
G01 Z-0.3621
G01 F120.00
G01 X17.8663 Y10.6430
G01 X17.8921 Y10.6365
G01 X17.8921 Y10.0864
G01 X16.5385 Y8.7328
G01 X16.4969 Y8.7224
G01 X16.4828 Y8.7183
G01 X16.3950 Y8.6869
G01 X16.3814 Y8.6811
G01 X16.3060 Y8.6454
G01 X16.2930 Y8.6387
G01 X16.2089 Y8.5880
G01 X16.1339 Y8.5327
G01 X16.1187 Y8.5202
G01 X16.0533 Y8.4609
G01 X16.0430 Y8.4504
G01 X15.9806 Y8.3811
G01 X15.9192 Y8.2983
G01 X15.8662 Y8.2100
G01 X15.8261 Y8.1258
G01 X15.8203 Y8.1123
G01 X15.7874 Y8.0198
G01 X15.7624 Y7.9198
G01 X15.7473 Y7.8179
G01 X15.7422 Y7.7150
G01 X15.7473 Y7.6121
G01 X15.7624 Y7.5102
G01 X15.7874 Y7.4102
G01 X15.8222 Y7.3132
G01 X15.8662 Y7.2200
G01 X15.9192 Y7.1317
G01 X15.9806 Y7.0489
G01 X16.0498 Y6.9725
G01 X16.1261 Y6.9033
G01 X16.2089 Y6.8420
G01 X16.2973 Y6.7890
G01 X16.3814 Y6.7489
G01 X16.3950 Y6.7431
G01 X16.4874 Y6.7102
G01 X16.5778 Y6.6873
G01 X16.5971 Y6.6835
G01 X16.6796 Y6.6713
G01 X16.6991 Y6.6693
G01 X16.7922 Y6.6650
G01 X16.8951 Y6.6701
G01 X16.9971 Y6.6852
G01 X17.0876 Y6.7076
G01 X17.1063 Y6.7133
G01 X17.1849 Y6.7414
G01 X17.2030 Y6.7489
G01 X17.2872 Y6.7890
G01 X17.3756 Y6.8420
G01 X17.4583 Y6.9033
G01 X17.5276 Y6.9658
G01 X17.5415 Y6.9796
G01 X17.5975 Y7.0415
G01 X17.6070 Y7.0527
G01 X17.6653 Y7.1317
G01 X17.7182 Y7.2200
G01 X17.7623 Y7.3132
G01 X17.7970 Y7.4102
G01 X17.8221 Y7.5102
G01 X17.8372 Y7.6121
G01 X17.8422 Y7.7150
G01 X17.8379 Y7.8081
G01 X17.8360 Y7.8277
G01 X17.8221 Y7.9198
G01 X17.7996 Y8.0103
G01 X17.7939 Y8.0291
G01 X17.7658 Y8.1077
G01 X17.7583 Y8.1258
G01 X17.7182 Y8.2100
G01 X17.6653 Y8.2983
G01 X17.6039 Y8.3811
G01 X17.5355 Y8.4567
G01 X18.6639 Y9.5852
G01 X18.6870 Y9.6107
G01 X18.6962 Y9.6222
G01 X18.7165 Y9.6499
G01 X18.7344 Y9.6793
G01 X18.7415 Y9.6922
G01 X18.7562 Y9.7232
G01 X18.7616 Y9.7369
G01 X18.7715 Y9.7647
G01 X18.7743 Y9.7741
G01 X18.7816 Y9.8026
G01 X18.7854 Y9.8219
G01 X18.7902 Y9.8559
G01 X18.7923 Y9.8951
G01 X18.7924 Y10.6365
G01 X18.8229 Y10.6444
G01 X18.8644 Y10.6593
G01 X18.9044 Y10.6781
G01 X18.9381 Y10.6982
G01 X18.9463 Y10.7036
G01 X18.9700 Y10.7211
G01 X18.9851 Y10.7336
G01 X19.0069 Y10.7534
G01 X19.0139 Y10.7603
G01 X19.0337 Y10.7821
G01 X19.0432 Y10.7934
G01 X19.0664 Y10.8250
G01 X19.0891 Y10.8629
G01 X19.1080 Y10.9028
G01 X19.1198 Y10.9351
G01 X19.1242 Y10.9491
G01 X19.1314 Y10.9776
G01 X19.1353 Y10.9969
G01 X19.1401 Y11.0309
G01 X19.1422 Y11.0750
G01 X19.1422 Y11.9750
G01 X19.1401 Y12.0191
G01 X19.1345 Y12.0580
G01 X19.1326 Y12.0676
G01 X19.1255 Y12.0962
G01 X19.1198 Y12.1149
G01 X19.1080 Y12.1472
G01 X19.0891 Y12.1871
G01 X19.0691 Y12.2209
G01 X19.0607 Y12.2330
G01 X19.0401 Y12.2605
G01 X19.0139 Y12.2897
G01 X19.0069 Y12.2966
G01 X18.9851 Y12.3164
G01 X18.9700 Y12.3289
G01 X18.9422 Y12.3492
G01 X18.9087 Y12.3695
G01 X18.9000 Y12.3741
G01 X18.8734 Y12.3868
G01 X18.8599 Y12.3926
G01 X18.8229 Y12.4056
G01 X18.7924 Y12.4135
G01 X18.7924 Y13.1426
G01 X19.6539 Y14.0042
G01 X19.6770 Y14.0297
G01 X19.6862 Y14.0412
G01 X19.7065 Y14.0689
G01 X19.7268 Y14.1025
G01 X19.7336 Y14.1156
G01 X19.7481 Y14.1467
G01 X19.7630 Y14.1883
G01 X19.7737 Y14.2312
G01 X19.7790 Y14.2651
G01 X19.7806 Y14.2798
G01 X19.7824 Y14.3190
G01 X19.7824 Y14.8897
G01 X19.8003 Y14.9006
G01 X19.8085 Y14.9060
G01 X19.8676 Y14.9499
G01 X19.8789 Y14.9594
G01 X19.9298 Y15.0055
G01 X19.9400 Y15.0161
G01 X19.9893 Y15.0708
G01 X20.0333 Y15.1297
G01 X20.0417 Y15.1419
G01 X20.0770 Y15.2008
G01 X20.0863 Y15.2181
G01 X20.1175 Y15.2847
G01 X20.1425 Y15.3539
G01 X20.1482 Y15.3727
G01 X20.1659 Y15.4442
G01 X20.1776 Y15.5218
G01 X20.1789 Y15.5365
G01 X20.1822 Y15.6100
G01 X20.1789 Y15.6835
G01 X20.1769 Y15.7031
G01 X20.1676 Y15.7662
G01 X20.1637 Y15.7854
G01 X20.1456 Y15.8567
G01 X20.1175 Y15.9353
G01 X20.0819 Y16.0107
G01 X20.0390 Y16.0822
G01 X19.9893 Y16.1492
G01 X19.9400 Y16.2039
G01 X19.9262 Y16.2178
G01 X19.8789 Y16.2606
G01 X19.8637 Y16.2731
G01 X19.8045 Y16.3167
G01 X19.7329 Y16.3596
G01 X19.6575 Y16.3953
G01 X19.5790 Y16.4234
G01 X19.4981 Y16.4437
G01 X19.4155 Y16.4559
G01 X19.3322 Y16.4600
G01 X19.2489 Y16.4559
G01 X19.1664 Y16.4437
G01 X19.0855 Y16.4234
G01 X19.0069 Y16.3953
G01 X18.9315 Y16.3596
G01 X18.8600 Y16.3167
G01 X18.7930 Y16.2671
G01 X18.7312 Y16.2110
G01 X18.6752 Y16.1492
G01 X18.6255 Y16.0822
G01 X18.5826 Y16.0107
G01 X18.5469 Y15.9353
G01 X18.5188 Y15.8567
G01 X18.5007 Y15.7854
G01 X18.4969 Y15.7662
G01 X18.4863 Y15.6933
G01 X18.4822 Y15.6100
G01 X18.4856 Y15.5365
G01 X18.4875 Y15.5169
G01 X18.4986 Y15.4442
G01 X18.5175 Y15.3680
G01 X18.5219 Y15.3539
G01 X18.5469 Y15.2847
G01 X18.5826 Y15.2093
G01 X18.6255 Y15.1378
G01 X18.6721 Y15.0746
G01 X18.6816 Y15.0633
G01 X18.7312 Y15.0090
G01 X18.7892 Y14.9561
G01 X18.8007 Y14.9469
G01 X18.8559 Y14.9060
G01 X18.8641 Y14.9006
G01 X18.8821 Y14.8897
G01 X18.8821 Y14.5054
G01 X18.0172 Y13.6402
G01 X17.9943 Y13.6146
G01 X17.9736 Y13.5871
G01 X17.9653 Y13.5750
G01 X17.9476 Y13.5455
G01 X17.9408 Y13.5324
G01 X17.9264 Y13.5013
G01 X17.9146 Y13.4690
G01 X17.9101 Y13.4549
G01 X17.9018 Y13.4216
G01 X17.8991 Y13.4071
G01 X17.8943 Y13.3731
G01 X17.8922 Y13.3339
G01 X17.8921 Y12.4135
G01 X17.8616 Y12.4056
G01 X17.8200 Y12.3907
G01 X17.7801 Y12.3719
G01 X17.7463 Y12.3518
G01 X17.7382 Y12.3464
G01 X17.7145 Y12.3289
G01 X17.6993 Y12.3164
G01 X17.6740 Y12.2932
G01 X17.6444 Y12.2605
G01 X17.6181 Y12.2250
G01 X17.6002 Y12.1957
G01 X17.5931 Y12.1828
G01 X17.5805 Y12.1562
G01 X17.5730 Y12.1380
G01 X17.5616 Y12.1056
G01 X17.5509 Y12.0628
G01 X17.5444 Y12.0191
G01 X17.5423 Y11.9799
G01 X17.5422 Y11.0750
G01 X17.5444 Y11.0309
G01 X17.5492 Y10.9969
G01 X17.5519 Y10.9824
G01 X17.5616 Y10.9444
G01 X17.5730 Y10.9120
G01 X17.5784 Y10.8983
G01 X17.5931 Y10.8672
G01 X17.6002 Y10.8543
G01 X17.6181 Y10.8250
G01 X17.6413 Y10.7934
G01 X17.6508 Y10.7821
G01 X17.6740 Y10.7568
G01 X17.6993 Y10.7336
G01 X17.7106 Y10.7241
G01 X17.7422 Y10.7008
G01 X17.7758 Y10.6805
G01 X17.7889 Y10.6737
G01 X17.8200 Y10.6593
G01 X17.8569 Y10.6459
G00 Z2.0000
G00 X21.6281 Y12.0397
G01 F60.00
G01 Z-0.3621
G01 F120.00
G01 X21.6415 Y12.0028
G01 X21.6560 Y11.9716
G01 X21.6627 Y11.9586
G01 X21.6831 Y11.9250
G01 X21.7063 Y11.8934
G01 X21.7158 Y11.8821
G01 X21.7390 Y11.8568
G01 X21.7643 Y11.8336
G01 X21.7756 Y11.8241
G01 X21.8072 Y11.8008
G01 X21.8366 Y11.7830
G01 X21.8495 Y11.7759
G01 X21.8805 Y11.7612
G01 X21.8942 Y11.7557
G01 X21.9266 Y11.7444
G01 X21.9646 Y11.7347
G01 X21.9791 Y11.7320
G01 X22.0131 Y11.7272
G01 X22.0572 Y11.7250
G01 X22.9621 Y11.7251
G01 X23.0013 Y11.7272
G01 X23.0450 Y11.7336
G01 X23.0879 Y11.7444
G01 X23.1203 Y11.7557
G01 X23.1384 Y11.7632
G01 X23.1650 Y11.7759
G01 X23.1779 Y11.7830
G01 X23.2072 Y11.8008
G01 X23.2427 Y11.8271
G01 X23.2754 Y11.8568
G01 X23.2987 Y11.8821
G01 X23.3111 Y11.8973
G01 X23.3286 Y11.9209
G01 X23.3366 Y11.9333
G01 X23.3541 Y11.9629
G01 X23.3730 Y12.0028
G01 X23.3879 Y12.0444
G01 X23.3976 Y12.0824
G01 X23.4003 Y12.0969
G01 X23.4051 Y12.1309
G01 X23.4072 Y12.1750
G01 X23.4072 Y12.8799
G01 X23.4051 Y12.9191
G01 X23.3995 Y12.9580
G01 X23.3976 Y12.9676
G01 X23.3905 Y12.9962
G01 X23.3848 Y13.0149
G01 X23.3730 Y13.0472
G01 X23.3541 Y13.0871
G01 X23.3314 Y13.1250
G01 X23.3111 Y13.1527
G01 X23.2987 Y13.1679
G01 X23.2789 Y13.1897
G01 X23.2719 Y13.1966
G01 X23.2427 Y13.2229
G01 X23.2153 Y13.2435
G01 X23.1989 Y13.2544
G01 X23.1737 Y13.2695
G01 X23.1606 Y13.2763
G01 X23.1294 Y13.2907
G01 X23.0879 Y13.3056
G01 X23.0498 Y13.3153
G01 X23.0353 Y13.3180
G01 X23.0013 Y13.3228
G01 X22.9574 Y13.3250
G01 X22.9574 Y14.7809
G01 X22.9716 Y14.7773
G01 X22.9812 Y14.7754
G01 X23.0540 Y14.7646
G01 X23.0687 Y14.7634
G01 X23.1422 Y14.7600
G01 X23.2255 Y14.7641
G01 X23.2984 Y14.7747
G01 X23.3176 Y14.7785
G01 X23.3890 Y14.7966
G01 X23.4584 Y14.8212
G01 X23.4765 Y14.8287
G01 X23.5341 Y14.8560
G01 X23.5515 Y14.8652
G01 X23.6145 Y14.9033
G01 X23.6815 Y14.9529
G01 X23.7433 Y15.0090
G01 X23.7993 Y15.0708
G01 X23.8490 Y15.1378
G01 X23.8870 Y15.2008
G01 X23.8963 Y15.2181
G01 X23.9275 Y15.2847
G01 X23.9525 Y15.3539
G01 X23.9582 Y15.3727
G01 X23.9737 Y15.4346
G01 X23.9776 Y15.4538
G01 X23.9881 Y15.5267
G01 X23.9922 Y15.6100
G01 X23.9881 Y15.6933
G01 X23.9776 Y15.7662
G01 X23.9737 Y15.7854
G01 X23.9556 Y15.8567
G01 X23.9311 Y15.9261
G01 X23.9235 Y15.9443
G01 X23.8963 Y16.0019
G01 X23.8870 Y16.0192
G01 X23.8490 Y16.0822
G01 X23.7993 Y16.1492
G01 X23.7433 Y16.2110
G01 X23.6815 Y16.2671
G01 X23.6145 Y16.3167
G01 X23.5515 Y16.3548
G01 X23.5341 Y16.3640
G01 X23.4675 Y16.3953
G01 X23.3983 Y16.4203
G01 X23.3795 Y16.4260
G01 X23.3176 Y16.4415
G01 X23.2984 Y16.4453
G01 X23.2255 Y16.4559
G01 X23.1422 Y16.4600
G01 X23.0687 Y16.4566
G01 X23.0540 Y16.4554
G01 X22.9812 Y16.4446
G01 X22.9716 Y16.4427
G01 X22.9574 Y16.4391
G01 X22.9574 Y17.8156
G01 X23.4605 Y18.3187
G01 X23.4902 Y18.3514
G01 X23.5108 Y18.3789
G01 X23.5192 Y18.3910
G01 X23.5392 Y18.4248
G01 X23.5581 Y18.4647
G01 X23.5730 Y18.5063
G01 X23.5827 Y18.5444
G01 X23.5846 Y18.5540
G01 X23.5890 Y18.5831
G01 X23.5909 Y18.6027
G01 X23.5924 Y18.6370
G01 X23.5924 Y18.7220
G01 X23.6219 Y18.7545
G01 X23.6482 Y18.7900
G01 X23.6709 Y18.8279
G01 X23.6858 Y18.8588
G01 X23.6933 Y18.8770
G01 X23.7031 Y18.9047
G01 X23.7072 Y18.9188
G01 X23.7154 Y18.9522
G01 X23.7218 Y18.9959
G01 X23.7240 Y19.0400
G01 X23.7239 Y19.7199
G01 X23.7218 Y19.7591
G01 X23.7170 Y19.7931
G01 X23.7143 Y19.8076
G01 X23.7046 Y19.8456
G01 X23.6916 Y19.8826
G01 X23.6858 Y19.8962
G01 X23.6709 Y19.9271
G01 X23.6534 Y19.9567
G01 X23.6454 Y19.9691
G01 X23.6219 Y20.0005
G01 X23.5956 Y20.0297
G01 X23.5851 Y20.0400
G01 X23.5595 Y20.0629
G01 X23.5320 Y20.0835
G01 X23.5199 Y20.0918
G01 X23.4861 Y20.1119
G01 X23.4507 Y20.1288
G01 X23.4370 Y20.1343
G01 X23.4046 Y20.1456
G01 X23.3666 Y20.1553
G01 X23.3521 Y20.1580
G01 X23.3181 Y20.1628
G01 X23.2740 Y20.1650
G01 X22.3240 Y20.1650
G01 X22.2799 Y20.1628
G01 X22.2459 Y20.1580
G01 X22.2314 Y20.1553
G01 X22.1934 Y20.1456
G01 X22.1610 Y20.1343
G01 X22.1473 Y20.1288
G01 X22.1119 Y20.1119
G01 X22.0740 Y20.0892
G01 X22.0463 Y20.0689
G01 X22.0348 Y20.0597
G01 X22.0058 Y20.0332
G01 X21.9793 Y20.0042
G01 X21.9701 Y19.9927
G01 X21.9498 Y19.9650
G01 X21.9271 Y19.9271
G01 X21.9102 Y19.8917
G01 X21.9047 Y19.8780
G01 X21.8934 Y19.8456
G01 X21.8837 Y19.8076
G01 X21.8810 Y19.7931
G01 X21.8762 Y19.7591
G01 X21.8741 Y19.7199
G01 X21.8741 Y19.0351
G01 X21.8762 Y18.9959
G01 X21.8810 Y18.9619
G01 X21.8837 Y18.9474
G01 X21.8908 Y18.9188
G01 X21.8949 Y18.9047
G01 X21.9064 Y18.8724
G01 X21.9122 Y18.8588
G01 X21.9271 Y18.8279
G01 X21.9498 Y18.7900
G01 X21.9761 Y18.7545
G01 X22.0024 Y18.7253
G01 X22.0093 Y18.7184
G01 X22.0311 Y18.6986
G01 X22.0463 Y18.6861
G01 X22.0699 Y18.6686
G01 X22.0781 Y18.6632
G01 X22.1033 Y18.6480
G01 X22.1162 Y18.6409
G01 X22.1518 Y18.6243
G01 X22.1887 Y18.6109
G01 X22.1981 Y18.6080
G01 X22.2266 Y18.6008
G01 X22.2459 Y18.5970
G01 X22.2799 Y18.5922
G01 X22.3191 Y18.5901
G01 X22.4587 Y18.5900
G01 X22.1855 Y18.3168
G01 X22.1593 Y18.2876
G01 X22.1386 Y18.2601
G01 X22.1303 Y18.2480
G01 X22.1103 Y18.2142
G01 X22.0953 Y18.1832
G01 X22.0895 Y18.1697
G01 X22.0765 Y18.1327
G01 X22.0679 Y18.0994
G01 X22.0649 Y18.0850
G01 X22.0598 Y18.0510
G01 X22.0585 Y18.0363
G01 X22.0571 Y18.0020
G01 X22.0571 Y16.2450
G01 X22.0593 Y16.2009
G01 X22.0658 Y16.1572
G01 X22.0751 Y16.1191
G01 X22.0796 Y16.1050
G01 X22.0914 Y16.0727
G01 X22.1058 Y16.0416
G01 X22.1126 Y16.0285
G01 X22.1303 Y15.9990
G01 X22.1386 Y15.9869
G01 X22.1593 Y15.9594
G01 X22.1855 Y15.9302
G01 X22.3146 Y15.8010
G01 X22.3096 Y15.7806
G01 X22.3077 Y15.7710
G01 X22.2969 Y15.6982
G01 X22.2956 Y15.6835
G01 X22.2922 Y15.6100
G01 X22.2956 Y15.5365
G01 X22.2969 Y15.5218
G01 X22.3077 Y15.4490
G01 X22.3096 Y15.4394
G01 X22.3146 Y15.4190
G01 X22.1855 Y15.2898
G01 X22.1593 Y15.2606
G01 X22.1386 Y15.2331
G01 X22.1303 Y15.2210
G01 X22.1151 Y15.1957
G01 X22.1080 Y15.1828
G01 X22.0933 Y15.1518
G01 X22.0878 Y15.1381
G01 X22.0765 Y15.1057
G01 X22.0679 Y15.0724
G01 X22.0649 Y15.0580
G01 X22.0598 Y15.0240
G01 X22.0585 Y15.0093
G01 X22.0571 Y14.9750
G01 X22.0571 Y13.3250
G01 X22.0131 Y13.3228
G01 X21.9694 Y13.3164
G01 X21.9266 Y13.3056
G01 X21.8942 Y13.2943
G01 X21.8760 Y13.2868
G01 X21.8495 Y13.2741
G01 X21.8366 Y13.2670
G01 X21.8072 Y13.2492
G01 X21.7718 Y13.2229
G01 X21.7390 Y13.1932
G01 X21.7158 Y13.1679
G01 X21.7033 Y13.1527
G01 X21.6858 Y13.1291
G01 X21.6778 Y13.1167
G01 X21.6604 Y13.0871
G01 X21.6415 Y13.0472
G01 X21.6266 Y13.0056
G01 X21.6159 Y12.9628
G01 X21.6094 Y12.9191
G01 X21.6072 Y12.8750
G01 X21.6073 Y12.1701
G01 X21.6094 Y12.1309
G01 X21.6142 Y12.0969
G01 X21.6180 Y12.0776
G01 X21.6252 Y12.0491
G01 X21.6281 Y12.0397
G00 Z2.0000
G00 X22.7677 Y8.7238
G01 F60.00
G01 Z-0.3621
G01 F120.00
G01 X22.7526 Y8.6985
G01 X22.7457 Y8.6852
G01 X22.7364 Y8.6811
G01 X22.6523 Y8.6410
G01 X22.5639 Y8.5880
G01 X22.4811 Y8.5267
G01 X22.4119 Y8.4642
G01 X22.4013 Y8.4539
G01 X22.3356 Y8.3811
G01 X22.2742 Y8.2983
G01 X22.2212 Y8.2100
G01 X22.1772 Y8.1168
G01 X22.1424 Y8.0198
G01 X22.1174 Y7.9198
G01 X22.1023 Y7.8179
G01 X22.0972 Y7.7150
G01 X22.1023 Y7.6121
G01 X22.1174 Y7.5102
G01 X22.1424 Y7.4102
G01 X22.1753 Y7.3177
G01 X22.1811 Y7.3042
G01 X22.2212 Y7.2200
G01 X22.2742 Y7.1317
G01 X22.3356 Y7.0489
G01 X22.4048 Y6.9725
G01 X22.4811 Y6.9033
G01 X22.5639 Y6.8420
G01 X22.6523 Y6.7890
G01 X22.7454 Y6.7449
G01 X22.8424 Y6.7102
G01 X22.9424 Y6.6852
G01 X23.0443 Y6.6701
G01 X23.1472 Y6.6650
G01 X23.2501 Y6.6701
G01 X23.3521 Y6.6852
G01 X23.4520 Y6.7102
G01 X23.5445 Y6.7431
G01 X23.5580 Y6.7489
G01 X23.6422 Y6.7890
G01 X23.7223 Y6.8367
G01 X23.7386 Y6.8476
G01 X23.8133 Y6.9033
G01 X23.8826 Y6.9658
G01 X23.8965 Y6.9796
G01 X23.9589 Y7.0489
G01 X24.0146 Y7.1236
G01 X24.0255 Y7.1399
G01 X24.0732 Y7.2200
G01 X24.1133 Y7.3042
G01 X24.1208 Y7.3223
G01 X24.1520 Y7.4102
G01 X24.1749 Y7.5006
G01 X24.1787 Y7.5198
G01 X24.1910 Y7.6023
G01 X24.1929 Y7.6219
G01 X24.1972 Y7.7150
G01 X24.1929 Y7.8081
G01 X24.1910 Y7.8277
G01 X24.1771 Y7.9198
G01 X24.1546 Y8.0103
G01 X24.1489 Y8.0291
G01 X24.1173 Y8.1168
G01 X24.0777 Y8.2012
G01 X24.0684 Y8.2185
G01 X24.0203 Y8.2983
G01 X23.9649 Y8.3734
G01 X23.9525 Y8.3885
G01 X23.8897 Y8.4575
G01 X23.8214 Y8.5196
G01 X25.0005 Y9.6987
G01 X25.0302 Y9.7314
G01 X25.0565 Y9.7669
G01 X25.0792 Y9.8048
G01 X25.0962 Y9.8402
G01 X25.1016 Y9.8539
G01 X25.1130 Y9.8863
G01 X25.1216 Y9.9196
G01 X25.1246 Y9.9340
G01 X25.1302 Y9.9729
G01 X25.1324 Y10.0170
G01 X25.1324 Y10.6365
G01 X25.1629 Y10.6444
G01 X25.1999 Y10.6574
G01 X25.2134 Y10.6632
G01 X25.2444 Y10.6781
G01 X25.2781 Y10.6982
G01 X25.2903 Y10.7065
G01 X25.3177 Y10.7271
G01 X25.3469 Y10.7534
G01 X25.3539 Y10.7603
G01 X25.3737 Y10.7821
G01 X25.3832 Y10.7934
G01 X25.4064 Y10.8250
G01 X25.4243 Y10.8543
G01 X25.4314 Y10.8672
G01 X25.4480 Y10.9028
G01 X25.4614 Y10.9397
G01 X25.4655 Y10.9538
G01 X25.4736 Y10.9872
G01 X25.4789 Y11.0211
G01 X25.4805 Y11.0358
G01 X25.4822 Y11.0750
G01 X25.4822 Y11.9750
G01 X25.4801 Y12.0191
G01 X25.4745 Y12.0580
G01 X25.4726 Y12.0676
G01 X25.4655 Y12.0962
G01 X25.4598 Y12.1149
G01 X25.4480 Y12.1472
G01 X25.4291 Y12.1871
G01 X25.4091 Y12.2209
G01 X25.4007 Y12.2330
G01 X25.3801 Y12.2605
G01 X25.3539 Y12.2897
G01 X25.3469 Y12.2966
G01 X25.3251 Y12.3164
G01 X25.3100 Y12.3289
G01 X25.2822 Y12.3492
G01 X25.2487 Y12.3695
G01 X25.2400 Y12.3741
G01 X25.2134 Y12.3868
G01 X25.1999 Y12.3926
G01 X25.1629 Y12.4056
G01 X25.1324 Y12.4135
G01 X25.1324 Y12.8786
G01 X26.0039 Y13.7502
G01 X26.0302 Y13.7794
G01 X26.0508 Y13.8069
G01 X26.0592 Y13.8190
G01 X26.0792 Y13.8528
G01 X26.0981 Y13.8927
G01 X26.1130 Y13.9343
G01 X26.1237 Y13.9772
G01 X26.1296 Y14.0160
G01 X26.1309 Y14.0307
G01 X26.1324 Y14.0650
G01 X26.1324 Y14.8897
G01 X26.1503 Y14.9006
G01 X26.1585 Y14.9060
G01 X26.2176 Y14.9499
G01 X26.2289 Y14.9594
G01 X26.2798 Y15.0055
G01 X26.2900 Y15.0161
G01 X26.3393 Y15.0708
G01 X26.3833 Y15.1297
G01 X26.3917 Y15.1419
G01 X26.4270 Y15.2008
G01 X26.4363 Y15.2181
G01 X26.4675 Y15.2847
G01 X26.4925 Y15.3539
G01 X26.4982 Y15.3727
G01 X26.5159 Y15.4442
G01 X26.5281 Y15.5267
G01 X26.5320 Y15.6002
G01 X26.5320 Y15.6198
G01 X26.5281 Y15.6933
G01 X26.5159 Y15.7758
G01 X26.4956 Y15.8567
G01 X26.4711 Y15.9261
G01 X26.4635 Y15.9443
G01 X26.4363 Y16.0019
G01 X26.4270 Y16.0192
G01 X26.3890 Y16.0822
G01 X26.3393 Y16.1492
G01 X26.2833 Y16.2110
G01 X26.2289 Y16.2606
G01 X26.2137 Y16.2731
G01 X26.1625 Y16.3111
G01 X26.1462 Y16.3220
G01 X26.0829 Y16.3596
G01 X26.0075 Y16.3953
G01 X25.9290 Y16.4234
G01 X25.8481 Y16.4437
G01 X25.7655 Y16.4559
G01 X25.6822 Y16.4600
G01 X25.5989 Y16.4559
G01 X25.5164 Y16.4437
G01 X25.4355 Y16.4234
G01 X25.3569 Y16.3953
G01 X25.2815 Y16.3596
G01 X25.2100 Y16.3167
G01 X25.1430 Y16.2671
G01 X25.0812 Y16.2110
G01 X25.0252 Y16.1492
G01 X24.9755 Y16.0822
G01 X24.9326 Y16.0107
G01 X24.8969 Y15.9353
G01 X24.8688 Y15.8567
G01 X24.8507 Y15.7854
G01 X24.8469 Y15.7662
G01 X24.8363 Y15.6933
G01 X24.8325 Y15.6198
G01 X24.8325 Y15.6002
G01 X24.8363 Y15.5267
G01 X24.8486 Y15.4442
G01 X24.8688 Y15.3633
G01 X24.8969 Y15.2847
G01 X24.9326 Y15.2093
G01 X24.9702 Y15.1461
G01 X24.9783 Y15.1337
G01 X25.0252 Y15.0708
G01 X25.0744 Y15.0161
G01 X25.0847 Y15.0055
G01 X25.1356 Y14.9594
G01 X25.1468 Y14.9499
G01 X25.2059 Y14.9060
G01 X25.2141 Y14.9006
G01 X25.2321 Y14.8897
G01 X25.2321 Y14.2514
G01 X24.3639 Y13.3833
G01 X24.3343 Y13.3506
G01 X24.3107 Y13.3191
G01 X24.3027 Y13.3068
G01 X24.2853 Y13.2772
G01 X24.2703 Y13.2462
G01 X24.2645 Y13.2327
G01 X24.2530 Y13.2003
G01 X24.2489 Y13.1862
G01 X24.2408 Y13.1528
G01 X24.2355 Y13.1189
G01 X24.2339 Y13.1042
G01 X24.2321 Y13.0650
G01 X24.2321 Y12.4135
G01 X24.2016 Y12.4056
G01 X24.1600 Y12.3907
G01 X24.1201 Y12.3719
G01 X24.0905 Y12.3544
G01 X24.0742 Y12.3435
G01 X24.0506 Y12.3259
G01 X24.0430 Y12.3197
G01 X24.0140 Y12.2932
G01 X23.9908 Y12.2679
G01 X23.9783 Y12.2527
G01 X23.9608 Y12.2291
G01 X23.9554 Y12.2209
G01 X23.9354 Y12.1871
G01 X23.9184 Y12.1517
G01 X23.9147 Y12.1426
G01 X23.9047 Y12.1149
G01 X23.8990 Y12.0962
G01 X23.8909 Y12.0628
G01 X23.8849 Y12.0240
G01 X23.8837 Y12.0093
G01 X23.8822 Y11.9750
G01 X23.8822 Y11.0750
G01 X23.8844 Y11.0309
G01 X23.8909 Y10.9872
G01 X23.9016 Y10.9444
G01 X23.9130 Y10.9120
G01 X23.9184 Y10.8983
G01 X23.9354 Y10.8629
G01 X23.9554 Y10.8291
G01 X23.9637 Y10.8170
G01 X23.9844 Y10.7895
G01 X24.0106 Y10.7603
G01 X24.0175 Y10.7534
G01 X24.0393 Y10.7336
G01 X24.0545 Y10.7211
G01 X24.0822 Y10.7008
G01 X24.1158 Y10.6805
G01 X24.1245 Y10.6759
G01 X24.1510 Y10.6632
G01 X24.1646 Y10.6574
G01 X24.2016 Y10.6444
G01 X24.2321 Y10.6365
G01 X24.2321 Y10.2034
G01 X22.8289 Y8.8003
G01 X22.7993 Y8.7676
G01 X22.7757 Y8.7361
G01 X22.7677 Y8.7238
G00 Z2.0000
G00 X27.9731 Y12.0397
G01 F60.00
G01 Z-0.3621
G01 F120.00
G01 X27.9865 Y12.0028
G01 X28.0010 Y11.9716
G01 X28.0077 Y11.9586
G01 X28.0281 Y11.9250
G01 X28.0513 Y11.8934
G01 X28.0608 Y11.8821
G01 X28.0840 Y11.8568
G01 X28.1093 Y11.8336
G01 X28.1206 Y11.8241
G01 X28.1522 Y11.8008
G01 X28.1816 Y11.7830
G01 X28.1945 Y11.7759
G01 X28.2255 Y11.7612
G01 X28.2392 Y11.7557
G01 X28.2716 Y11.7444
G01 X28.3096 Y11.7347
G01 X28.3241 Y11.7320
G01 X28.3581 Y11.7272
G01 X28.4022 Y11.7250
G01 X29.3071 Y11.7251
G01 X29.3463 Y11.7272
G01 X29.3900 Y11.7336
G01 X29.4329 Y11.7444
G01 X29.4653 Y11.7557
G01 X29.4834 Y11.7632
G01 X29.5100 Y11.7759
G01 X29.5229 Y11.7830
G01 X29.5522 Y11.8008
G01 X29.5877 Y11.8271
G01 X29.6204 Y11.8568
G01 X29.6437 Y11.8821
G01 X29.6561 Y11.8973
G01 X29.6736 Y11.9209
G01 X29.6816 Y11.9333
G01 X29.6991 Y11.9629
G01 X29.7180 Y12.0028
G01 X29.7329 Y12.0444
G01 X29.7426 Y12.0824
G01 X29.7453 Y12.0969
G01 X29.7501 Y12.1309
G01 X29.7522 Y12.1750
G01 X29.7522 Y12.8799
G01 X29.7501 Y12.9191
G01 X29.7445 Y12.9580
G01 X29.7426 Y12.9676
G01 X29.7355 Y12.9962
G01 X29.7298 Y13.0149
G01 X29.7180 Y13.0472
G01 X29.6991 Y13.0871
G01 X29.6764 Y13.1250
G01 X29.6561 Y13.1527
G01 X29.6437 Y13.1679
G01 X29.6239 Y13.1897
G01 X29.6169 Y13.1966
G01 X29.5877 Y13.2229
G01 X29.5603 Y13.2435
G01 X29.5439 Y13.2544
G01 X29.5187 Y13.2695
G01 X29.5056 Y13.2763
G01 X29.4744 Y13.2907
G01 X29.4329 Y13.3056
G01 X29.3948 Y13.3153
G01 X29.3803 Y13.3180
G01 X29.3463 Y13.3228
G01 X29.3024 Y13.3250
G01 X29.3024 Y14.7809
G01 X29.3166 Y14.7773
G01 X29.3262 Y14.7754
G01 X29.3990 Y14.7646
G01 X29.4137 Y14.7634
G01 X29.4872 Y14.7600
G01 X29.5705 Y14.7641
G01 X29.6434 Y14.7747
G01 X29.6626 Y14.7785
G01 X29.7340 Y14.7966
G01 X29.8034 Y14.8212
G01 X29.8215 Y14.8287
G01 X29.8791 Y14.8560
G01 X29.8965 Y14.8652
G01 X29.9595 Y14.9033
G01 X30.0265 Y14.9529
G01 X30.0883 Y15.0090
G01 X30.1443 Y15.0708
G01 X30.1940 Y15.1378
G01 X30.2320 Y15.2008
G01 X30.2413 Y15.2181
G01 X30.2725 Y15.2847
G01 X30.2975 Y15.3539
G01 X30.3032 Y15.3727
G01 X30.3187 Y15.4346
G01 X30.3226 Y15.4538
G01 X30.3331 Y15.5267
G01 X30.3372 Y15.6100
G01 X30.3331 Y15.6933
G01 X30.3226 Y15.7662
G01 X30.3187 Y15.7854
G01 X30.3006 Y15.8567
G01 X30.2761 Y15.9261
G01 X30.2685 Y15.9443
G01 X30.2413 Y16.0019
G01 X30.2320 Y16.0192
G01 X30.1940 Y16.0822
G01 X30.1443 Y16.1492
G01 X30.0883 Y16.2110
G01 X30.0265 Y16.2671
G01 X29.9595 Y16.3167
G01 X29.8965 Y16.3548
G01 X29.8791 Y16.3640
G01 X29.8125 Y16.3953
G01 X29.7433 Y16.4203
G01 X29.7245 Y16.4260
G01 X29.6626 Y16.4415
G01 X29.6434 Y16.4453
G01 X29.5705 Y16.4559
G01 X29.4872 Y16.4600
G01 X29.4039 Y16.4559
G01 X29.3311 Y16.4453
G01 X29.3214 Y16.4437
G01 X29.3074 Y16.4404
G01 X29.3074 Y17.8156
G01 X29.8105 Y18.3187
G01 X29.8402 Y18.3514
G01 X29.8637 Y18.3829
G01 X29.8717 Y18.3952
G01 X29.8868 Y18.4205
G01 X29.8915 Y18.4292
G01 X29.9041 Y18.4558
G01 X29.9116 Y18.4739
G01 X29.9215 Y18.5017
G01 X29.9243 Y18.5111
G01 X29.9337 Y18.5492
G01 X29.9402 Y18.5929
G01 X29.9423 Y18.6321
G01 X29.9424 Y18.6805
G01 X29.9539 Y18.6891
G01 X29.9615 Y18.6953
G01 X29.9869 Y18.7184
G01 X29.9972 Y18.7289
G01 X30.0169 Y18.7508
G01 X30.0261 Y18.7623
G01 X30.0464 Y18.7900
G01 X30.0667 Y18.8236
G01 X30.0735 Y18.8366
G01 X30.0880 Y18.8678
G01 X30.1029 Y18.9094
G01 X30.1136 Y18.9522
G01 X30.1195 Y18.9910
G01 X30.1208 Y19.0057
G01 X30.1222 Y19.0400
G01 X30.1222 Y19.7199
G01 X30.1201 Y19.7591
G01 X30.1153 Y19.7931
G01 X30.1126 Y19.8076
G01 X30.1029 Y19.8456
G01 X30.0898 Y19.8826
G01 X30.0840 Y19.8962
G01 X30.0691 Y19.9271
G01 X30.0516 Y19.9567
G01 X30.0436 Y19.9691
G01 X30.0201 Y20.0005
G01 X29.9939 Y20.0297
G01 X29.9833 Y20.0400
G01 X29.9577 Y20.0629
G01 X29.9303 Y20.0835
G01 X29.9181 Y20.0918
G01 X29.8844 Y20.1119
G01 X29.8489 Y20.1288
G01 X29.8353 Y20.1343
G01 X29.8029 Y20.1456
G01 X29.7648 Y20.1553
G01 X29.7503 Y20.1580
G01 X29.7163 Y20.1628
G01 X29.6722 Y20.1650
G01 X28.7222 Y20.1650
G01 X28.6781 Y20.1628
G01 X28.6441 Y20.1580
G01 X28.6296 Y20.1553
G01 X28.5916 Y20.1456
G01 X28.5592 Y20.1343
G01 X28.5455 Y20.1288
G01 X28.5101 Y20.1119
G01 X28.4722 Y20.0892
G01 X28.4445 Y20.0689
G01 X28.4330 Y20.0597
G01 X28.4040 Y20.0332
G01 X28.3775 Y20.0042
G01 X28.3683 Y19.9927
G01 X28.3481 Y19.9650
G01 X28.3254 Y19.9271
G01 X28.3084 Y19.8917
G01 X28.3030 Y19.8780
G01 X28.2916 Y19.8456
G01 X28.2819 Y19.8076
G01 X28.2792 Y19.7931
G01 X28.2744 Y19.7591
G01 X28.2723 Y19.7199
G01 X28.2723 Y19.0351
G01 X28.2744 Y18.9959
G01 X28.2809 Y18.9522
G01 X28.2916 Y18.9094
G01 X28.3030 Y18.8770
G01 X28.3084 Y18.8633
G01 X28.3254 Y18.8279
G01 X28.3481 Y18.7900
G01 X28.3744 Y18.7545
G01 X28.3973 Y18.7289
G01 X28.4075 Y18.7184
G01 X28.4293 Y18.6986
G01 X28.4445 Y18.6861
G01 X28.4722 Y18.6658
G01 X28.5101 Y18.6431
G01 X28.5500 Y18.6243
G01 X28.5823 Y18.6125
G01 X28.6011 Y18.6068
G01 X28.6296 Y18.5997
G01 X28.6393 Y18.5977
G01 X28.6781 Y18.5922
G01 X28.7124 Y18.5902
G01 X28.8087 Y18.5900
G01 X28.5355 Y18.3168
G01 X28.5093 Y18.2876
G01 X28.4886 Y18.2601
G01 X28.4803 Y18.2480
G01 X28.4603 Y18.2142
G01 X28.4453 Y18.1832
G01 X28.4395 Y18.1697
G01 X28.4265 Y18.1327
G01 X28.4179 Y18.0994
G01 X28.4149 Y18.0850
G01 X28.4098 Y18.0510
G01 X28.4085 Y18.0363
G01 X28.4071 Y18.0020
G01 X28.4071 Y16.2400
G01 X28.4093 Y16.1959
G01 X28.4158 Y16.1522
G01 X28.4251 Y16.1141
G01 X28.4296 Y16.1000
G01 X28.4414 Y16.0677
G01 X28.4558 Y16.0366
G01 X28.4626 Y16.0235
G01 X28.4803 Y15.9940
G01 X28.4886 Y15.9819
G01 X28.5093 Y15.9544
G01 X28.5355 Y15.9252
G01 X28.6596 Y15.8010
G01 X28.6546 Y15.7806
G01 X28.6527 Y15.7710
G01 X28.6419 Y15.6982
G01 X28.6406 Y15.6835
G01 X28.6372 Y15.6100
G01 X28.6406 Y15.5365
G01 X28.6419 Y15.5218
G01 X28.6527 Y15.4490
G01 X28.6546 Y15.4394
G01 X28.6596 Y15.4190
G01 X28.5305 Y15.2898
G01 X28.5043 Y15.2606
G01 X28.4836 Y15.2331
G01 X28.4753 Y15.2210
G01 X28.4601 Y15.1957
G01 X28.4530 Y15.1828
G01 X28.4383 Y15.1518
G01 X28.4328 Y15.1381
G01 X28.4215 Y15.1057
G01 X28.4129 Y15.0724
G01 X28.4099 Y15.0580
G01 X28.4048 Y15.0240
G01 X28.4035 Y15.0093
G01 X28.4021 Y14.9750
G01 X28.4021 Y13.3250
G01 X28.3581 Y13.3228
G01 X28.3144 Y13.3164
G01 X28.2716 Y13.3056
G01 X28.2392 Y13.2943
G01 X28.2210 Y13.2868
G01 X28.1945 Y13.2741
G01 X28.1816 Y13.2670
G01 X28.1522 Y13.2492
G01 X28.1168 Y13.2229
G01 X28.0840 Y13.1932
G01 X28.0608 Y13.1679
G01 X28.0483 Y13.1527
G01 X28.0308 Y13.1291
G01 X28.0228 Y13.1167
G01 X28.0054 Y13.0871
G01 X27.9865 Y13.0472
G01 X27.9716 Y13.0056
G01 X27.9609 Y12.9628
G01 X27.9544 Y12.9191
G01 X27.9522 Y12.8750
G01 X27.9523 Y12.1701
G01 X27.9544 Y12.1309
G01 X27.9592 Y12.0969
G01 X27.9630 Y12.0776
G01 X27.9702 Y12.0491
G01 X27.9731 Y12.0397
G00 Z2.0000
G00 X29.0443 Y8.7751
G01 F60.00
G01 Z-0.3621
G01 F120.00
G01 X29.0422 Y8.7359
G01 X29.0421 Y8.6625
G01 X29.0060 Y8.6454
G01 X28.9930 Y8.6387
G01 X28.9130 Y8.5907
G01 X28.9009 Y8.5824
G01 X28.8299 Y8.5297
G01 X28.8187 Y8.5202
G01 X28.7498 Y8.4575
G01 X28.6837 Y8.3849
G01 X28.6745 Y8.3734
G01 X28.6192 Y8.2983
G01 X28.5662 Y8.2100
G01 X28.5222 Y8.1168
G01 X28.4905 Y8.0291
G01 X28.4848 Y8.0103
G01 X28.4624 Y7.9198
G01 X28.4485 Y7.8277
G01 X28.4466 Y7.8081
G01 X28.4425 Y7.7248
G01 X28.4425 Y7.7052
G01 X28.4473 Y7.6121
G01 X28.4624 Y7.5102
G01 X28.4874 Y7.4102
G01 X28.5222 Y7.3132
G01 X28.5662 Y7.2200
G01 X28.6192 Y7.1317
G01 X28.6806 Y7.0489
G01 X28.7498 Y6.9725
G01 X28.8261 Y6.9033
G01 X28.9089 Y6.8420
G01 X28.9973 Y6.7890
G01 X29.0904 Y6.7449
G01 X29.1874 Y6.7102
G01 X29.2874 Y6.6852
G01 X29.3893 Y6.6701
G01 X29.4922 Y6.6650
G01 X29.5951 Y6.6701
G01 X29.6971 Y6.6852
G01 X29.7970 Y6.7102
G01 X29.8940 Y6.7449
G01 X29.9784 Y6.7846
G01 X29.9957 Y6.7938
G01 X30.0756 Y6.8420
G01 X30.1583 Y6.9033
G01 X30.2276 Y6.9658
G01 X30.2415 Y6.9796
G01 X30.3039 Y7.0489
G01 X30.3596 Y7.1236
G01 X30.3705 Y7.1399
G01 X30.4182 Y7.2200
G01 X30.4583 Y7.3042
G01 X30.4658 Y7.3223
G01 X30.4970 Y7.4102
G01 X30.5199 Y7.5006
G01 X30.5237 Y7.5198
G01 X30.5360 Y7.6023
G01 X30.5376 Y7.6170
G01 X30.5422 Y7.7150
G01 X30.5379 Y7.8081
G01 X30.5360 Y7.8277
G01 X30.5221 Y7.9198
G01 X30.4996 Y8.0103
G01 X30.4939 Y8.0291
G01 X30.4623 Y8.1168
G01 X30.4205 Y8.2056
G01 X30.4134 Y8.2185
G01 X30.3705 Y8.2901
G01 X30.3596 Y8.3064
G01 X30.3039 Y8.3811
G01 X30.2381 Y8.4539
G01 X30.2276 Y8.4642
G01 X30.1658 Y8.5202
G01 X30.1545 Y8.5297
G01 X30.0756 Y8.5880
G01 X30.0196 Y8.6218
G01 X31.3455 Y9.9477
G01 X31.3688 Y9.9730
G01 X31.3782 Y9.9843
G01 X31.4015 Y10.0159
G01 X31.4194 Y10.0453
G01 X31.4265 Y10.0582
G01 X31.4412 Y10.0892
G01 X31.4466 Y10.1029
G01 X31.4580 Y10.1353
G01 X31.4677 Y10.1734
G01 X31.4704 Y10.1879
G01 X31.4752 Y10.2219
G01 X31.4773 Y10.2611
G01 X31.4774 Y10.6365
G01 X31.5079 Y10.6444
G01 X31.5449 Y10.6574
G01 X31.5584 Y10.6632
G01 X31.5894 Y10.6781
G01 X31.6231 Y10.6982
G01 X31.6353 Y10.7065
G01 X31.6627 Y10.7271
G01 X31.6919 Y10.7534
G01 X31.6989 Y10.7603
G01 X31.7187 Y10.7821
G01 X31.7282 Y10.7934
G01 X31.7514 Y10.8250
G01 X31.7693 Y10.8543
G01 X31.7764 Y10.8672
G01 X31.7930 Y10.9028
G01 X31.8064 Y10.9397
G01 X31.8105 Y10.9538
G01 X31.8186 Y10.9872
G01 X31.8239 Y11.0211
G01 X31.8255 Y11.0358
G01 X31.8272 Y11.0750
G01 X31.8272 Y11.9750
G01 X31.8251 Y12.0191
G01 X31.8195 Y12.0580
G01 X31.8176 Y12.0676
G01 X31.8105 Y12.0962
G01 X31.8048 Y12.1149
G01 X31.7930 Y12.1472
G01 X31.7741 Y12.1871
G01 X31.7541 Y12.2209
G01 X31.7457 Y12.2330
G01 X31.7251 Y12.2605
G01 X31.6989 Y12.2897
G01 X31.6919 Y12.2966
G01 X31.6701 Y12.3164
G01 X31.6550 Y12.3289
G01 X31.6272 Y12.3492
G01 X31.5937 Y12.3695
G01 X31.5850 Y12.3741
G01 X31.5584 Y12.3868
G01 X31.5449 Y12.3926
G01 X31.5079 Y12.4056
G01 X31.4774 Y12.4135
G01 X31.4774 Y12.8736
G01 X32.3489 Y13.7452
G01 X32.3752 Y13.7744
G01 X32.3958 Y13.8019
G01 X32.4042 Y13.8140
G01 X32.4242 Y13.8478
G01 X32.4431 Y13.8877
G01 X32.4580 Y13.9293
G01 X32.4687 Y13.9722
G01 X32.4746 Y14.0110
G01 X32.4759 Y14.0257
G01 X32.4774 Y14.0600
G01 X32.4774 Y14.8897
G01 X32.4953 Y14.9006
G01 X32.5035 Y14.9060
G01 X32.5626 Y14.9499
G01 X32.5739 Y14.9594
G01 X32.6248 Y15.0055
G01 X32.6350 Y15.0161
G01 X32.6843 Y15.0708
G01 X32.7283 Y15.1297
G01 X32.7367 Y15.1419
G01 X32.7720 Y15.2008
G01 X32.7813 Y15.2181
G01 X32.8125 Y15.2847
G01 X32.8375 Y15.3539
G01 X32.8432 Y15.3727
G01 X32.8609 Y15.4442
G01 X32.8731 Y15.5267
G01 X32.8770 Y15.6002
G01 X32.8770 Y15.6198
G01 X32.8731 Y15.6933
G01 X32.8609 Y15.7758
G01 X32.8406 Y15.8567
G01 X32.8161 Y15.9261
G01 X32.8085 Y15.9443
G01 X32.7813 Y16.0019
G01 X32.7720 Y16.0192
G01 X32.7340 Y16.0822
G01 X32.6843 Y16.1492
G01 X32.6283 Y16.2110
G01 X32.5739 Y16.2606
G01 X32.5587 Y16.2731
G01 X32.5075 Y16.3111
G01 X32.4912 Y16.3220
G01 X32.4279 Y16.3596
G01 X32.3570 Y16.3934
G01 X32.3434 Y16.3988
G01 X32.2740 Y16.4234
G01 X32.1931 Y16.4437
G01 X32.1105 Y16.4559
G01 X32.0272 Y16.4600
G01 X31.9439 Y16.4559
G01 X31.8614 Y16.4437
G01 X31.7805 Y16.4234
G01 X31.7019 Y16.3953
G01 X31.6265 Y16.3596
G01 X31.5550 Y16.3167
G01 X31.4880 Y16.2671
G01 X31.4262 Y16.2110
G01 X31.3702 Y16.1492
G01 X31.3205 Y16.0822
G01 X31.2776 Y16.0107
G01 X31.2439 Y15.9398
G01 X31.2384 Y15.9261
G01 X31.2169 Y15.8661
G01 X31.2112 Y15.8473
G01 X31.1936 Y15.7758
G01 X31.1813 Y15.6933
G01 X31.1775 Y15.6198
G01 X31.1775 Y15.6002
G01 X31.1813 Y15.5267
G01 X31.1936 Y15.4442
G01 X31.2138 Y15.3633
G01 X31.2419 Y15.2847
G01 X31.2776 Y15.2093
G01 X31.3152 Y15.1461
G01 X31.3233 Y15.1337
G01 X31.3702 Y15.0708
G01 X31.4194 Y15.0161
G01 X31.4297 Y15.0055
G01 X31.4806 Y14.9594
G01 X31.4918 Y14.9499
G01 X31.5509 Y14.9060
G01 X31.5591 Y14.9006
G01 X31.5771 Y14.8897
G01 X31.5771 Y14.2464
G01 X30.7089 Y13.3783
G01 X30.6793 Y13.3456
G01 X30.6586 Y13.3181
G01 X30.6503 Y13.3060
G01 X30.6326 Y13.2765
G01 X30.6258 Y13.2634
G01 X30.6114 Y13.2323
G01 X30.5996 Y13.2000
G01 X30.5951 Y13.1859
G01 X30.5858 Y13.1478
G01 X30.5805 Y13.1139
G01 X30.5789 Y13.0992
G01 X30.5771 Y13.0600
G01 X30.5771 Y12.4135
G01 X30.5466 Y12.4056
G01 X30.5096 Y12.3926
G01 X30.4960 Y12.3868
G01 X30.4651 Y12.3719
G01 X30.4313 Y12.3518
G01 X30.4192 Y12.3435
G01 X30.3918 Y12.3229
G01 X30.3625 Y12.2966
G01 X30.3523 Y12.2861
G01 X30.3294 Y12.2605
G01 X30.3058 Y12.2291
G01 X30.2978 Y12.2167
G01 X30.2804 Y12.1871
G01 X30.2634 Y12.1517
G01 X30.2580 Y12.1380
G01 X30.2481 Y12.1103
G01 X30.2452 Y12.1009
G01 X30.2359 Y12.0628
G01 X30.2306 Y12.0289
G01 X30.2290 Y12.0142
G01 X30.2272 Y11.9750
G01 X30.2272 Y11.0750
G01 X30.2294 Y11.0309
G01 X30.2359 Y10.9872
G01 X30.2466 Y10.9444
G01 X30.2580 Y10.9120
G01 X30.2634 Y10.8983
G01 X30.2804 Y10.8629
G01 X30.3004 Y10.8291
G01 X30.3087 Y10.8170
G01 X30.3294 Y10.7895
G01 X30.3556 Y10.7603
G01 X30.3625 Y10.7534
G01 X30.3843 Y10.7336
G01 X30.3995 Y10.7211
G01 X30.4272 Y10.7008
G01 X30.4608 Y10.6805
G01 X30.4695 Y10.6759
G01 X30.4960 Y10.6632
G01 X30.5096 Y10.6574
G01 X30.5466 Y10.6444
G01 X30.5771 Y10.6365
G01 X30.5771 Y10.4524
G01 X29.1672 Y9.0422
G01 X29.1443 Y9.0166
G01 X29.1180 Y8.9811
G01 X29.0953 Y8.9432
G01 X29.0803 Y8.9122
G01 X29.0728 Y8.8941
G01 X29.0630 Y8.8663
G01 X29.0589 Y8.8522
G01 X29.0508 Y8.8188
G01 X29.0443 Y8.7751
G00 Z2.0000
G00 X34.3281 Y12.0397
G01 F60.00
G01 Z-0.3621
G01 F120.00
G01 X34.3415 Y12.0028
G01 X34.3560 Y11.9716
G01 X34.3627 Y11.9586
G01 X34.3831 Y11.9250
G01 X34.4063 Y11.8934
G01 X34.4158 Y11.8821
G01 X34.4390 Y11.8568
G01 X34.4643 Y11.8336
G01 X34.4756 Y11.8241
G01 X34.5072 Y11.8008
G01 X34.5366 Y11.7830
G01 X34.5495 Y11.7759
G01 X34.5805 Y11.7612
G01 X34.5942 Y11.7557
G01 X34.6266 Y11.7444
G01 X34.6646 Y11.7347
G01 X34.6791 Y11.7320
G01 X34.7131 Y11.7272
G01 X34.7572 Y11.7250
G01 X35.6621 Y11.7251
G01 X35.7013 Y11.7272
G01 X35.7450 Y11.7336
G01 X35.7879 Y11.7444
G01 X35.8203 Y11.7557
G01 X35.8384 Y11.7632
G01 X35.8650 Y11.7759
G01 X35.8779 Y11.7830
G01 X35.9072 Y11.8008
G01 X35.9427 Y11.8271
G01 X35.9754 Y11.8568
G01 X35.9987 Y11.8821
G01 X36.0111 Y11.8973
G01 X36.0286 Y11.9209
G01 X36.0366 Y11.9333
G01 X36.0541 Y11.9629
G01 X36.0730 Y12.0028
G01 X36.0879 Y12.0444
G01 X36.0976 Y12.0824
G01 X36.1003 Y12.0969
G01 X36.1051 Y12.1309
G01 X36.1072 Y12.1750
G01 X36.1072 Y12.8799
G01 X36.1051 Y12.9191
G01 X36.0995 Y12.9580
G01 X36.0976 Y12.9676
G01 X36.0905 Y12.9962
G01 X36.0848 Y13.0149
G01 X36.0730 Y13.0472
G01 X36.0541 Y13.0871
G01 X36.0314 Y13.1250
G01 X36.0111 Y13.1527
G01 X35.9987 Y13.1679
G01 X35.9789 Y13.1897
G01 X35.9719 Y13.1966
G01 X35.9427 Y13.2229
G01 X35.9153 Y13.2435
G01 X35.8989 Y13.2544
G01 X35.8737 Y13.2695
G01 X35.8606 Y13.2763
G01 X35.8294 Y13.2907
G01 X35.7879 Y13.3056
G01 X35.7498 Y13.3153
G01 X35.7353 Y13.3180
G01 X35.7013 Y13.3228
G01 X35.6574 Y13.3250
G01 X35.6574 Y14.7809
G01 X35.6716 Y14.7773
G01 X35.6812 Y14.7754
G01 X35.7540 Y14.7646
G01 X35.7687 Y14.7634
G01 X35.8422 Y14.7600
G01 X35.9255 Y14.7641
G01 X35.9984 Y14.7747
G01 X36.0176 Y14.7785
G01 X36.0890 Y14.7966
G01 X36.1584 Y14.8212
G01 X36.1765 Y14.8287
G01 X36.2341 Y14.8560
G01 X36.2515 Y14.8652
G01 X36.3145 Y14.9033
G01 X36.3737 Y14.9469
G01 X36.3889 Y14.9594
G01 X36.4362 Y15.0022
G01 X36.4500 Y15.0161
G01 X36.4993 Y15.0708
G01 X36.5433 Y15.1297
G01 X36.5542 Y15.1461
G01 X36.5919 Y15.2093
G01 X36.6275 Y15.2847
G01 X36.6556 Y15.3633
G01 X36.6737 Y15.4346
G01 X36.6776 Y15.4538
G01 X36.6881 Y15.5267
G01 X36.6920 Y15.6002
G01 X36.6920 Y15.6198
G01 X36.6881 Y15.6933
G01 X36.6759 Y15.7758
G01 X36.6556 Y15.8567
G01 X36.6275 Y15.9353
G01 X36.5919 Y16.0107
G01 X36.5490 Y16.0822
G01 X36.4993 Y16.1492
G01 X36.4433 Y16.2110
G01 X36.3889 Y16.2606
G01 X36.3737 Y16.2731
G01 X36.3145 Y16.3167
G01 X36.2515 Y16.3548
G01 X36.2341 Y16.3640
G01 X36.1765 Y16.3913
G01 X36.1584 Y16.3988
G01 X36.0890 Y16.4234
G01 X36.0129 Y16.4427
G01 X35.9984 Y16.4453
G01 X35.9255 Y16.4559
G01 X35.8520 Y16.4598
G01 X35.8373 Y16.4599
G01 X35.7687 Y16.4566
G01 X35.7540 Y16.4554
G01 X35.6812 Y16.4446
G01 X35.6716 Y16.4427
G01 X35.6512 Y16.4376
G01 X35.5304 Y16.5584
G01 X35.5304 Y17.6886
G01 X36.1605 Y18.3187
G01 X36.1870 Y18.3477
G01 X36.1962 Y18.3592
G01 X36.2165 Y18.3869
G01 X36.2392 Y18.4248
G01 X36.2581 Y18.4647
G01 X36.2730 Y18.5063
G01 X36.2837 Y18.5492
G01 X36.2896 Y18.5880
G01 X36.2909 Y18.6027
G01 X36.2923 Y18.6321
G01 X36.2924 Y18.6747
G01 X36.3116 Y18.6891
G01 X36.3192 Y18.6953
G01 X36.3411 Y18.7150
G01 X36.3516 Y18.7253
G01 X36.3779 Y18.7545
G01 X36.4042 Y18.7900
G01 X36.4269 Y18.8279
G01 X36.4457 Y18.8678
G01 X36.4606 Y18.9094
G01 X36.4692 Y18.9426
G01 X36.4723 Y18.9570
G01 X36.4773 Y18.9910
G01 X36.4786 Y19.0057
G01 X36.4799 Y19.0351
G01 X36.4800 Y19.7150
G01 X36.4783 Y19.7542
G01 X36.4766 Y19.7689
G01 X36.4714 Y19.8028
G01 X36.4620 Y19.8409
G01 X36.4591 Y19.8503
G01 X36.4493 Y19.8780
G01 X36.4438 Y19.8917
G01 X36.4269 Y19.9271
G01 X36.4094 Y19.9567
G01 X36.4014 Y19.9691
G01 X36.3779 Y20.0005
G01 X36.3516 Y20.0297
G01 X36.3411 Y20.0400
G01 X36.3155 Y20.0629
G01 X36.2880 Y20.0835
G01 X36.2759 Y20.0918
G01 X36.2421 Y20.1119
G01 X36.2067 Y20.1288
G01 X36.1930 Y20.1343
G01 X36.1606 Y20.1456
G01 X36.1226 Y20.1553
G01 X36.1081 Y20.1580
G01 X36.0741 Y20.1628
G01 X36.0300 Y20.1650
G01 X35.0800 Y20.1650
G01 X35.0359 Y20.1628
G01 X35.0019 Y20.1580
G01 X34.9874 Y20.1553
G01 X34.9494 Y20.1456
G01 X34.9170 Y20.1343
G01 X34.9033 Y20.1288
G01 X34.8679 Y20.1119
G01 X34.8300 Y20.0892
G01 X34.8023 Y20.0689
G01 X34.7908 Y20.0597
G01 X34.7618 Y20.0332
G01 X34.7353 Y20.0042
G01 X34.7261 Y19.9927
G01 X34.7058 Y19.9650
G01 X34.6831 Y19.9271
G01 X34.6662 Y19.8917
G01 X34.6607 Y19.8780
G01 X34.6494 Y19.8456
G01 X34.6397 Y19.8076
G01 X34.6370 Y19.7931
G01 X34.6322 Y19.7591
G01 X34.6301 Y19.7199
G01 X34.6301 Y19.0351
G01 X34.6322 Y18.9959
G01 X34.6386 Y18.9522
G01 X34.6494 Y18.9094
G01 X34.6643 Y18.8678
G01 X34.6831 Y18.8279
G01 X34.7006 Y18.7983
G01 X34.7086 Y18.7859
G01 X34.7261 Y18.7623
G01 X34.7386 Y18.7471
G01 X34.7618 Y18.7218
G01 X34.7945 Y18.6921
G01 X34.8300 Y18.6658
G01 X34.8636 Y18.6455
G01 X34.8722 Y18.6409
G01 X34.8988 Y18.6282
G01 X34.9170 Y18.6207
G01 X34.9494 Y18.6094
G01 X34.9922 Y18.5986
G01 X35.0310 Y18.5927
G01 X35.0457 Y18.5914
G01 X35.0751 Y18.5901
G01 X35.1587 Y18.5900
G01 X34.7619 Y18.1933
G01 X34.7387 Y18.1680
G01 X34.7292 Y18.1567
G01 X34.7060 Y18.1251
G01 X34.6881 Y18.0957
G01 X34.6810 Y18.0828
G01 X34.6644 Y18.0473
G01 X34.6510 Y18.0103
G01 X34.6469 Y17.9962
G01 X34.6388 Y17.9628
G01 X34.6328 Y17.9240
G01 X34.6315 Y17.9093
G01 X34.6301 Y17.8750
G01 X34.6301 Y16.3720
G01 X34.6323 Y16.3279
G01 X34.6371 Y16.2939
G01 X34.6398 Y16.2794
G01 X34.6495 Y16.2413
G01 X34.6608 Y16.2089
G01 X34.6663 Y16.1952
G01 X34.6810 Y16.1642
G01 X34.6881 Y16.1513
G01 X34.7060 Y16.1219
G01 X34.7292 Y16.0903
G01 X34.7387 Y16.0790
G01 X34.7619 Y16.0537
G01 X35.0146 Y15.8010
G01 X35.0096 Y15.7806
G01 X35.0077 Y15.7710
G01 X34.9969 Y15.6982
G01 X34.9956 Y15.6835
G01 X34.9922 Y15.6100
G01 X34.9956 Y15.5365
G01 X34.9969 Y15.5218
G01 X35.0077 Y15.4490
G01 X35.0096 Y15.4394
G01 X35.0146 Y15.4190
G01 X34.8855 Y15.2898
G01 X34.8593 Y15.2606
G01 X34.8386 Y15.2331
G01 X34.8303 Y15.2210
G01 X34.8151 Y15.1957
G01 X34.8080 Y15.1828
G01 X34.7933 Y15.1518
G01 X34.7878 Y15.1381
G01 X34.7765 Y15.1057
G01 X34.7679 Y15.0724
G01 X34.7649 Y15.0580
G01 X34.7598 Y15.0240
G01 X34.7585 Y15.0093
G01 X34.7571 Y14.9750
G01 X34.7571 Y13.3250
G01 X34.7131 Y13.3228
G01 X34.6694 Y13.3164
G01 X34.6266 Y13.3056
G01 X34.5942 Y13.2943
G01 X34.5760 Y13.2868
G01 X34.5495 Y13.2741
G01 X34.5366 Y13.2670
G01 X34.5072 Y13.2492
G01 X34.4718 Y13.2229
G01 X34.4390 Y13.1932
G01 X34.4158 Y13.1679
G01 X34.4033 Y13.1527
G01 X34.3858 Y13.1291
G01 X34.3778 Y13.1167
G01 X34.3604 Y13.0871
G01 X34.3415 Y13.0472
G01 X34.3266 Y13.0056
G01 X34.3159 Y12.9628
G01 X34.3094 Y12.9191
G01 X34.3072 Y12.8750
G01 X34.3073 Y12.1701
G01 X34.3094 Y12.1309
G01 X34.3142 Y12.0969
G01 X34.3180 Y12.0776
G01 X34.3252 Y12.0491
G01 X34.3281 Y12.0397
G00 Z2.0000
G00 X35.2673 Y8.6481
G01 F60.00
G01 Z-0.3621
G01 F120.00
G01 X35.2653 Y8.6138
G01 X35.2651 Y8.5920
G01 X35.2509 Y8.5824
G01 X35.1761 Y8.5267
G01 X35.0998 Y8.4575
G01 X35.0306 Y8.3811
G01 X34.9748 Y8.3064
G01 X34.9665 Y8.2942
G01 X34.9162 Y8.2100
G01 X34.8722 Y8.1168
G01 X34.8374 Y8.0198
G01 X34.8124 Y7.9198
G01 X34.7973 Y7.8179
G01 X34.7922 Y7.7150
G01 X34.7973 Y7.6121
G01 X34.8124 Y7.5102
G01 X34.8374 Y7.4102
G01 X34.8722 Y7.3132
G01 X34.9162 Y7.2200
G01 X34.9665 Y7.1358
G01 X34.9748 Y7.1236
G01 X35.0306 Y7.0489
G01 X35.0998 Y6.9725
